; generated by PrusaSlicer 2.1.1 on 2020-08-22 at 12:35:21 UTC

; 

; external perimeters extrusion width = 0.60mm
; perimeters extrusion width = 0.50mm
; infill extrusion width = 0.50mm
; solid infill extrusion width = 0.50mm
; top infill extrusion width = 0.45mm
; first layer extrusion width = 0.42mm

M73 P0 R96
M73 Q0 S97
M201 X1000 Y1000 Z200 E5000 ; sets maximum accelerations, mm/sec^2
M203 X200 Y200 Z12 E120 ; sets maximum feedrates, mm/sec
M204 P1250 R1250 T1250 ; sets acceleration (P, T) and retract acceleration (R), mm/sec^2
M205 X8.00 Y8.00 Z0.40 E4.50 ; sets the jerk limits, mm/sec
M205 S0 T0 ; sets the minimum extruding and travel feed rate, mm/sec
M107
M862.3 P "MK3S" ; printer model check
M862.1 P0.4 ; nozzle diameter check
M115 U3.9.0 ; tell printer latest fw version
G90 ; use absolute coordinates
M83 ; extruder relative mode
M104 S215 ; set extruder temp
M140 S60 ; set bed temp
M190 S60 ; wait for bed temp
M109 S215 ; wait for extruder temp
G28 W ; home all without mesh bed level
G80 ; mesh bed leveling
G1 Y-3.0 F1000.0 ; go outside print area
G92 E0.0
G1 X60.0 E9.0 F1000.0 ; intro line
M73 Q0 S97
M73 P0 R96
G1 X100.0 E12.5 F1000.0 ; intro line
G92 E0.0
M221 S95
G21 ; set units to millimeters
G90 ; use absolute coordinates
M83 ; use relative distances for extrusion
M900 K0.06 ; Filament gcode LA 1.5
M900 K30 ; Filament gcode LA 1.0
;BEFORE_LAYER_CHANGE
G92 E0.0
;0.2


G1 E-0.80000 F2100.00000
G1 Z0.600 F10800.000
;AFTER_LAYER_CHANGE
;0.2
G1 X84.117 Y60.997
G1 Z0.200
G1 E0.80000 F2100.00000
M204 S1000
G1 F1200
G1 X84.980 Y60.812 E0.02766
G1 X165.004 Y60.811 E2.50910
G1 X165.813 Y60.968 E0.02586
G1 X166.507 Y61.413 E0.02586
G1 X166.988 Y62.084 E0.02586
G1 X167.185 Y62.885 E0.02586
G1 X167.188 Y102.058 E1.22827
G1 X163.178 Y147.216 E1.42144
G1 X162.996 Y147.898 E0.02213
G1 X162.604 Y148.489 E0.02225
G1 X161.876 Y149.006 E0.02799
G1 X161.002 Y149.189 E0.02799
G1 X84.985 Y149.188 E2.38344
G1 X84.193 Y149.035 E0.02529
G1 X83.511 Y148.604 E0.02529
G1 X82.994 Y147.876 E0.02799
G1 X82.811 Y147.002 E0.02799
G1 X82.812 Y62.985 E2.63429
G1 X82.965 Y62.193 E0.02529
G1 X83.396 Y61.511 E0.02529
G1 X84.068 Y61.032 E0.02589
G1 F8640
G1 X84.980 Y60.812 E-0.21646
G1 X87.333 Y60.812 E-0.54354
G1 E-0.04000 F2100.00000
G1 Z0.800 F10800.000
G1 X154.496 Y140.548
G1 Z0.200
G1 E0.80000 F2100.00000
G1 F1200
G1 X154.823 Y140.274 E0.01338
G1 X155.093 Y140.118 E0.00978
G1 X155.494 Y139.972 E0.01338
G1 X155.927 Y139.911 E0.01370
G1 X156.363 Y139.941 E0.01371
G1 X156.783 Y140.062 E0.01370
G1 X157.169 Y140.267 E0.01370
G1 X157.504 Y140.548 E0.01370
G1 X157.766 Y140.884 E0.01338
G1 X157.913 Y141.160 E0.00978
G1 X158.045 Y141.565 E0.01337
G1 X158.090 Y142.000 E0.01370
G1 X158.045 Y142.435 E0.01370
G1 X157.913 Y142.840 E0.01337
G1 X157.766 Y143.116 E0.00978
G1 X157.504 Y143.452 E0.01338
G1 X157.177 Y143.726 E0.01338
G1 X156.907 Y143.882 E0.00978
G1 X156.506 Y144.028 E0.01338
G1 X156.073 Y144.089 E0.01370
G1 X155.637 Y144.059 E0.01371
G1 X155.217 Y143.938 E0.01370
G1 X154.831 Y143.733 E0.01370
G1 X154.496 Y143.452 E0.01370
G1 X154.234 Y143.116 E0.01338
G1 X154.087 Y142.840 E0.00978
G1 X153.955 Y142.435 E0.01337
G1 X153.910 Y142.000 E0.01370
G1 X153.955 Y141.565 E0.01370
G1 X154.087 Y141.160 E0.01337
G1 X154.234 Y140.884 E0.00978
G1 X154.459 Y140.595 E0.01150
G1 X154.757 Y140.827 F10800.000
G1 F1200
G1 X155.040 Y140.584 E0.01173
G1 X155.253 Y140.461 E0.00771
G1 X155.586 Y140.340 E0.01110
G1 X155.940 Y140.290 E0.01121
G1 X156.297 Y140.315 E0.01122
G1 X156.641 Y140.413 E0.01121
G1 X156.957 Y140.581 E0.01122
G1 X157.231 Y140.811 E0.01122
G1 X157.449 Y141.090 E0.01110
G1 X157.564 Y141.308 E0.00771
G1 X157.674 Y141.644 E0.01110
G1 X157.711 Y142.000 E0.01122
G1 X157.674 Y142.356 E0.01122
G1 X157.564 Y142.692 E0.01110
G1 X157.449 Y142.910 E0.00771
G1 X157.231 Y143.189 E0.01110
G1 X156.960 Y143.416 E0.01110
G1 X156.747 Y143.539 E0.00771
G1 X156.414 Y143.660 E0.01110
G1 X156.060 Y143.710 E0.01121
G1 X155.703 Y143.685 E0.01122
G1 X155.359 Y143.587 E0.01121
G1 X155.043 Y143.419 E0.01122
G1 X154.769 Y143.189 E0.01122
G1 X154.551 Y142.910 E0.01110
G1 X154.436 Y142.692 E0.00771
G1 X154.326 Y142.356 E0.01110
G1 X154.289 Y142.000 E0.01122
G1 X154.326 Y141.644 E0.01122
G1 X154.436 Y141.308 E0.01110
G1 X154.551 Y141.090 E0.00771
G1 X154.720 Y140.875 E0.00858
G1 X154.654 Y140.468 F10800.000
G1 F8640
G1 X155.040 Y140.584 E-0.09998
G1 X155.253 Y140.461 E-0.05680
G1 X155.586 Y140.340 E-0.08174
G1 X155.940 Y140.290 E-0.08259
G1 X156.297 Y140.315 E-0.08262
G1 X156.641 Y140.413 E-0.08259
G1 X156.957 Y140.581 E-0.08261
G1 X157.231 Y140.811 E-0.08260
G1 X157.449 Y141.090 E-0.08175
G1 X157.503 Y141.192 E-0.02671
G1 E-0.04000 F2100.00000
G1 Z0.800 F10800.000
G1 X156.073 Y119.089
G1 Z0.200
G1 E0.80000 F2100.00000
G1 F1200
G1 X155.637 Y119.059 E0.01370
G1 X155.217 Y118.938 E0.01370
G1 X154.840 Y118.738 E0.01338
G1 X154.594 Y118.546 E0.00978
G1 X154.309 Y118.229 E0.01338
G1 X154.090 Y117.850 E0.01370
G1 X153.955 Y117.435 E0.01370
G1 X153.910 Y117.000 E0.01370
G1 X153.955 Y116.565 E0.01370
G1 X154.087 Y116.160 E0.01337
G1 X154.234 Y115.884 E0.00978
G1 X154.490 Y115.556 E0.01306
G1 X154.722 Y115.347 E0.00978
G1 X155.084 Y115.121 E0.01338
G1 X155.494 Y114.972 E0.01370
G1 X155.927 Y114.911 E0.01370
G1 X156.353 Y114.941 E0.01338
G1 X156.655 Y115.016 E0.00978
G1 X157.045 Y115.190 E0.01338
G1 X157.399 Y115.447 E0.01370
G1 X157.691 Y115.771 E0.01370
G1 X157.910 Y116.150 E0.01370
G1 X158.045 Y116.565 E0.01370
G1 X158.090 Y117.000 E0.01370
G1 X158.045 Y117.435 E0.01370
G1 X157.913 Y117.840 E0.01337
G1 X157.766 Y118.116 E0.00978
G1 X157.510 Y118.444 E0.01306
G1 X157.278 Y118.653 E0.00978
G1 X156.916 Y118.879 E0.01338
G1 X156.506 Y119.028 E0.01370
G1 X156.132 Y119.081 E0.01182
G1 X156.080 Y118.707 F10800.000
G1 F1200
G1 X155.703 Y118.685 E0.01184
G1 X155.359 Y118.587 E0.01122
G1 X155.046 Y118.420 E0.01110
G1 X154.853 Y118.269 E0.00771
G1 X154.616 Y118.006 E0.01110
G1 X154.437 Y117.696 E0.01122
G1 X154.326 Y117.356 E0.01122
G1 X154.289 Y117.000 E0.01122
G1 X154.326 Y116.644 E0.01122
G1 X154.436 Y116.308 E0.01110
G1 X154.551 Y116.090 E0.00771
G1 X154.767 Y115.814 E0.01099
G1 X154.950 Y115.650 E0.00771
G1 X155.250 Y115.462 E0.01110
G1 X155.586 Y115.340 E0.01122
G1 X155.940 Y115.290 E0.01122
G1 X156.293 Y115.315 E0.01110
G1 X156.532 Y115.374 E0.00771
G1 X156.856 Y115.518 E0.01110
G1 X157.145 Y115.728 E0.01122
G1 X157.384 Y115.994 E0.01122
G1 X157.563 Y116.304 E0.01122
G1 X157.674 Y116.644 E0.01122
G1 X157.711 Y117.000 E0.01122
G1 X157.674 Y117.356 E0.01122
G1 X157.564 Y117.692 E0.01110
G1 X157.449 Y117.910 E0.00771
G1 X157.233 Y118.186 E0.01099
G1 X157.050 Y118.350 E0.00771
G1 X156.750 Y118.538 E0.01110
G1 X156.414 Y118.660 E0.01122
G1 X156.139 Y118.699 E0.00870
G1 X155.905 Y119.042 F10800.000
G1 F8640
G1 X155.703 Y118.685 E-0.10084
G1 X155.359 Y118.587 E-0.08259
G1 X155.046 Y118.420 E-0.08175
G1 X154.853 Y118.269 E-0.05681
G1 X154.616 Y118.006 E-0.08174
G1 X154.437 Y117.696 E-0.08260
G1 X154.326 Y117.356 E-0.08260
G1 X154.289 Y117.000 E-0.08260
G1 X154.326 Y116.644 E-0.08260
G1 X154.361 Y116.538 E-0.02586
G1 E-0.04000 F2100.00000
G1 Z0.800 F10800.000
G1 X92.085 Y129.354
G1 Z0.200
G1 E0.80000 F2100.00000
G1 F1200
G1 X92.070 Y129.781 E0.01338
G1 X92.005 Y130.086 E0.00978
G1 X91.846 Y130.481 E0.01338
G1 X91.601 Y130.844 E0.01370
G1 X91.287 Y131.147 E0.01370
G1 X90.916 Y131.379 E0.01370
G1 X90.506 Y131.528 E0.01370
G1 X90.073 Y131.589 E0.01370
G1 X89.637 Y131.559 E0.01370
G1 X89.217 Y131.438 E0.01370
G1 X88.840 Y131.238 E0.01338
G1 X88.594 Y131.046 E0.00978
G1 X88.309 Y130.729 E0.01338
G1 X88.090 Y130.350 E0.01370
G1 X87.958 Y129.944 E0.01340
G1 X87.915 Y129.629 E0.00996
G1 X87.930 Y129.209 E0.01319
G1 X88.036 Y128.785 E0.01369
G1 X88.227 Y128.392 E0.01370
G1 X88.496 Y128.048 E0.01370
G1 X88.831 Y127.767 E0.01370
G1 X89.217 Y127.562 E0.01370
G1 X89.627 Y127.444 E0.01338
G1 X89.937 Y127.412 E0.00978
G1 X90.363 Y127.441 E0.01338
G1 X90.783 Y127.562 E0.01370
G1 X91.160 Y127.762 E0.01338
G1 X91.406 Y127.954 E0.00978
G1 X91.691 Y128.271 E0.01337
G1 X91.904 Y128.641 E0.01338
G1 X92.011 Y128.934 E0.00978
G1 X92.075 Y129.295 E0.01150
G1 X91.703 Y129.361 F10800.000
G1 F1200
G1 X91.695 Y129.734 E0.01173
G1 X91.643 Y129.975 E0.00771
G1 X91.511 Y130.303 E0.01110
G1 X91.311 Y130.600 E0.01122
G1 X91.053 Y130.848 E0.01122
G1 X90.750 Y131.038 E0.01122
G1 X90.414 Y131.160 E0.01122
G1 X90.060 Y131.210 E0.01122
G1 X89.703 Y131.185 E0.01122
G1 X89.359 Y131.087 E0.01122
G1 X89.046 Y130.920 E0.01110
G1 X88.853 Y130.769 E0.00771
G1 X88.616 Y130.506 E0.01110
G1 X88.437 Y130.196 E0.01122
G1 X88.327 Y129.859 E0.01111
G1 X88.293 Y129.610 E0.00788
G1 X88.306 Y129.262 E0.01093
G1 X88.392 Y128.915 E0.01121
G1 X88.549 Y128.593 E0.01122
G1 X88.769 Y128.311 E0.01122
G1 X89.043 Y128.081 E0.01122
G1 X89.359 Y127.913 E0.01122
G1 X89.699 Y127.816 E0.01110
G1 X89.944 Y127.790 E0.00771
G1 X90.297 Y127.815 E0.01110
G1 X90.641 Y127.913 E0.01122
G1 X90.954 Y128.080 E0.01110
G1 X91.147 Y128.231 E0.00771
G1 X91.384 Y128.494 E0.01110
G1 X91.561 Y128.801 E0.01110
G1 X91.646 Y129.032 E0.00771
G1 X91.693 Y129.302 E0.00858
G1 X92.039 Y129.525 F10800.000
G1 F8640
G1 X91.695 Y129.734 E-0.09997
G1 X91.643 Y129.975 E-0.05681
G1 X91.511 Y130.303 E-0.08173
G1 X91.311 Y130.600 E-0.08261
G1 X91.053 Y130.848 E-0.08260
G1 X90.750 Y131.038 E-0.08260
G1 X90.414 Y131.160 E-0.08260
G1 X90.060 Y131.210 E-0.08260
G1 X89.703 Y131.185 E-0.08260
G1 X89.595 Y131.154 E-0.02588
G1 E-0.04000 F2100.00000
G1 Z0.800 F10800.000
G1 X85.587 Y112.587
G1 Z0.200
G1 E0.80000 F2100.00000
G1 F1200
G1 X160.413 Y112.587 E2.34611
G1 X160.413 Y146.413 E1.06059
G1 X85.587 Y146.413 E2.34611
G1 X85.587 Y112.647 E1.05870
G1 X85.210 Y112.210 F10800.000
G1 F1200
G1 X160.790 Y112.210 E2.36976
G1 X160.790 Y146.790 E1.08423
G1 X85.210 Y146.790 E2.36976
G1 X85.210 Y112.270 E1.08235
G1 X85.606 Y112.267 F10800.000
G1 F8640
G1 X88.501 Y112.267 E-0.76000
G1 E-0.04000 F2100.00000
G1 Z0.800 F10800.000
G1 X90.445 Y127.347
G1 Z0.200
G1 E0.80000 F2100.00000
G1 F1200
G1 X85.870 Y122.772 E0.20291
G1 X85.870 Y123.305 E0.01673
G1 X89.715 Y127.151 E0.17054
G1 X89.573 Y127.166 E0.00448
G1 X89.281 Y127.249 E0.00954
G1 X85.870 Y123.839 E0.15126
G1 X85.870 Y124.372 E0.01673
G1 X88.905 Y127.407 E0.13461
G1 X88.672 Y127.531 E0.00828
G1 X88.576 Y127.612 E0.00393
G1 X85.870 Y124.906 E0.12002
G1 X85.870 Y125.439 E0.01673
G1 X88.287 Y127.856 E0.10721
G1 X88.053 Y128.156 E0.01192
G1 X85.870 Y125.972 E0.09683
G1 X85.870 Y126.506 E0.01673
G1 X87.861 Y128.497 E0.08833
G1 X87.769 Y128.688 E0.00665
G1 X87.719 Y128.888 E0.00646
G1 X85.870 Y127.039 E0.08200
G1 X85.870 Y127.572 E0.01673
G1 X87.642 Y129.345 E0.07860
G1 X87.631 Y129.643 E0.00937
G1 X87.667 Y129.903 E0.00822
G1 X85.870 Y128.106 E0.07972
G1 X85.870 Y128.639 E0.01673
G1 X103.361 Y146.130 E0.77573
G1 X102.827 Y146.130 E0.01673
G1 X85.870 Y129.173 E0.75207
G1 X85.870 Y129.706 E0.01673
G1 X102.294 Y146.130 E0.72842
G1 X101.761 Y146.130 E0.01673
G1 X85.870 Y130.239 E0.70476
G1 X85.870 Y130.773 E0.01673
G1 X101.227 Y146.130 E0.68111
G1 X100.694 Y146.130 E0.01673
G1 X85.870 Y131.306 E0.65745
G1 X85.870 Y131.839 E0.01673
G1 X100.161 Y146.130 E0.63380
M73 Q1 S96
M73 P1 R95
G1 X99.627 Y146.130 E0.01673
G1 X85.870 Y132.373 E0.61014
G1 X85.870 Y132.906 E0.01673
G1 X99.094 Y146.130 E0.58649
G1 X98.560 Y146.130 E0.01673
G1 X85.870 Y133.440 E0.56283
G1 X85.870 Y133.973 E0.01673
G1 X98.027 Y146.130 E0.53918
G1 X97.494 Y146.130 E0.01673
G1 X85.870 Y134.506 E0.51552
G1 X85.870 Y135.040 E0.01673
G1 X96.960 Y146.130 E0.49187
G1 X96.427 Y146.130 E0.01673
G1 X85.870 Y135.573 E0.46821
G1 X85.870 Y136.106 E0.01673
G1 X95.894 Y146.130 E0.44455
G1 X95.360 Y146.130 E0.01673
G1 X85.870 Y136.640 E0.42090
G1 X85.870 Y137.173 E0.01673
G1 X94.827 Y146.130 E0.39724
G1 X94.294 Y146.130 E0.01673
G1 X85.870 Y137.706 E0.37359
G1 X85.870 Y138.240 E0.01673
G1 X93.760 Y146.130 E0.34993
G1 X93.227 Y146.130 E0.01673
G1 X85.870 Y138.773 E0.32628
G1 X85.870 Y139.307 E0.01673
G1 X92.693 Y146.130 E0.30262
G1 X92.160 Y146.130 E0.01673
G1 X85.870 Y139.840 E0.27897
G1 X85.870 Y140.373 E0.01673
G1 X91.627 Y146.130 E0.25531
G1 X91.093 Y146.130 E0.01673
G1 X85.870 Y140.907 E0.23166
G1 X85.870 Y141.440 E0.01673
G1 X90.560 Y146.130 E0.20800
G1 X90.027 Y146.130 E0.01673
G1 X85.870 Y141.973 E0.18435
G1 X85.870 Y142.507 E0.01673
G1 X89.493 Y146.130 E0.16069
G1 X88.960 Y146.130 E0.01673
G1 X85.870 Y143.040 E0.13704
G1 X85.870 Y143.574 E0.01673
G1 X88.426 Y146.130 E0.11338
G1 X87.893 Y146.130 E0.01673
G1 X85.870 Y144.107 E0.08973
G1 X85.870 Y144.640 E0.01673
G1 X87.360 Y146.130 E0.06607
G1 X86.826 Y146.130 E0.01673
G1 X85.870 Y145.174 E0.04242
G1 X85.870 Y145.707 E0.01673
G1 X86.463 Y146.300 E0.02629
G1 F8640
G1 X85.870 Y145.707 E-0.19356
G1 X85.870 Y145.174 E-0.12316
G1 X86.826 Y146.130 E-0.31232
G1 X87.360 Y146.130 E-0.12316
G1 X87.336 Y146.106 E-0.00780
G1 E-0.04000 F2100.00000
G1 Z0.800 F10800.000
G1 X89.361 Y131.597
G1 Z0.200
G1 E0.80000 F2100.00000
G1 F1200
G1 X103.894 Y146.130 E0.64454
G1 X104.428 Y146.130 E0.01673
G1 X90.160 Y131.862 E0.63277
G1 X90.619 Y131.788 E0.01458
G1 X104.961 Y146.130 E0.63608
G1 X105.494 Y146.130 E0.01673
G1 X91.010 Y131.646 E0.64239
G1 X91.343 Y131.446 E0.01219
G1 X106.028 Y146.130 E0.65126
G1 X106.561 Y146.130 E0.01673
G1 X91.635 Y131.204 E0.66197
G1 X91.819 Y131.026 E0.00802
G1 X91.888 Y130.924 E0.00388
G1 X107.094 Y146.130 E0.67440
G1 X107.628 Y146.130 E0.01673
G1 X92.101 Y130.604 E0.68860
G1 X92.255 Y130.224 E0.01285
G1 X108.161 Y146.130 E0.70545
G1 X108.695 Y146.130 E0.01673
G1 X92.353 Y129.789 E0.72475
G1 X92.369 Y129.334 E0.01425
G1 X92.355 Y129.258 E0.00245
G1 X109.228 Y146.130 E0.74830
G1 X109.761 Y146.130 E0.01673
G1 X85.870 Y122.239 E1.05959
G1 X85.870 Y121.705 E0.01673
G1 X110.295 Y146.130 E1.08324
G1 X110.828 Y146.130 E0.01673
G1 X85.870 Y121.172 E1.10690
G1 X85.870 Y120.639 E0.01673
G1 X111.361 Y146.130 E1.13055
G1 X111.895 Y146.130 E0.01673
G1 X85.870 Y120.105 E1.15421
G1 X85.870 Y119.572 E0.01673
G1 X112.428 Y146.130 E1.17786
G1 X112.962 Y146.130 E0.01673
G1 X85.870 Y119.038 E1.20152
G1 X85.870 Y118.505 E0.01673
G1 X113.495 Y146.130 E1.22517
G1 X114.028 Y146.130 E0.01673
G1 X85.870 Y117.972 E1.24883
G1 X85.870 Y117.438 E0.01673
G1 X114.562 Y146.130 E1.27248
G1 X115.095 Y146.130 E0.01673
G1 X85.870 Y116.905 E1.29614
G1 X85.870 Y116.372 E0.01673
G1 X115.628 Y146.130 E1.31979
G1 X116.162 Y146.130 E0.01673
G1 X85.870 Y115.838 E1.34345
G1 X85.870 Y115.305 E0.01673
G1 X116.695 Y146.130 E1.36710
G1 X117.229 Y146.130 E0.01673
G1 X85.870 Y114.771 E1.39076
G1 X85.870 Y114.238 E0.01673
G1 X117.762 Y146.130 E1.41441
G1 X118.295 Y146.130 E0.01673
G1 X85.870 Y113.705 E1.43807
M73 Q2 S95
M73 P2 R94
G1 X85.870 Y113.171 E0.01673
G1 X118.829 Y146.130 E1.46172
G1 X119.362 Y146.130 E0.01673
G1 X86.102 Y112.870 E1.47510
G1 X86.635 Y112.870 E0.01673
G1 X119.895 Y146.130 E1.47510
G1 X120.429 Y146.130 E0.01673
G1 X87.168 Y112.870 E1.47510
G1 X87.702 Y112.870 E0.01673
G1 X120.962 Y146.130 E1.47510
G1 X121.495 Y146.130 E0.01673
G1 X88.235 Y112.870 E1.47510
G1 X88.769 Y112.870 E0.01673
G1 X122.029 Y146.130 E1.47510
G1 X122.562 Y146.130 E0.01673
G1 X89.302 Y112.870 E1.47510
G1 X89.835 Y112.870 E0.01673
G1 X123.096 Y146.130 E1.47510
G1 X123.629 Y146.130 E0.01673
G1 X90.369 Y112.870 E1.47510
G1 X90.902 Y112.870 E0.01673
G1 X124.162 Y146.130 E1.47510
G1 X124.696 Y146.130 E0.01673
G1 X91.435 Y112.870 E1.47510
G1 X91.969 Y112.870 E0.01673
G1 X125.229 Y146.130 E1.47510
G1 X125.762 Y146.130 E0.01673
G1 X92.502 Y112.870 E1.47510
G1 X93.036 Y112.870 E0.01673
G1 X126.296 Y146.130 E1.47510
G1 X126.829 Y146.130 E0.01673
G1 X93.569 Y112.870 E1.47510
G1 X94.102 Y112.870 E0.01673
G1 X127.363 Y146.130 E1.47510
G1 X127.896 Y146.130 E0.01673
G1 X94.636 Y112.870 E1.47510
G1 X95.169 Y112.870 E0.01673
G1 X128.429 Y146.130 E1.47510
G1 X128.963 Y146.130 E0.01673
G1 X95.702 Y112.870 E1.47510
G1 X96.236 Y112.870 E0.01673
G1 X129.496 Y146.130 E1.47510
G1 X130.029 Y146.130 E0.01673
G1 X96.769 Y112.870 E1.47510
G1 X97.303 Y112.870 E0.01673
G1 X130.563 Y146.130 E1.47510
