; generated by PrusaSlicer 2.1.1 on 2020-08-17 at 17:41:11 UTC

; 

; external perimeters extrusion width = 0.45mm
; perimeters extrusion width = 0.45mm
; infill extrusion width = 0.45mm
; solid infill extrusion width = 0.45mm
; top infill extrusion width = 0.40mm
; first layer extrusion width = 0.42mm

M73 P0 R36
M73 Q0 S37
M201 X1000 Y1000 Z200 E5000 ; sets maximum accelerations, mm/sec^2
M203 X200 Y200 Z12 E120 ; sets maximum feedrates, mm/sec
M204 P1250 R1250 T1250 ; sets acceleration (P, T) and retract acceleration (R), mm/sec^2
M205 X8.00 Y8.00 Z0.40 E4.50 ; sets the jerk limits, mm/sec
M205 S0 T0 ; sets the minimum extruding and travel feed rate, mm/sec
M107
M862.3 P "MK3S" ; printer model check
M862.1 P0.4 ; nozzle diameter check
M115 U3.9.0 ; tell printer latest fw version
G90 ; use absolute coordinates
M83 ; extruder relative mode
M104 S215 ; set extruder temp
M140 S60 ; set bed temp
M190 S60 ; wait for bed temp
M109 S215 ; wait for extruder temp
G28 W ; home all without mesh bed level
G80 ; mesh bed leveling
G1 Y-3.0 F1000.0 ; go outside print area
G92 E0.0
G1 X60.0 E9.0 F1000.0 ; intro line
M73 Q0 S36
M73 P0 R36
G1 X100.0 E12.5 F1000.0 ; intro line
G92 E0.0
M221 S95
G21 ; set units to millimeters
G90 ; use absolute coordinates
M83 ; use relative distances for extrusion
M900 K0.06 ; Filament gcode LA 1.5
M900 K30 ; Filament gcode LA 1.0
;BEFORE_LAYER_CHANGE
G92 E0.0
;0.2


G1 E-0.80000 F2100.00000
G1 Z0.600 F10800.000
;AFTER_LAYER_CHANGE
;0.2
G1 X116.122 Y101.393
G1 Z0.200
G1 E0.80000 F2100.00000
M204 S1000
G1 F1200
G1 X123.044 Y93.552 E0.32794
G1 X123.695 Y93.034 E0.02606
G1 X124.250 Y92.805 E0.01882
G1 X124.842 Y92.711 E0.01882
G1 X131.689 Y92.709 E0.21467
G1 X132.598 Y92.877 E0.02900
G1 X133.392 Y93.360 E0.02912
G1 X133.962 Y94.093 E0.02912
G1 X134.233 Y94.977 E0.02900
G1 X134.250 Y110.230 E0.47825
G1 X134.148 Y110.893 E0.02103
G1 X133.878 Y111.507 E0.02103
G1 X133.460 Y112.027 E0.02091
G1 X132.923 Y112.422 E0.02091
G1 X123.599 Y117.168 E0.32804
G1 X122.872 Y117.290 E0.02312
G1 X118.220 Y117.289 E0.14584
G1 X117.578 Y117.182 E0.02042
G1 X116.983 Y116.918 E0.02042
G1 X116.496 Y116.534 E0.01943
G1 X116.115 Y116.045 E0.01943
G1 X115.863 Y115.479 E0.01943
G1 X115.753 Y114.865 E0.01956
G1 X115.750 Y102.654 E0.38288
G1 X115.854 Y101.999 E0.02079
G1 X116.098 Y101.448 E0.01891
G1 X116.441 Y101.602 F10800.000
G1 F1200
G1 X123.322 Y93.806 E0.32602
G1 X123.881 Y93.363 E0.02236
G1 X124.356 Y93.167 E0.01612
G1 X124.868 Y93.088 E0.01623
G1 X131.689 Y93.086 E0.21386
G1 X132.471 Y93.233 E0.02496
G1 X133.152 Y93.651 E0.02507
G1 X133.638 Y94.287 E0.02507
G1 X133.862 Y95.054 E0.02507
G1 X133.873 Y110.219 E0.47549
G1 X133.784 Y110.795 E0.01828
G1 X133.546 Y111.327 E0.01828
G1 X133.189 Y111.765 E0.01771
G1 X132.732 Y112.097 E0.01771
G1 X123.483 Y116.809 E0.32544
G1 X122.858 Y116.913 E0.01987
G1 X118.238 Y116.912 E0.14485
G1 X117.681 Y116.820 E0.01771
G1 X117.163 Y116.586 E0.01783
G1 X116.750 Y116.255 E0.01658
G1 X116.429 Y115.835 E0.01658
G1 X116.218 Y115.351 E0.01658
G1 X116.129 Y114.830 E0.01658
G1 X116.127 Y102.670 E0.38125
G1 X116.218 Y102.098 E0.01817
G1 X116.417 Y101.657 E0.01517
G1 F8640
G1 X118.591 Y99.185 E-0.76000
G1 E-0.04000 F2100.00000
G1 Z0.800 F10800.000
G1 X118.902 Y103.312
G1 Z0.200
G1 E0.80000 F2100.00000
G1 F1200
G1 X122.228 Y103.312 E0.10428
G1 X122.228 Y114.138 E0.33944
G1 X118.902 Y114.138 E0.10428
G1 X118.902 Y103.372 E0.33756
G1 X118.525 Y102.935 F10800.000
G1 F1200
G1 X122.605 Y102.935 E0.12793
G1 X122.605 Y114.515 E0.36308
G1 X118.525 Y114.515 E0.12793
G1 X118.525 Y102.995 E0.36120
G1 X118.892 Y103.095 F10800.000
G1 F8640
G1 X121.816 Y102.947 E-0.76000
G1 E-0.04000 F2100.00000
G1 Z0.800 F10800.000
G1 X122.115 Y104.214
G1 Z0.200
G1 E0.80000 F2100.00000
G1 F1200
G1 X121.496 Y103.595 E0.02837
G1 X120.945 Y103.595 E0.01785
G1 X121.945 Y104.595 E0.04584
G1 X121.945 Y105.146 E0.01785
G1 X120.394 Y103.595 E0.07108
G1 X119.843 Y103.595 E0.01785
G1 X121.945 Y105.697 E0.09632
G1 X121.945 Y106.248 E0.01785
G1 X119.292 Y103.595 E0.12157
G1 X119.185 Y103.595 E0.00346
G1 X119.185 Y104.039 E0.01439
G1 X121.945 Y106.799 E0.12646
G1 X121.945 Y107.350 E0.01785
G1 X119.185 Y104.590 E0.12646
G1 X119.185 Y105.141 E0.01785
G1 X121.945 Y107.901 E0.12646
G1 X121.945 Y108.452 E0.01785
G1 X119.185 Y105.692 E0.12646
G1 X119.185 Y106.243 E0.01785
G1 X121.945 Y109.003 E0.12646
G1 X121.945 Y109.554 E0.01785
G1 X119.185 Y106.794 E0.12646
G1 X119.185 Y107.345 E0.01785
G1 X121.945 Y110.105 E0.12646
G1 X121.945 Y110.656 E0.01785
G1 X119.185 Y107.896 E0.12646
G1 X119.185 Y108.447 E0.01785
G1 X121.945 Y111.207 E0.12646
G1 X121.945 Y111.758 E0.01785
G1 X119.185 Y108.998 E0.12646
G1 X119.185 Y109.549 E0.01785
G1 X121.945 Y112.309 E0.12646
G1 X121.945 Y112.860 E0.01785
G1 X119.185 Y110.100 E0.12646
G1 X119.185 Y110.651 E0.01785
G1 X121.945 Y113.411 E0.12646
G1 X121.945 Y113.855 E0.01438
G1 X121.838 Y113.855 E0.00347
G1 X119.185 Y111.202 E0.12156
G1 X119.185 Y111.753 E0.01785
G1 X121.287 Y113.855 E0.09632
G1 X120.736 Y113.855 E0.01785
G1 X119.185 Y112.304 E0.07107
G1 X119.185 Y112.855 E0.01785
G1 X120.185 Y113.855 E0.04583
G1 X119.634 Y113.855 E0.01785
G1 X119.015 Y113.236 E0.02836
G1 F8640
G1 X119.634 Y113.855 E-0.20214
G1 X120.185 Y113.855 E-0.12722
G1 X119.185 Y112.855 E-0.32665
G1 X119.185 Y112.404 E-0.10398
G1 E-0.04000 F2100.00000
G1 Z0.800 F10800.000
G1 X125.532 Y109.588
G1 Z0.200
G1 E0.80000 F2100.00000
G1 F1200
G1 X125.532 Y95.862 E0.43036
G1 X131.098 Y95.862 E0.17451
G1 X131.098 Y109.588 E0.43036
G1 X125.592 Y109.588 E0.17263
G1 X125.155 Y109.965 F10800.000
G1 F1200
G1 X125.155 Y95.485 E0.45401
G1 X131.475 Y95.485 E0.19816
G1 X131.475 Y109.965 E0.45401
G1 X125.215 Y109.965 E0.19628
G1 X125.210 Y109.569 F10800.000
G1 F8640
G1 X125.201 Y106.674 E-0.76000
G1 E-0.04000 F2100.00000
G1 Z0.800 F10800.000
G1 X125.645 Y108.702
G1 Z0.200
G1 E0.80000 F2100.00000
G1 F1200
G1 X126.248 Y109.305 E0.02710
G1 X126.789 Y109.305 E0.01717
G1 X125.815 Y108.331 E0.04376
G1 X125.815 Y107.791 E0.01717
G1 X127.329 Y109.305 E0.06805
G1 X127.870 Y109.305 E0.01717
G1 X125.815 Y107.250 E0.09233
G1 X125.815 Y106.710 E0.01717
G1 X128.410 Y109.305 E0.11662
G1 X128.950 Y109.305 E0.01717
G1 X125.815 Y106.170 E0.14090
G1 X125.815 Y105.629 E0.01717
G1 X129.491 Y109.305 E0.16519
G1 X130.031 Y109.305 E0.01717
G1 X125.815 Y105.089 E0.18947
G1 X125.815 Y104.548 E0.01717
G1 X130.572 Y109.305 E0.21375
G1 X130.815 Y109.305 E0.00773
G1 X130.815 Y109.008 E0.00944
G1 X125.815 Y104.008 E0.22469
G1 X125.815 Y103.467 E0.01717
G1 X130.815 Y108.468 E0.22469
G1 X130.815 Y107.927 E0.01717
G1 X125.815 Y102.927 E0.22469
G1 X125.815 Y102.387 E0.01717
G1 X130.815 Y107.387 E0.22469
G1 X130.815 Y106.846 E0.01717
G1 X125.815 Y101.846 E0.22469
G1 X125.815 Y101.306 E0.01717
G1 X130.815 Y106.306 E0.22469
G1 X130.815 Y105.766 E0.01717
G1 X125.815 Y100.765 E0.22469
G1 X125.815 Y100.225 E0.01717
G1 X130.815 Y105.225 E0.22469
G1 X130.815 Y104.685 E0.01717
G1 X125.815 Y99.685 E0.22469
G1 X125.815 Y99.144 E0.01717
G1 X130.815 Y104.144 E0.22469
G1 X130.815 Y103.604 E0.01717
G1 X125.815 Y98.604 E0.22469
G1 X125.815 Y98.063 E0.01717
G1 X130.815 Y103.064 E0.22469
G1 X130.815 Y102.523 E0.01717
G1 X125.815 Y97.523 E0.22469
G1 X125.815 Y96.982 E0.01717
G1 X130.815 Y101.983 E0.22469
G1 X130.815 Y101.442 E0.01717
G1 X125.815 Y96.442 E0.22469
G1 X125.815 Y96.145 E0.00944
G1 X126.058 Y96.145 E0.00773
G1 X130.815 Y100.902 E0.21376
G1 X130.815 Y100.361 E0.01717
G1 X126.599 Y96.145 E0.18948
G1 X127.139 Y96.145 E0.01717
G1 X130.815 Y99.821 E0.16519
G1 X130.815 Y99.281 E0.01717
G1 X127.679 Y96.145 E0.14091
G1 X128.220 Y96.145 E0.01717
G1 X130.815 Y98.740 E0.11662
G1 X130.815 Y98.200 E0.01717
G1 X128.760 Y96.145 E0.09234
G1 X129.301 Y96.145 E0.01717
G1 X130.815 Y97.659 E0.06805
G1 X130.815 Y97.119 E0.01717
G1 X129.841 Y96.145 E0.04377
G1 X130.382 Y96.145 E0.01717
G1 X130.985 Y96.748 E0.02711
M106 S255
;BEFORE_LAYER_CHANGE
G92 E0.0
;0.35


G1 F8640
G1 X130.382 Y96.145 E-0.19701
G1 X129.841 Y96.145 E-0.12478
G1 X130.815 Y97.119 E-0.31807
G1 X130.815 Y97.639 E-0.12014
G1 E-0.04000 F2100.00000
G1 Z0.800 F10800.000
;AFTER_LAYER_CHANGE
;0.35
G1 X133.962 Y94.093
G1 Z0.350
G1 E0.80000 F2100.00000
G1 F1393
G1 X134.233 Y94.977 E0.02237
G1 X134.250 Y110.230 E0.36890
G1 X134.148 Y110.893 E0.01622
G1 X133.878 Y111.507 E0.01622
G1 X133.460 Y112.027 E0.01613
G1 X132.923 Y112.422 E0.01613
G1 X123.599 Y117.168 E0.25303
G1 X122.872 Y117.290 E0.01783
G1 X118.220 Y117.289 E0.11250
G1 X117.578 Y117.182 E0.01575
G1 X116.983 Y116.918 E0.01575
G1 X116.496 Y116.534 E0.01499
G1 X116.115 Y116.045 E0.01499
G1 X115.863 Y115.479 E0.01499
G1 X115.753 Y114.865 E0.01508
G1 X115.750 Y102.654 E0.29533
G1 X115.854 Y101.999 E0.01603
G1 X116.122 Y101.393 E0.01603
G1 X123.044 Y93.552 E0.25295
G1 X123.695 Y93.034 E0.02010
G1 X124.250 Y92.805 E0.01451
G1 X124.842 Y92.711 E0.01451
G1 X131.689 Y92.709 E0.16558
G1 X132.598 Y92.877 E0.02237
G1 X133.392 Y93.360 E0.02246
G1 X133.925 Y94.046 E0.02101
G1 F8640
G1 X134.233 Y94.977 E-0.22656
G1 X134.236 Y97.287 E-0.53344
G1 E-0.04000 F2100.00000
G1 Z0.950 F10800.000
G1 X122.172 Y103.368
G1 Z0.350
G1 E0.80000 F2100.00000
M204 S800
G1 F1393
G1 X122.172 Y114.082 E0.27917
G1 X118.958 Y114.082 E0.08375
G1 X118.958 Y103.368 E0.27917
G1 X122.112 Y103.368 E0.08219
M204 S1000
G1 X122.590 Y102.950 F10800.000
M204 S800
G1 F1393
G1 X122.590 Y114.500 E0.30094
G1 X118.540 Y114.500 E0.10553
G1 X118.540 Y102.950 E0.30094
G1 X122.530 Y102.950 E0.10396
M204 S1000
G1 X122.545 Y103.347 F10800.000
G1 F8640
G1 X122.547 Y106.241 E-0.76000
G1 E-0.04000 F2100.00000
G1 Z0.950 F10800.000
G1 X119.083 Y104.372
G1 Z0.350
G1 E0.80000 F2100.00000
G1 F1393
G1 X119.774 Y103.681 E0.02648
G1 X120.389 Y103.681 E0.01663
G1 X119.271 Y104.799 E0.04280
G1 X119.271 Y105.413 E0.01663
G1 X121.003 Y103.681 E0.06632
G1 X121.617 Y103.681 E0.01663
G1 X119.271 Y106.027 E0.08984
G1 X119.271 Y106.641 E0.01663
G1 X121.859 Y104.053 E0.09911
G1 X121.859 Y104.667 E0.01663
G1 X119.271 Y107.255 E0.09911
G1 X119.271 Y107.869 E0.01663
G1 X121.859 Y105.282 E0.09911
G1 X121.859 Y105.896 E0.01663
G1 X119.271 Y108.483 E0.09911
G1 X119.271 Y109.098 E0.01663
G1 X121.859 Y106.510 E0.09911
G1 X121.859 Y107.124 E0.01663
G1 X119.271 Y109.712 E0.09911
G1 X119.271 Y110.326 E0.01663
G1 X121.859 Y107.738 E0.09911
G1 X121.859 Y108.352 E0.01663
G1 X119.271 Y110.940 E0.09911
G1 X119.271 Y111.554 E0.01663
G1 X121.859 Y108.966 E0.09911
G1 X121.859 Y109.581 E0.01663
G1 X119.271 Y112.168 E0.09911
G1 X119.271 Y112.782 E0.01663
G1 X121.859 Y110.195 E0.09911
G1 X121.859 Y110.809 E0.01663
G1 X119.271 Y113.397 E0.09911
G1 X119.271 Y113.769 E0.01008
G1 X119.513 Y113.769 E0.00655
G1 X121.859 Y111.423 E0.08985
G1 X121.859 Y112.037 E0.01663
G1 X120.127 Y113.769 E0.06632
G1 X120.741 Y113.769 E0.01663
G1 X121.859 Y112.651 E0.04280
G1 X121.859 Y113.265 E0.01663
G1 X121.167 Y113.957 E0.02648
G1 F8640
G1 X121.859 Y113.265 E-0.22580
G1 X121.859 Y112.651 E-0.14181
G1 X120.741 Y113.769 E-0.36495
G1 X120.622 Y113.769 E-0.02745
G1 E-0.04000 F2100.00000
G1 Z0.950 F10800.000
G1 X125.588 Y109.532
G1 Z0.350
G1 E0.80000 F2100.00000
M204 S800
G1 F1393
G1 X125.588 Y95.918 E0.35473
G1 X131.042 Y95.918 E0.14212
G1 X131.042 Y109.532 E0.35473
G1 X125.648 Y109.532 E0.14055
M204 S1000
G1 X125.170 Y109.950 F10800.000
M204 S800
G1 F1393
G1 X125.170 Y95.500 E0.37651
G1 X131.460 Y95.500 E0.16389
G1 X131.460 Y109.950 E0.37651
G1 X125.230 Y109.950 E0.16233
M204 S1000
G1 X125.225 Y109.554 F10800.000
G1 F8640
G1 X125.216 Y106.659 E-0.76000
G1 E-0.04000 F2100.00000
G1 Z0.950 F10800.000
G1 X130.056 Y109.407
G1 Z0.350
G1 E0.80000 F2100.00000
G1 F1393
G1 X130.729 Y108.734 E0.02524
G1 X130.729 Y108.132 E0.01596
G1 X129.642 Y109.219 E0.04076
G1 X129.041 Y109.219 E0.01596
G1 X130.729 Y107.531 E0.06333
G1 X130.729 Y106.929 E0.01596
G1 X128.439 Y109.219 E0.08591
G1 X127.838 Y109.219 E0.01596
G1 X130.729 Y106.328 E0.10848
G1 X130.729 Y105.726 E0.01596
G1 X127.236 Y109.219 E0.13106
G1 X126.634 Y109.219 E0.01596
G1 X130.729 Y105.124 E0.15363
G1 X130.729 Y104.523 E0.01596
G1 X126.033 Y109.219 E0.17620
G1 X125.901 Y109.219 E0.00349
G1 X125.901 Y108.749 E0.01247
G1 X130.729 Y103.921 E0.18114
G1 X130.729 Y103.319 E0.01596
G1 X125.901 Y108.147 E0.18114
G1 X125.901 Y107.545 E0.01596
G1 X130.729 Y102.718 E0.18114
G1 X130.729 Y102.116 E0.01596
G1 X125.901 Y106.944 E0.18114
G1 X125.901 Y106.342 E0.01596
G1 X130.729 Y101.514 E0.18114
G1 X130.729 Y100.913 E0.01596
G1 X125.901 Y105.740 E0.18114
G1 X125.901 Y105.139 E0.01596
G1 X130.729 Y100.311 E0.18114
G1 X130.729 Y99.709 E0.01596
G1 X125.901 Y104.537 E0.18114
G1 X125.901 Y103.935 E0.01596
G1 X130.729 Y99.108 E0.18114
G1 X130.729 Y98.506 E0.01596
G1 X125.901 Y103.334 E0.18114
G1 X125.901 Y102.732 E0.01596
G1 X130.729 Y97.905 E0.18114
G1 X130.729 Y97.303 E0.01596
G1 X125.901 Y102.131 E0.18114
G1 X125.901 Y101.529 E0.01596
G1 X130.729 Y96.701 E0.18114
G1 X130.729 Y96.231 E0.01247
G1 X130.597 Y96.231 E0.00349
G1 X125.901 Y100.927 E0.17620
G1 X125.901 Y100.326 E0.01596
G1 X129.996 Y96.231 E0.15363
G1 X129.394 Y96.231 E0.01596
G1 X125.901 Y99.724 E0.13105
G1 X125.901 Y99.122 E0.01596
G1 X128.792 Y96.231 E0.10848
G1 X128.191 Y96.231 E0.01596
G1 X125.901 Y98.521 E0.08590
G1 X125.901 Y97.919 E0.01596
G1 X127.589 Y96.231 E0.06333
G1 X126.987 Y96.231 E0.01596
G1 X125.901 Y97.317 E0.04076
G1 X125.901 Y96.716 E0.01596
G1 X126.574 Y96.043 E0.02524
;BEFORE_LAYER_CHANGE
G92 E0.0
;0.5


G1 F8640
G1 X125.901 Y96.716 E-0.21964
G1 X125.901 Y97.317 E-0.13892
G1 X126.987 Y96.231 E-0.35471
G1 X127.190 Y96.231 E-0.04672
G1 E-0.04000 F2100.00000
G1 Z0.950 F10800.000
;AFTER_LAYER_CHANGE
;0.5
G1 X132.598 Y92.877
G1 Z0.500
G1 E0.80000 F2100.00000
G1 F1392
G1 X133.392 Y93.360 E0.02246
G1 X133.962 Y94.093 E0.02246
G1 X134.233 Y94.977 E0.02237
G1 X134.250 Y110.230 E0.36890
G1 X134.148 Y110.893 E0.01622
G1 X133.878 Y111.507 E0.01622
G1 X133.460 Y112.027 E0.01613
G1 X132.923 Y112.422 E0.01613
G1 X123.599 Y117.168 E0.25303
G1 X122.872 Y117.290 E0.01783
G1 X118.220 Y117.289 E0.11250
G1 X117.578 Y117.182 E0.01575
G1 X116.983 Y116.918 E0.01575
G1 X116.496 Y116.534 E0.01499
G1 X116.115 Y116.045 E0.01499
G1 X115.863 Y115.479 E0.01499
G1 X115.753 Y114.865 E0.01508
G1 X115.750 Y102.654 E0.29533
M73 Q2 S35
G1 X115.854 Y101.999 E0.01603
G1 X116.122 Y101.393 E0.01603
G1 X123.044 Y93.552 E0.25295
M73 P2 R35
G1 X123.695 Y93.034 E0.02010
G1 X124.250 Y92.805 E0.01451
G1 X124.842 Y92.711 E0.01451
G1 X131.689 Y92.709 E0.16558
G1 X132.539 Y92.867 E0.02092
G1 F8640
G1 X133.392 Y93.360 E-0.22745
G1 X133.962 Y94.093 E-0.21445
G1 X134.233 Y94.977 E-0.21355
G1 X134.234 Y95.430 E-0.10454
G1 E-0.04000 F2100.00000
G1 Z1.100 F10800.000
G1 X122.172 Y103.368
G1 Z0.500
G1 E0.80000 F2100.00000
M204 S800
G1 F1392
G1 X122.172 Y114.082 E0.27917
G1 X118.958 Y114.082 E0.08375
G1 X118.958 Y103.368 E0.27917
G1 X122.112 Y103.368 E0.08219
M204 S1000
G1 X122.590 Y102.950 F10800.000
M204 S800
G1 F1392
G1 X122.590 Y114.500 E0.30094
G1 X118.540 Y114.500 E0.10553
G1 X118.540 Y102.950 E0.30094
G1 X122.530 Y102.950 E0.10396
M204 S1000
G1 X122.545 Y103.347 F10800.000
G1 F8640
G1 X122.547 Y106.241 E-0.76000
G1 E-0.04000 F2100.00000
G1 Z1.100 F10800.000
G1 X122.047 Y104.373
G1 Z0.500
G1 E0.80000 F2100.00000
G1 F1392
G1 X121.355 Y103.681 E0.02648
G1 X120.741 Y103.681 E0.01663
G1 X121.859 Y104.799 E0.04280
G1 X121.859 Y105.413 E0.01663
G1 X120.127 Y103.681 E0.06632
G1 X119.513 Y103.681 E0.01663
G1 X121.859 Y106.027 E0.08985
G1 X121.859 Y106.641 E0.01663
G1 X119.271 Y104.053 E0.09911
G1 X119.271 Y104.668 E0.01663
G1 X121.859 Y107.255 E0.09911
G1 X121.859 Y107.869 E0.01663
G1 X119.271 Y105.282 E0.09911
G1 X119.271 Y105.896 E0.01663
G1 X121.859 Y108.484 E0.09911
G1 X121.859 Y109.098 E0.01663
G1 X119.271 Y106.510 E0.09911
G1 X119.271 Y107.124 E0.01663
G1 X121.859 Y109.712 E0.09911
G1 X121.859 Y110.326 E0.01663
G1 X119.271 Y107.738 E0.09911
G1 X119.271 Y108.352 E0.01663
G1 X121.859 Y110.940 E0.09911
G1 X121.859 Y111.554 E0.01663
G1 X119.271 Y108.967 E0.09911
G1 X119.271 Y109.581 E0.01663
G1 X121.859 Y112.168 E0.09911
G1 X121.859 Y112.783 E0.01663
