; generated by PrusaSlicer 2.2.0+win64 on 2020-09-12 at 10:29:56 UTC

; 

; external perimeters extrusion width = 0.45mm
; perimeters extrusion width = 0.45mm
; infill extrusion width = 0.45mm
; solid infill extrusion width = 0.45mm
; top infill extrusion width = 0.40mm
; first layer extrusion width = 0.42mm

M73 P0 R17
M73 Q0 S17
M201 X1000 Y1000 Z200 E5000 ; sets maximum accelerations, mm/sec^2
M203 X200 Y200 Z12 E120 ; sets maximum feedrates, mm/sec
M204 P1250 R1250 T1250 ; sets acceleration (P, T) and retract acceleration (R), mm/sec^2
M205 X8.00 Y8.00 Z0.40 E4.50 ; sets the jerk limits, mm/sec
M205 S0 T0 ; sets the minimum extruding and travel feed rate, mm/sec
M107
M862.3 P "MK3S" ; printer model check
M862.1 P0.4 ; nozzle diameter check
M115 U3.9.0 ; tell printer latest fw version
G90 ; use absolute coordinates
M83 ; extruder relative mode
M104 S215 ; set extruder temp
M140 S60 ; set bed temp
M190 S60 ; wait for bed temp
M109 S215 ; wait for extruder temp
G28 W ; home all without mesh bed level
G80 ; mesh bed leveling
G1 Y-3.0 F1000.0 ; go outside print area
G92 E0.0
G1 X60.0 E9.0 F1000.0 ; intro line
M73 Q0 S17
M73 P0 R17
G1 X100.0 E12.5 F1000.0 ; intro line
G92 E0.0
M221 S95

; Don't change E values below. Excessive value can damage the printer.
M907 E430 ; set extruder motor current
G21 ; set units to millimeters
G90 ; use absolute coordinates
M83 ; use relative distances for extrusion
M900 K0.06 ; Filament gcode LA 1.5
M900 K30 ; Filament gcode LA 1.0
;BEFORE_LAYER_CHANGE
G92 E0.0
;0.2


G1 E-0.80000 F2100.00000
G1 Z0.600 F10800.000
;AFTER_LAYER_CHANGE
;0.2
G1 X111.169 Y93.396
G1 Z0.200
G1 E0.80000 F2100.00000
M204 S1000
G1 F1200.000
G1 X112.081 Y92.390 E0.04258
G1 X113.816 Y90.828 E0.07321
G1 X114.910 Y90.029 E0.04247
G1 X117.000 Y88.817 E0.07577
G1 X118.235 Y88.261 E0.04246
G1 X119.513 Y87.801 E0.04259
G1 X121.859 Y87.221 E0.07577
G1 X123.201 Y87.037 E0.04247
G1 X125.538 Y86.955 E0.07332
G1 X126.889 Y87.045 E0.04247
G1 X128.230 Y87.238 E0.04246
G1 X130.499 Y87.805 E0.07333
G1 X131.845 Y88.295 E0.04491
G1 X133.950 Y89.322 E0.07345
G1 X135.101 Y90.036 E0.04247
G1 X137.008 Y91.520 E0.07577
G1 X137.986 Y92.457 E0.04246
G1 X138.891 Y93.470 E0.04258
G1 X140.308 Y95.428 E0.07579
G1 X140.981 Y96.603 E0.04246
G1 X141.934 Y98.743 E0.07345
G1 X142.355 Y100.026 E0.04234
G1 X142.678 Y101.341 E0.04245
G1 X143.003 Y103.657 E0.07334
G1 X143.053 Y105.088 E0.04490
G1 X142.889 Y107.425 E0.07346
G1 X142.658 Y108.760 E0.04246
G1 X141.997 Y111.084 E0.07577
G1 X141.494 Y112.342 E0.04247
G1 X140.894 Y113.560 E0.04258
G1 X139.610 Y115.607 E0.07577
G1 X138.772 Y116.672 E0.04247
G1 X137.145 Y118.357 E0.07346
G1 X136.048 Y119.278 E0.04490
G1 X134.109 Y120.586 E0.07333
G1 X132.916 Y121.226 E0.04247
G1 X131.681 Y121.771 E0.04233
G1 X129.456 Y122.494 E0.07333
G1 X128.129 Y122.781 E0.04258
G1 X125.726 Y123.038 E0.07577
G1 X124.376 Y123.043 E0.04234
G1 X123.025 Y122.945 E0.04247
G1 X120.718 Y122.538 E0.07346
G1 X119.419 Y122.170 E0.04233
G1 X118.148 Y121.702 E0.04246
G1 X116.050 Y120.678 E0.07320
G1 X114.899 Y119.964 E0.04247
G1 X112.992 Y118.480 E0.07577
G1 X112.009 Y117.537 E0.04271
G1 X110.452 Y115.689 E0.07577
G1 X109.692 Y114.572 E0.04234
G1 X109.019 Y113.397 E0.04246
G1 X108.066 Y111.257 E0.07345
G1 X107.645 Y109.974 E0.04234
G1 X107.322 Y108.659 E0.04245
G1 X106.997 Y106.343 E0.07334
G1 X106.947 Y104.912 E0.04490
G1 X107.110 Y102.579 E0.07333
G1 X107.340 Y101.248 E0.04233
G1 X107.671 Y99.939 E0.04234
G1 X108.474 Y97.734 E0.07358
G1 X109.100 Y96.450 E0.04477
G1 X110.339 Y94.467 E0.07332
G1 X111.132 Y93.444 E0.04059
G1 X111.430 Y93.675 F10800.000
G1 F1200.000
G1 X112.343 Y92.662 E0.04277
G1 X114.055 Y91.120 E0.07224
G1 X115.119 Y90.342 E0.04131
G1 X117.177 Y89.150 E0.07458
G1 X118.379 Y88.610 E0.04130
G1 X119.617 Y88.164 E0.04127
G1 X121.927 Y87.592 E0.07463
G1 X123.229 Y87.413 E0.04120
G1 X125.538 Y87.332 E0.07243
G1 X126.849 Y87.420 E0.04119
G1 X128.151 Y87.607 E0.04126
G1 X130.394 Y88.167 E0.07248
G1 X131.693 Y88.640 E0.04335
G1 X133.769 Y89.653 E0.07243
G1 X134.889 Y90.348 E0.04131
G1 X136.766 Y91.809 E0.07459
G1 X137.716 Y92.721 E0.04130
G1 X138.594 Y93.702 E0.04126
G1 X139.987 Y95.627 E0.07452
G1 X140.643 Y96.770 E0.04130
G1 X141.583 Y98.880 E0.07244
G1 X141.993 Y100.128 E0.04119
G1 X142.307 Y101.406 E0.04126
G1 X142.628 Y103.696 E0.07249
G1 X142.676 Y105.077 E0.04333
G1 X142.515 Y107.382 E0.07244
G1 X142.290 Y108.680 E0.04131
G1 X141.638 Y110.967 E0.07459
G1 X141.148 Y112.191 E0.04131
G1 X140.568 Y113.372 E0.04126
G1 X139.303 Y115.388 E0.07463
G1 X138.491 Y116.421 E0.04120
G1 X136.886 Y118.083 E0.07244
G1 X135.883 Y118.930 E0.04119
G1 X134.815 Y119.700 E0.04126
G1 X132.813 Y120.856 E0.07249
G1 X131.550 Y121.418 E0.04333
G1 X129.353 Y122.132 E0.07244
G1 X128.065 Y122.409 E0.04130
G1 X126.765 Y122.587 E0.04114
G1 X124.390 Y122.667 E0.07452
G1 X123.076 Y122.571 E0.04131
G1 X120.801 Y122.170 E0.07244
G1 X119.537 Y121.812 E0.04118
G1 X118.302 Y121.357 E0.04127
G1 X116.231 Y120.347 E0.07224
G1 X115.111 Y119.652 E0.04131
G1 X113.234 Y118.191 E0.07459
G1 X112.281 Y117.276 E0.04142
G1 X110.749 Y115.457 E0.07459
G1 X110.011 Y114.370 E0.04119
G1 X109.357 Y113.230 E0.04119
G1 X108.417 Y111.120 E0.07243
G1 X108.007 Y109.872 E0.04119
G1 X107.693 Y108.594 E0.04126
G1 X107.372 Y106.304 E0.07249
G1 X107.324 Y104.923 E0.04333
G1 X107.485 Y102.618 E0.07244
G1 X107.709 Y101.324 E0.04119
G1 X108.030 Y100.054 E0.04108
G1 X108.823 Y97.876 E0.07268
G1 X109.427 Y96.637 E0.04321
G1 X110.651 Y94.678 E0.07243
G1 X111.393 Y93.722 E0.03792
G1 F8640.000
G1 X112.343 Y92.662 E-0.32879
G1 X113.731 Y91.412 E-0.43121
G1 E-0.04000 F2100.00000
G1 Z0.800 F10800.000
G1 X113.883 Y95.672
G1 Z0.200
G1 E0.80000 F2100.00000
G1 F1200.000
G1 X114.561 Y94.919 E0.03176
G1 X115.289 Y94.215 E0.03176
G1 X116.065 Y93.564 E0.03176
G1 X116.885 Y92.969 E0.03176
G1 X117.744 Y92.432 E0.03176
G1 X118.638 Y91.956 E0.03176
G1 X119.564 Y91.544 E0.03176
G1 X120.515 Y91.198 E0.03176
G1 X121.489 Y90.919 E0.03176
G1 X122.480 Y90.708 E0.03176
G1 X123.483 Y90.567 E0.03176
G1 X124.493 Y90.496 E0.03175
G1 X125.521 Y90.497 E0.03221
G1 X126.517 Y90.567 E0.03132
G1 X127.520 Y90.708 E0.03176
G1 X128.511 Y90.919 E0.03176
G1 X129.485 Y91.198 E0.03176
G1 X130.436 Y91.544 E0.03176
G1 X131.362 Y91.956 E0.03176
G1 X132.256 Y92.432 E0.03176
G1 X133.115 Y92.969 E0.03176
G1 X133.935 Y93.564 E0.03176
G1 X134.711 Y94.215 E0.03176
G1 X135.439 Y94.919 E0.03176
G1 X136.117 Y95.672 E0.03176
G1 X136.741 Y96.470 E0.03176
G1 X137.307 Y97.310 E0.03176
G1 X137.814 Y98.187 E0.03176
G1 X138.258 Y99.097 E0.03176
G1 X138.637 Y100.036 E0.03176
G1 X138.950 Y101.000 E0.03176
G1 X139.195 Y101.983 E0.03176
G1 X139.371 Y102.980 E0.03176
G1 X139.477 Y103.988 E0.03176
G1 X139.512 Y105.000 E0.03176
G1 X139.477 Y106.012 E0.03176
G1 X139.371 Y107.020 E0.03176
G1 X139.195 Y108.017 E0.03176
G1 X138.950 Y109.000 E0.03176
G1 X138.637 Y109.964 E0.03176
G1 X138.258 Y110.903 E0.03176
G1 X137.814 Y111.813 E0.03176
G1 X137.307 Y112.690 E0.03176
G1 X136.741 Y113.530 E0.03176
G1 X136.117 Y114.328 E0.03176
G1 X135.439 Y115.081 E0.03176
G1 X134.711 Y115.785 E0.03176
G1 X133.935 Y116.436 E0.03176
G1 X133.115 Y117.031 E0.03176
G1 X132.256 Y117.568 E0.03176
G1 X131.362 Y118.044 E0.03176
G1 X130.436 Y118.456 E0.03176
G1 X129.485 Y118.802 E0.03176
G1 X128.511 Y119.081 E0.03176
G1 X127.520 Y119.292 E0.03176
G1 X126.517 Y119.433 E0.03176
G1 X125.506 Y119.504 E0.03176
G1 X124.494 Y119.504 E0.03176
G1 X123.483 Y119.433 E0.03176
G1 X122.480 Y119.292 E0.03176
G1 X121.489 Y119.081 E0.03176
G1 X120.515 Y118.802 E0.03176
G1 X119.564 Y118.456 E0.03176
G1 X118.638 Y118.044 E0.03176
G1 X117.744 Y117.568 E0.03176
G1 X116.885 Y117.031 E0.03176
G1 X116.065 Y116.436 E0.03176
G1 X115.289 Y115.785 E0.03176
G1 X114.561 Y115.081 E0.03176
G1 X113.883 Y114.328 E0.03176
G1 X113.259 Y113.530 E0.03176
G1 X112.693 Y112.690 E0.03176
G1 X112.186 Y111.813 E0.03176
G1 X111.742 Y110.903 E0.03176
G1 X111.363 Y109.964 E0.03176
G1 X111.050 Y109.000 E0.03176
G1 X110.805 Y108.017 E0.03176
G1 X110.629 Y107.020 E0.03176
G1 X110.523 Y106.012 E0.03176
G1 X110.488 Y105.000 E0.03176
G1 X110.523 Y103.988 E0.03176
G1 X110.629 Y102.980 E0.03176
G1 X110.805 Y101.983 E0.03176
G1 X111.050 Y101.000 E0.03176
G1 X111.363 Y100.036 E0.03176
G1 X111.742 Y99.097 E0.03176
G1 X112.186 Y98.187 E0.03176
G1 X112.693 Y97.310 E0.03176
G1 X113.259 Y96.470 E0.03176
G1 X113.846 Y95.719 E0.02988
G1 X113.549 Y95.487 F10800.000
G1 F1200.000
G1 X114.289 Y94.657 E0.03488
G1 X115.037 Y93.935 E0.03259
G1 X115.833 Y93.267 E0.03259
G1 X116.674 Y92.656 E0.03259
G1 X117.555 Y92.105 E0.03259
G1 X118.473 Y91.617 E0.03259
G1 X119.422 Y91.194 E0.03259
G1 X120.399 Y90.839 E0.03259
G1 X121.398 Y90.553 E0.03259
G1 X122.414 Y90.336 E0.03259
G1 X123.444 Y90.192 E0.03259
G1 X124.480 Y90.119 E0.03258
G1 X125.534 Y90.120 E0.03304
G1 X126.556 Y90.192 E0.03214
G1 X127.586 Y90.336 E0.03259
G1 X128.602 Y90.553 E0.03259
G1 X129.601 Y90.839 E0.03259
G1 X130.578 Y91.194 E0.03259
G1 X131.527 Y91.617 E0.03259
G1 X132.445 Y92.105 E0.03259
G1 X133.326 Y92.656 E0.03259
G1 X134.167 Y93.267 E0.03259
G1 X134.963 Y93.935 E0.03259
G1 X135.711 Y94.657 E0.03259
G1 X136.406 Y95.429 E0.03259
G1 X137.046 Y96.248 E0.03259
G1 X137.627 Y97.110 E0.03259
G1 X138.147 Y98.010 E0.03259
G1 X138.602 Y98.944 E0.03259
G1 X138.992 Y99.907 E0.03259
G1 X139.313 Y100.896 E0.03259
G1 X139.564 Y101.904 E0.03259
G1 X139.745 Y102.928 E0.03259
G1 X139.853 Y103.961 E0.03259
G1 X139.890 Y105.000 E0.03259
G1 X139.853 Y106.039 E0.03259
G1 X139.745 Y107.072 E0.03259
G1 X139.564 Y108.096 E0.03259
G1 X139.313 Y109.104 E0.03259
G1 X138.992 Y110.093 E0.03259
G1 X138.602 Y111.056 E0.03259
G1 X138.147 Y111.990 E0.03259
G1 X137.627 Y112.890 E0.03259
G1 X137.046 Y113.752 E0.03258
G1 X136.406 Y114.571 E0.03259
G1 X135.711 Y115.343 E0.03259
G1 X134.963 Y116.065 E0.03259
G1 X134.167 Y116.733 E0.03259
G1 X133.326 Y117.344 E0.03259
G1 X132.445 Y117.895 E0.03259
G1 X131.527 Y118.383 E0.03259
G1 X130.578 Y118.806 E0.03259
G1 X129.601 Y119.161 E0.03259
G1 X128.602 Y119.447 E0.03259
G1 X127.586 Y119.664 E0.03259
G1 X126.556 Y119.808 E0.03259
G1 X125.520 Y119.881 E0.03259
G1 X124.480 Y119.881 E0.03259
G1 X123.444 Y119.808 E0.03259
G1 X122.414 Y119.664 E0.03259
G1 X121.398 Y119.447 E0.03259
G1 X120.399 Y119.161 E0.03259
G1 X119.422 Y118.806 E0.03259
G1 X118.473 Y118.383 E0.03259
G1 X117.555 Y117.895 E0.03259
G1 X116.674 Y117.344 E0.03259
G1 X115.833 Y116.733 E0.03259
G1 X115.037 Y116.065 E0.03259
G1 X114.289 Y115.343 E0.03259
G1 X113.594 Y114.571 E0.03259
G1 X112.954 Y113.752 E0.03259
G1 X112.373 Y112.890 E0.03258
G1 X111.853 Y111.990 E0.03259
G1 X111.398 Y111.056 E0.03259
G1 X111.008 Y110.093 E0.03259
G1 X110.687 Y109.104 E0.03259
G1 X110.436 Y108.096 E0.03259
G1 X110.255 Y107.072 E0.03259
G1 X110.147 Y106.039 E0.03259
G1 X110.110 Y105.000 E0.03259
G1 X110.147 Y103.961 E0.03259
G1 X110.255 Y102.928 E0.03259
G1 X110.436 Y101.904 E0.03259
G1 X110.687 Y100.896 E0.03259
G1 X111.008 Y99.907 E0.03259
G1 X111.398 Y98.944 E0.03259
G1 X111.853 Y98.010 E0.03259
G1 X112.373 Y97.110 E0.03259
G1 X112.954 Y96.248 E0.03259
G1 X113.512 Y95.534 E0.02841
G1 X113.943 Y95.555 F10800.000
G1 F8640.000
G1 X114.289 Y94.657 E-0.27066
G1 X115.037 Y93.935 E-0.23997
G1 X115.833 Y93.267 E-0.23998
G1 X115.866 Y93.243 E-0.00938
G1 E-0.04000 F2100.00000
G1 Z0.800 F10800.000
G1 X136.628 Y96.509
G1 Z0.200
G1 E0.80000 F2100.00000
G1 F1200.000
G1 X134.521 Y94.425 E0.09347
G1 X133.761 Y93.787 E0.03133
G1 X132.957 Y93.203 E0.03133
G1 X132.500 Y92.918 E0.01700
G1 X137.102 Y97.519 E0.20529
G1 X137.564 Y98.320 E0.02915
G1 X137.753 Y98.707 E0.01359
G1 X131.278 Y92.232 E0.28884
G1 X130.308 Y91.798 E0.03352
G1 X138.187 Y99.678 E0.35151
G1 X138.371 Y100.133 E0.01549
G1 X138.499 Y100.526 E0.01303
G1 X129.464 Y91.491 E0.40305
G1 X128.705 Y91.268 E0.02497
G1 X138.733 Y101.296 E0.44735
G1 X138.911 Y102.011 E0.02324
G1 X127.999 Y91.099 E0.48680
G1 X127.330 Y90.967 E0.02149
G1 X139.028 Y102.665 E0.52187
G1 X139.120 Y103.293 E0.02001
G1 X126.706 Y90.879 E0.55378
G1 X126.113 Y90.822 E0.01881
G1 X139.183 Y103.892 E0.58306
G1 X139.210 Y104.457 E0.01782
G1 X125.536 Y90.782 E0.61004
G1 X124.997 Y90.780 E0.01699
G1 X139.229 Y105.012 E0.63490
G1 X139.211 Y105.530 E0.01636
G1 X124.463 Y90.782 E0.65792
G1 X123.961 Y90.817 E0.01586
G1 X139.189 Y106.045 E0.67933
G1 X139.138 Y106.530 E0.01540
G1 X123.463 Y90.855 E0.69927
G1 X122.993 Y90.922 E0.01498
G1 X139.085 Y107.014 E0.71789
G1 X139.005 Y107.470 E0.01461
G1 X122.523 Y90.988 E0.73527
G1 X122.080 Y91.082 E0.01427
G1 X138.924 Y107.926 E0.75142
G1 X138.819 Y108.357 E0.01400
G1 X121.638 Y91.176 E0.76646
G1 X121.216 Y91.291 E0.01378
G1 X138.712 Y108.787 E0.78049
G1 X138.588 Y109.199 E0.01359
G1 X120.799 Y91.411 E0.79357
G1 X120.395 Y91.543 E0.01342
G1 X138.457 Y109.604 E0.80574
G1 X138.317 Y110.001 E0.01327
G1 X120.002 Y91.686 E0.81706
G1 X119.612 Y91.832 E0.01314
G1 X138.163 Y110.383 E0.82757
G1 X138.008 Y110.765 E0.01300
G1 X119.240 Y91.998 E0.83724
G1 X118.869 Y92.163 E0.01282
G1 X137.834 Y111.127 E0.84601
G1 X137.658 Y111.488 E0.01266
G1 X118.513 Y92.343 E0.85406
G1 X118.163 Y92.529 E0.01251
G1 X137.472 Y111.839 E0.86141
G1 X137.276 Y112.179 E0.01239
G1 X117.817 Y92.720 E0.86809
G1 X117.486 Y92.926 E0.01228
G1 X137.079 Y112.519 E0.87406
G1 X136.865 Y112.841 E0.01220
G1 X117.156 Y93.132 E0.87921
G1 X116.839 Y93.352 E0.01217
G1 X136.649 Y113.161 E0.88373
M73 Q6 S16
G1 X136.425 Y113.475 E0.01213
G1 X116.528 Y93.577 E0.88763
M73 P6 R16
G1 X116.219 Y93.804 E0.01211
G1 X136.190 Y113.776 E0.89094
G1 X135.955 Y114.077 E0.01206
G1 X115.927 Y94.049 E0.89345
G1 X115.635 Y94.294 E0.01201
G1 X135.705 Y114.364 E0.89532
G1 X135.451 Y114.646 E0.01198
G1 X115.352 Y94.548 E0.89661
G1 X115.079 Y94.811 E0.01197
G1 X135.194 Y114.925 E0.89731
G1 X134.921 Y115.189 E0.01197
G1 X114.806 Y95.075 E0.89731
G1 X114.764 Y95.115 E0.00185
G1 X114.549 Y95.354 E0.01013
G1 X134.648 Y115.453 E0.89661
G1 X134.365 Y115.706 E0.01199
G1 X114.295 Y95.636 E0.89532
G1 X114.045 Y95.923 E0.01200
G1 X134.073 Y115.951 E0.89345
G1 X133.781 Y116.196 E0.01201
G1 X113.810 Y96.224 E0.89094
G1 X113.575 Y96.525 E0.01206
G1 X133.472 Y116.423 E0.88763
G1 X133.161 Y116.648 E0.01212
G1 X113.351 Y96.839 E0.88372
G1 X113.135 Y97.159 E0.01219
G1 X132.844 Y116.868 E0.87920
G1 X132.514 Y117.074 E0.01228
G1 X112.920 Y97.481 E0.87406
G1 X112.724 Y97.821 E0.01239
G1 X132.183 Y117.280 E0.86809
G1 X131.837 Y117.471 E0.01246
G1 X112.528 Y98.161 E0.86141
G1 X112.342 Y98.512 E0.01252
G1 X131.487 Y117.657 E0.85406
G1 X131.131 Y117.837 E0.01260
G1 X112.166 Y98.873 E0.84601
G1 X111.992 Y99.235 E0.01267
G1 X130.759 Y118.002 E0.83724
G1 X130.388 Y118.168 E0.01282
G1 X111.837 Y99.617 E0.82757
G1 X111.683 Y99.999 E0.01300
G1 X129.998 Y118.314 E0.81706
G1 X129.605 Y118.457 E0.01320
G1 X111.543 Y100.396 E0.80574
G1 X111.412 Y100.801 E0.01343
G1 X129.201 Y118.589 E0.79357
G1 X128.784 Y118.709 E0.01368
G1 X111.288 Y101.213 E0.78049
G1 X111.181 Y101.643 E0.01396
G1 X128.362 Y118.824 E0.76646
G1 X127.920 Y118.918 E0.01427
G1 X111.076 Y102.074 E0.75141
G1 X110.995 Y102.530 E0.01461
G1 X127.477 Y119.012 E0.73526
G1 X127.007 Y119.079 E0.01497
G1 X110.915 Y102.986 E0.71788
G1 X110.862 Y103.470 E0.01534
G1 X126.537 Y119.145 E0.69927
G1 X126.038 Y119.183 E0.01576
G1 X110.811 Y103.955 E0.67932
G1 X110.789 Y104.470 E0.01626
G1 X125.537 Y119.218 E0.65792
G1 X125.003 Y119.221 E0.01683
G1 X110.771 Y104.988 E0.63492
G1 X110.790 Y105.544 E0.01752
G1 X124.464 Y119.218 E0.61003
G1 X123.887 Y119.178 E0.01824
G1 X110.817 Y106.108 E0.58306
G1 X110.880 Y106.707 E0.01902
G1 X123.294 Y119.121 E0.55377
G1 X122.670 Y119.033 E0.01988
G1 X110.972 Y107.335 E0.52186
G1 X111.089 Y107.989 E0.02096
G1 X122.001 Y118.901 E0.48679
G1 X121.295 Y118.731 E0.02291
G1 X111.267 Y108.704 E0.44734
G1 X111.501 Y109.474 E0.02539
G1 X120.536 Y118.509 E0.40303
G1 X119.692 Y118.201 E0.02832
G1 X111.813 Y110.322 E0.35150
G1 X112.001 Y110.788 E0.01583
G1 X112.247 Y111.294 E0.01775
G1 X118.722 Y117.768 E0.28882
G1 X117.885 Y117.323 E0.02989
G1 X117.500 Y117.082 E0.01435
G1 X112.898 Y112.481 E0.20526
