; generated by PrusaSlicer 2.1.1 on 2020-08-27 at 17:10:05 UTC

; 

; external perimeters extrusion width = 0.45mm
; perimeters extrusion width = 0.45mm
; infill extrusion width = 0.45mm
; solid infill extrusion width = 0.45mm
; top infill extrusion width = 0.40mm
; first layer extrusion width = 0.42mm

M73 P0 R26
M73 Q0 S27
M201 X1000 Y1000 Z200 E5000 ; sets maximum accelerations, mm/sec^2
M203 X200 Y200 Z12 E120 ; sets maximum feedrates, mm/sec
M204 P1250 R1250 T1250 ; sets acceleration (P, T) and retract acceleration (R), mm/sec^2
M205 X8.00 Y8.00 Z0.40 E4.50 ; sets the jerk limits, mm/sec
M205 S0 T0 ; sets the minimum extruding and travel feed rate, mm/sec
M107
M862.3 P "MK3S" ; printer model check
M862.1 P0.4 ; nozzle diameter check
M115 U3.9.0 ; tell printer latest fw version
G90 ; use absolute coordinates
M83 ; extruder relative mode
M104 S215 ; set extruder temp
M140 S60 ; set bed temp
M190 S60 ; wait for bed temp
M109 S215 ; wait for extruder temp
G28 W ; home all without mesh bed level
G80 ; mesh bed leveling
G1 Y-3.0 F1000.0 ; go outside print area
G92 E0.0
G1 X60.0 E9.0 F1000.0 ; intro line
M73 Q0 S27
M73 P0 R26
G1 X100.0 E12.5 F1000.0 ; intro line
G92 E0.0
M221 S95
G21 ; set units to millimeters
G90 ; use absolute coordinates
M83 ; use relative distances for extrusion
M900 K0.06 ; Filament gcode LA 1.5
M900 K30 ; Filament gcode LA 1.0
;BEFORE_LAYER_CHANGE
G92 E0.0
;0.2


G1 E-0.80000 F2100.00000
G1 Z0.600 F10800.000
;AFTER_LAYER_CHANGE
;0.2
G1 X121.871 Y100.337
G1 Z0.200
G1 E0.80000 F2100.00000
M204 S1000
G1 F1200
G1 X122.894 Y99.794 E0.03631
G1 X124.007 Y99.473 E0.03632
G1 X125.110 Y99.386 E0.03471
G1 X125.973 Y99.469 E0.02716
G1 X126.815 Y99.687 E0.02728
G1 X127.761 Y100.110 E0.03248
G1 X128.511 Y100.618 E0.02840
G1 X129.254 Y101.335 E0.03236
G1 X129.767 Y102.032 E0.02716
G1 X130.245 Y102.997 E0.03377
G1 X130.490 Y103.822 E0.02697
G1 X130.616 Y104.985 E0.03667
G1 X130.616 Y125.020 E0.62819
G1 X130.496 Y126.153 E0.03573
G1 X130.158 Y127.219 E0.03505
G1 X129.596 Y128.225 E0.03614
G1 X128.987 Y128.953 E0.02976
G1 X128.126 Y129.665 E0.03505
G1 X127.102 Y130.207 E0.03631
G1 X125.989 Y130.528 E0.03632
G1 X124.874 Y130.614 E0.03508
G1 X123.973 Y130.521 E0.02840
G1 X122.980 Y130.239 E0.03236
G1 X122.194 Y129.865 E0.02728
G1 X121.486 Y129.380 E0.02692
G1 X120.744 Y128.663 E0.03233
G1 X120.231 Y127.964 E0.02720
G1 X119.755 Y127.003 E0.03364
G1 X119.508 Y126.171 E0.02720
G1 X119.384 Y125.016 E0.03641
G1 X119.384 Y104.980 E0.62822
G1 X119.504 Y103.847 E0.03573
G1 X119.842 Y102.781 E0.03505
G1 X120.406 Y101.771 E0.03628
G1 X121.013 Y101.047 E0.02961
G1 X121.825 Y100.375 E0.03304
G1 X122.064 Y100.664 F10800.000
G1 F1200
G1 X123.035 Y100.144 E0.03453
G1 X124.076 Y99.844 E0.03400
G1 X125.110 Y99.763 E0.03251
G1 X125.910 Y99.841 E0.02520
G1 X126.688 Y100.042 E0.02520
G1 X127.578 Y100.440 E0.03057
G1 X128.274 Y100.911 E0.02634
G1 X128.973 Y101.586 E0.03046
G1 X129.448 Y102.234 E0.02520
G1 X129.897 Y103.142 E0.03177
G1 X130.127 Y103.925 E0.02558
G1 X130.238 Y104.988 E0.03353
G1 X130.238 Y125.015 E0.62791
G1 X130.127 Y126.075 E0.03342
G1 X129.810 Y127.073 E0.03282
G1 X129.284 Y128.014 E0.03383
G1 X128.724 Y128.684 E0.02737
G1 X127.920 Y129.349 E0.03272
G1 X126.962 Y129.857 E0.03399
G1 X125.920 Y130.157 E0.03400
G1 X124.879 Y130.237 E0.03274
G1 X124.043 Y130.150 E0.02634
G1 X123.109 Y129.884 E0.03046
G1 X122.384 Y129.538 E0.02520
G1 X121.721 Y129.084 E0.02520
G1 X121.026 Y128.412 E0.03031
G1 X120.550 Y127.763 E0.02523
G1 X120.101 Y126.855 E0.03177
G1 X119.872 Y126.068 E0.02569
G1 X119.762 Y125.012 E0.03329
G1 X119.762 Y104.985 E0.62793
G1 X119.873 Y103.925 E0.03342
G1 X120.190 Y102.927 E0.03282
G1 X120.719 Y101.982 E0.03397
G1 X121.276 Y101.316 E0.02722
G1 X122.018 Y100.702 E0.03018
G1 F8640
G1 X123.035 Y100.144 E-0.26785
G1 X124.076 Y99.844 E-0.25036
G1 X125.110 Y99.763 E-0.23942
G1 X125.120 Y99.764 E-0.00236
G1 E-0.04000 F2100.00000
G1 Z0.800 F10800.000
G1 X123.352 Y103.170
G1 Z0.200
G1 E0.80000 F2100.00000
G1 F1200
G1 X123.769 Y102.868 E0.01614
G1 X124.239 Y102.658 E0.01614
G1 X124.743 Y102.552 E0.01614
G1 X125.087 Y102.540 E0.01080
G1 X125.586 Y102.608 E0.01579
G1 X126.079 Y102.787 E0.01646
G1 X126.515 Y103.060 E0.01614
G1 X126.880 Y103.409 E0.01582
G1 X127.174 Y103.844 E0.01646
G1 X127.366 Y104.322 E0.01614
G1 X127.438 Y104.657 E0.01077
G1 X127.457 Y105.172 E0.01614
G1 X127.364 Y105.689 E0.01646
G1 X127.174 Y106.155 E0.01579
G1 X126.893 Y106.575 E0.01585
G1 X126.640 Y106.837 E0.01141
G1 X126.231 Y107.132 E0.01581
G1 X125.921 Y107.283 E0.01080
G1 X125.428 Y107.425 E0.01611
G1 X124.904 Y107.460 E0.01646
G1 X124.405 Y107.388 E0.01582
G1 X124.078 Y107.282 E0.01077
G1 X123.623 Y107.042 E0.01614
G1 X123.222 Y106.703 E0.01646
G1 X122.906 Y106.296 E0.01614
G1 X122.683 Y105.832 E0.01614
G1 X122.562 Y105.343 E0.01582
G1 X122.538 Y104.991 E0.01106
G1 X122.560 Y104.667 E0.01016
G1 X122.683 Y104.167 E0.01614
G1 X122.826 Y103.845 E0.01106
G1 X123.009 Y103.553 E0.01080
G1 X123.309 Y103.212 E0.01426
G1 X123.100 Y102.890 F10800.000
G1 F1200
G1 X123.250 Y102.764 E0.00613
G1 X123.580 Y102.541 E0.01250
G1 X123.940 Y102.366 E0.01254
G1 X124.122 Y102.299 E0.00610
G1 X124.309 Y102.245 E0.00610
G1 X124.703 Y102.176 E0.01254
G1 X125.100 Y102.162 E0.01245
G1 X125.497 Y102.204 E0.01250
G1 X125.683 Y102.244 E0.00599
G1 X126.067 Y102.368 E0.01265
G1 X126.245 Y102.448 E0.00610
G1 X126.418 Y102.539 E0.00613
G1 X126.748 Y102.762 E0.01250
G1 X127.045 Y103.030 E0.01254
G1 X127.173 Y103.172 E0.00598
G1 X127.410 Y103.498 E0.01265
G1 X127.507 Y103.667 E0.00610
G1 X127.593 Y103.842 E0.00610
G1 X127.729 Y104.217 E0.01254
G1 X127.812 Y104.605 E0.01242
G1 X127.840 Y105.003 E0.01250
G1 X127.833 Y105.198 E0.00613
G1 X127.813 Y105.392 E0.00610
G1 X127.729 Y105.786 E0.01265
G1 X127.670 Y105.968 E0.00599
G1 X127.508 Y106.332 E0.01250
G1 X127.295 Y106.672 E0.01257
G1 X127.178 Y106.823 E0.00598
G1 X126.897 Y107.113 E0.01265
G1 X126.751 Y107.235 E0.00598
G1 X126.420 Y107.459 E0.01254
G1 X126.063 Y107.633 E0.01245
G1 X125.683 Y107.756 E0.01250
G1 X125.493 Y107.797 E0.00610
G1 X125.300 Y107.824 E0.00610
G1 X124.897 Y107.838 E0.01265
G1 X124.706 Y107.824 E0.00602
G1 X124.313 Y107.755 E0.01250
G1 X123.936 Y107.633 E0.01242
G1 X123.577 Y107.457 E0.01254
G1 X123.412 Y107.354 E0.00610
G1 X123.255 Y107.240 E0.00610
G1 X122.955 Y106.970 E0.01265
G1 X122.827 Y106.828 E0.00598
G1 X122.590 Y106.502 E0.01265
G1 X122.494 Y106.336 E0.00598
G1 X122.330 Y105.968 E0.01265
G1 X122.271 Y105.786 E0.00598
G1 X122.188 Y105.395 E0.01254
G1 X122.160 Y104.997 E0.01250
G1 X122.187 Y104.608 E0.01222
G1 X122.271 Y104.214 E0.01265
G1 X122.330 Y104.032 E0.00599
G1 X122.492 Y103.668 E0.01250
G1 X122.703 Y103.331 E0.01245
G1 X123.057 Y102.931 E0.01674
G1 X123.288 Y102.944 F10800.000
G1 F8640
G1 X123.250 Y102.764 E-0.05899
G1 X123.580 Y102.541 E-0.09208
G1 X123.940 Y102.366 E-0.09232
G1 X124.122 Y102.299 E-0.04492
G1 X124.309 Y102.245 E-0.04492
G1 X124.703 Y102.176 E-0.09231
G1 X125.100 Y102.162 E-0.09171
G1 X125.497 Y102.204 E-0.09208
G1 X125.683 Y102.244 E-0.04408
G1 X126.067 Y102.368 E-0.09317
G1 X126.120 Y102.392 E-0.01340
G1 E-0.04000 F2100.00000
G1 Z0.800 F10800.000
G1 X125.883 Y102.824
G1 Z0.200
G1 E0.80000 F2100.00000
G1 F1200
G1 X127.169 Y104.110 E0.05946
G1 X127.331 Y104.828 F10800.000
G1 F1200
G1 X125.355 Y102.853 E0.09135
G1 X125.077 Y102.823 E0.00914
G1 X124.780 Y102.834 E0.00972
G1 X127.162 Y105.215 E0.11012
G1 X127.064 Y105.674 E0.01534
G1 X124.321 Y102.931 E0.12684
G1 X123.937 Y103.103 E0.01376
G1 X126.896 Y106.062 E0.13681
G1 X126.673 Y106.395 E0.01311
G1 X123.610 Y103.332 E0.14161
G1 X123.542 Y103.381 E0.00274
G1 X123.335 Y103.613 E0.01017
G1 X126.390 Y106.668 E0.14127
G1 X126.064 Y106.898 E0.01305
G1 X123.103 Y103.937 E0.13694
G1 X122.936 Y104.326 E0.01384
G1 X125.670 Y107.061 E0.12646
G1 X125.378 Y107.145 E0.00994
G1 X125.210 Y107.156 E0.00552
G1 X122.838 Y104.785 E0.10966
G1 X122.827 Y104.848 E0.00210
G1 X122.858 Y105.361 E0.01679
G1 X124.833 Y107.336 E0.09134
G1 X124.117 Y107.175 F10800.000
G1 F1200
G1 X122.833 Y105.891 E0.05937
G1 F8640
G1 X124.117 Y107.175 E-0.41930
G1 E-0.38070 F2100.00000
G1 Z0.800 F10800.000
G1 X124.239 Y112.658
G1 Z0.200
G1 E0.80000 F2100.00000
G1 F1200
G1 X124.743 Y112.552 E0.01614
G1 X125.087 Y112.540 E0.01080
G1 X125.586 Y112.608 E0.01579
G1 X126.079 Y112.787 E0.01646
G1 X126.515 Y113.060 E0.01614
G1 X126.880 Y113.409 E0.01582
G1 X127.174 Y113.844 E0.01646
G1 X127.366 Y114.322 E0.01614
G1 X127.438 Y114.657 E0.01077
G1 X127.457 Y115.172 E0.01614
G1 X127.364 Y115.689 E0.01646
G1 X127.174 Y116.155 E0.01579
G1 X126.893 Y116.575 E0.01585
G1 X126.640 Y116.837 E0.01141
G1 X126.231 Y117.132 E0.01581
G1 X125.921 Y117.283 E0.01080
G1 X125.428 Y117.425 E0.01611
G1 X124.904 Y117.460 E0.01646
G1 X124.405 Y117.388 E0.01582
G1 X124.078 Y117.282 E0.01077
G1 X123.623 Y117.042 E0.01614
G1 X123.222 Y116.703 E0.01646
G1 X122.906 Y116.296 E0.01614
G1 X122.683 Y115.832 E0.01614
G1 X122.562 Y115.343 E0.01582
G1 X122.543 Y114.828 E0.01614
G1 X122.636 Y114.311 E0.01646
G1 X122.826 Y113.845 E0.01579
G1 X123.009 Y113.553 E0.01080
G1 X123.352 Y113.170 E0.01613
G1 X123.769 Y112.868 E0.01614
G1 X124.183 Y112.678 E0.01426
G1 X124.122 Y112.299 F10800.000
G1 F1200
G1 X124.309 Y112.245 E0.00610
G1 X124.703 Y112.176 E0.01254
G1 X125.100 Y112.162 E0.01245
G1 X125.497 Y112.204 E0.01250
G1 X125.683 Y112.244 E0.00599
G1 X126.067 Y112.368 E0.01265
G1 X126.245 Y112.448 E0.00610
G1 X126.418 Y112.539 E0.00613
G1 X126.748 Y112.762 E0.01250
G1 X127.045 Y113.030 E0.01254
G1 X127.173 Y113.172 E0.00598
G1 X127.410 Y113.498 E0.01265
G1 X127.507 Y113.667 E0.00610
G1 X127.593 Y113.842 E0.00610
G1 X127.729 Y114.217 E0.01254
G1 X127.812 Y114.605 E0.01242
G1 X127.840 Y115.003 E0.01250
G1 X127.833 Y115.198 E0.00613
G1 X127.813 Y115.392 E0.00610
G1 X127.729 Y115.786 E0.01265
G1 X127.670 Y115.968 E0.00599
G1 X127.508 Y116.332 E0.01250
G1 X127.295 Y116.672 E0.01257
G1 X127.178 Y116.823 E0.00598
G1 X126.897 Y117.113 E0.01265
G1 X126.751 Y117.235 E0.00598
G1 X126.420 Y117.459 E0.01254
G1 X126.063 Y117.633 E0.01245
G1 X125.683 Y117.756 E0.01250
G1 X125.493 Y117.797 E0.00610
G1 X125.300 Y117.824 E0.00610
G1 X124.897 Y117.838 E0.01265
G1 X124.706 Y117.824 E0.00602
G1 X124.313 Y117.755 E0.01250
G1 X123.936 Y117.633 E0.01242
G1 X123.577 Y117.457 E0.01254
G1 X123.412 Y117.354 E0.00610
G1 X123.255 Y117.240 E0.00610
G1 X122.955 Y116.970 E0.01265
G1 X122.827 Y116.828 E0.00598
G1 X122.590 Y116.502 E0.01265
G1 X122.494 Y116.336 E0.00598
G1 X122.330 Y115.968 E0.01265
G1 X122.271 Y115.786 E0.00598
G1 X122.188 Y115.395 E0.01254
G1 X122.160 Y114.997 E0.01250
G1 X122.167 Y114.802 E0.00613
G1 X122.187 Y114.608 E0.00610
G1 X122.271 Y114.214 E0.01265
G1 X122.330 Y114.032 E0.00599
G1 X122.492 Y113.668 E0.01250
G1 X122.703 Y113.331 E0.01245
G1 X122.960 Y113.025 E0.01254
G1 X123.100 Y112.890 E0.00610
G1 X123.250 Y112.764 E0.00613
G1 X123.580 Y112.541 E0.01250
G1 X124.066 Y112.320 E0.01674
G1 X124.271 Y112.424 F10800.000
G1 F8640
G1 X124.309 Y112.245 E-0.05875
G1 X124.703 Y112.176 E-0.09231
G1 X125.100 Y112.162 E-0.09171
G1 X125.497 Y112.204 E-0.09208
G1 X125.683 Y112.244 E-0.04408
G1 X126.067 Y112.368 E-0.09317
G1 X126.245 Y112.448 E-0.04491
G1 X126.418 Y112.539 E-0.04516
G1 X126.748 Y112.762 E-0.09208
G1 X127.045 Y113.030 E-0.09232
G1 X127.084 Y113.073 E-0.01341
G1 E-0.04000 F2100.00000
G1 Z0.800 F10800.000
G1 X125.883 Y112.824
G1 Z0.200
G1 E0.80000 F2100.00000
G1 F1200
G1 X127.169 Y114.110 E0.05946
G1 X127.331 Y114.828 F10800.000
G1 F1200
G1 X125.355 Y112.853 E0.09135
G1 X125.077 Y112.823 E0.00914
G1 X124.780 Y112.834 E0.00972
G1 X127.162 Y115.215 E0.11012
G1 X127.064 Y115.674 E0.01534
G1 X124.321 Y112.931 E0.12684
G1 X123.937 Y113.103 E0.01376
G1 X126.896 Y116.062 E0.13681
G1 X126.673 Y116.395 E0.01311
G1 X123.610 Y113.332 E0.14161
G1 X123.542 Y113.381 E0.00274
G1 X123.335 Y113.613 E0.01017
G1 X126.390 Y116.668 E0.14127
G1 X126.064 Y116.898 E0.01305
G1 X123.103 Y113.937 E0.13694
G1 X122.936 Y114.326 E0.01384
G1 X125.670 Y117.061 E0.12646
G1 X125.378 Y117.145 E0.00994
G1 X125.210 Y117.156 E0.00552
G1 X122.838 Y114.785 E0.10966
G1 X122.827 Y114.848 E0.00210
G1 X122.858 Y115.361 E0.01679
G1 X124.833 Y117.336 E0.09134
G1 X124.117 Y117.175 F10800.000
G1 F1200
G1 X122.833 Y115.891 E0.05937
G1 F8640
G1 X124.117 Y117.175 E-0.41930
G1 E-0.38070 F2100.00000
G1 Z0.800 F10800.000
G1 X124.239 Y122.658
G1 Z0.200
G1 E0.80000 F2100.00000
G1 F1200
G1 X124.743 Y122.552 E0.01614
G1 X125.087 Y122.540 E0.01080
G1 X125.586 Y122.608 E0.01579
G1 X126.079 Y122.787 E0.01646
G1 X126.515 Y123.060 E0.01614
G1 X126.880 Y123.409 E0.01582
G1 X127.174 Y123.844 E0.01646
G1 X127.366 Y124.322 E0.01614
G1 X127.438 Y124.657 E0.01077
G1 X127.457 Y125.172 E0.01614
G1 X127.364 Y125.689 E0.01646
G1 X127.174 Y126.155 E0.01579
G1 X126.893 Y126.575 E0.01585
G1 X126.640 Y126.837 E0.01141
G1 X126.231 Y127.132 E0.01581
G1 X125.921 Y127.283 E0.01080
G1 X125.428 Y127.425 E0.01611
G1 X124.904 Y127.460 E0.01646
G1 X124.405 Y127.388 E0.01582
G1 X124.078 Y127.282 E0.01077
G1 X123.623 Y127.042 E0.01614
G1 X123.222 Y126.703 E0.01646
G1 X122.906 Y126.296 E0.01614
G1 X122.683 Y125.832 E0.01614
G1 X122.562 Y125.343 E0.01582
G1 X122.543 Y124.828 E0.01614
G1 X122.636 Y124.311 E0.01646
G1 X122.826 Y123.845 E0.01579
G1 X123.009 Y123.553 E0.01080
G1 X123.352 Y123.170 E0.01613
G1 X123.769 Y122.868 E0.01614
G1 X124.183 Y122.678 E0.01426
G1 X124.122 Y122.299 F10800.000
G1 F1200
G1 X124.309 Y122.245 E0.00610
G1 X124.703 Y122.176 E0.01254
G1 X125.100 Y122.162 E0.01245
G1 X125.497 Y122.204 E0.01250
G1 X125.683 Y122.244 E0.00599
G1 X126.067 Y122.368 E0.01265
G1 X126.245 Y122.448 E0.00610
G1 X126.418 Y122.539 E0.00613
G1 X126.748 Y122.762 E0.01250
G1 X127.045 Y123.030 E0.01254
G1 X127.173 Y123.172 E0.00598
G1 X127.410 Y123.498 E0.01265
G1 X127.507 Y123.667 E0.00610
G1 X127.593 Y123.842 E0.00610
G1 X127.729 Y124.217 E0.01254
G1 X127.812 Y124.605 E0.01242
G1 X127.840 Y125.003 E0.01250
G1 X127.833 Y125.198 E0.00613
G1 X127.813 Y125.392 E0.00610
G1 X127.729 Y125.786 E0.01265
G1 X127.670 Y125.968 E0.00599
G1 X127.508 Y126.332 E0.01250
G1 X127.295 Y126.672 E0.01257
G1 X127.178 Y126.823 E0.00598
G1 X126.897 Y127.113 E0.01265
G1 X126.751 Y127.235 E0.00598
G1 X126.420 Y127.459 E0.01254
G1 X126.063 Y127.633 E0.01245
G1 X125.683 Y127.756 E0.01250
G1 X125.493 Y127.797 E0.00610
G1 X125.300 Y127.824 E0.00610
G1 X124.897 Y127.838 E0.01265
G1 X124.706 Y127.824 E0.00602
G1 X124.313 Y127.755 E0.01250
G1 X123.936 Y127.633 E0.01242
G1 X123.577 Y127.457 E0.01254
G1 X123.412 Y127.354 E0.00610
G1 X123.255 Y127.240 E0.00610
G1 X122.955 Y126.970 E0.01265
G1 X122.827 Y126.828 E0.00598
G1 X122.590 Y126.502 E0.01265
G1 X122.494 Y126.336 E0.00598
G1 X122.330 Y125.968 E0.01265
G1 X122.271 Y125.786 E0.00598
G1 X122.188 Y125.395 E0.01254
G1 X122.160 Y124.997 E0.01250
G1 X122.167 Y124.802 E0.00613
G1 X122.187 Y124.608 E0.00610
G1 X122.271 Y124.214 E0.01265
G1 X122.330 Y124.032 E0.00599
G1 X122.492 Y123.668 E0.01250
G1 X122.703 Y123.331 E0.01245
G1 X122.960 Y123.025 E0.01254
G1 X123.100 Y122.890 E0.00610
G1 X123.250 Y122.764 E0.00613
G1 X123.580 Y122.541 E0.01250
G1 X124.066 Y122.320 E0.01674
G1 X124.271 Y122.424 F10800.000
G1 F8640
G1 X124.309 Y122.245 E-0.05875
G1 X124.703 Y122.176 E-0.09231
G1 X125.100 Y122.162 E-0.09171
G1 X125.497 Y122.204 E-0.09208
G1 X125.683 Y122.244 E-0.04408
G1 X126.067 Y122.368 E-0.09317
G1 X126.245 Y122.448 E-0.04491
G1 X126.418 Y122.539 E-0.04516
G1 X126.748 Y122.762 E-0.09208
G1 X127.045 Y123.030 E-0.09232
G1 X127.084 Y123.073 E-0.01341
G1 E-0.04000 F2100.00000
G1 Z0.800 F10800.000
G1 X125.883 Y122.824
G1 Z0.200
G1 E0.80000 F2100.00000
G1 F1200
G1 X127.169 Y124.110 E0.05946
G1 X127.331 Y124.828 F10800.000
G1 F1200
G1 X125.355 Y122.853 E0.09135
G1 X125.077 Y122.823 E0.00914
G1 X124.780 Y122.834 E0.00972
G1 X127.162 Y125.215 E0.11012
G1 X127.064 Y125.674 E0.01534
G1 X124.321 Y122.931 E0.12684
G1 X123.937 Y123.103 E0.01376
G1 X126.896 Y126.062 E0.13681
G1 X126.673 Y126.395 E0.01311
G1 X123.610 Y123.332 E0.14161
G1 X123.542 Y123.381 E0.00274
G1 X123.335 Y123.613 E0.01017
