; generated by PrusaSlicer 2.1.1 on 2020-09-06 at 10:01:01 UTC

; 

; external perimeters extrusion width = 0.45mm
; perimeters extrusion width = 0.45mm
; infill extrusion width = 0.45mm
; solid infill extrusion width = 0.45mm
; top infill extrusion width = 0.40mm
; first layer extrusion width = 0.42mm

M73 P0 R13
M73 Q0 S13
M201 X1000 Y1000 Z200 E5000 ; sets maximum accelerations, mm/sec^2
M203 X200 Y200 Z12 E120 ; sets maximum feedrates, mm/sec
M204 P1250 R1250 T1250 ; sets acceleration (P, T) and retract acceleration (R), mm/sec^2
M205 X8.00 Y8.00 Z0.40 E4.50 ; sets the jerk limits, mm/sec
M205 S0 T0 ; sets the minimum extruding and travel feed rate, mm/sec
M107
M862.3 P "MK3S" ; printer model check
M862.1 P0.4 ; nozzle diameter check
M115 U3.9.0 ; tell printer latest fw version
G90 ; use absolute coordinates
M83 ; extruder relative mode
M104 S215 ; set extruder temp
M140 S60 ; set bed temp
M190 S60 ; wait for bed temp
M109 S215 ; wait for extruder temp
G28 W ; home all without mesh bed level
G80 ; mesh bed leveling
G1 Y-3.0 F1000.0 ; go outside print area
G92 E0.0
G1 X60.0 E9.0 F1000.0 ; intro line
M73 Q0 S13
M73 P0 R13
G1 X100.0 E12.5 F1000.0 ; intro line
G92 E0.0
M221 S95
G21 ; set units to millimeters
G90 ; use absolute coordinates
M83 ; use relative distances for extrusion
M900 K0.06 ; Filament gcode LA 1.5
M900 K30 ; Filament gcode LA 1.0
;BEFORE_LAYER_CHANGE
G92 E0.0
;0.2


G1 E-0.80000 F2100.00000
G1 Z0.600 F10800.000
;AFTER_LAYER_CHANGE
;0.2
G1 X118.836 Y87.622
G1 Z0.200
G1 E0.80000 F2100.00000
M204 S1000
G1 F1200
G1 X119.212 Y87.160 E0.01869
G1 X119.689 Y86.795 E0.01882
G1 X120.237 Y86.550 E0.01882
G1 X120.823 Y86.441 E0.01869
G1 X136.004 Y86.434 E0.47599
G1 X136.939 Y86.612 E0.02985
G1 X137.745 Y87.119 E0.02985
G1 X138.309 Y87.882 E0.02973
G1 X138.558 Y88.801 E0.02985
G1 X138.565 Y113.040 E0.75999
G1 X138.457 Y113.737 E0.02214
G1 X138.163 Y114.379 E0.02214
G1 X137.840 Y114.788 E0.01635
G1 X137.440 Y115.123 E0.01635
G1 X125.410 Y123.143 E0.45334
G1 X124.832 Y123.427 E0.02017
G1 X124.033 Y123.565 E0.02545
G1 X113.945 Y123.565 E0.31630
G1 X113.255 Y123.455 E0.02189
G1 X112.621 Y123.163 E0.02189
G1 X111.918 Y122.499 E0.03034
G1 X111.511 Y121.621 E0.03034
G1 X111.435 Y121.033 E0.01857
G1 X111.473 Y118.559 E0.07759
G1 X118.504 Y88.405 E0.97081
G1 X118.812 Y87.677 E0.02480
G1 X119.156 Y87.823 F10800.000
G1 F1200
G1 X119.486 Y87.419 E0.01636
G1 X119.894 Y87.112 E0.01601
G1 X120.365 Y86.906 E0.01612
G1 X120.871 Y86.815 E0.01612
G1 X136.004 Y86.811 E0.47448
G1 X136.807 Y86.965 E0.02563
G1 X137.497 Y87.403 E0.02563
G1 X137.978 Y88.064 E0.02563
G1 X138.184 Y88.855 E0.02563
G1 X138.188 Y113.029 E0.75796
G1 X138.096 Y113.631 E0.01908
G1 X137.841 Y114.183 E0.01908
G1 X137.228 Y114.812 E0.02754
G1 X125.205 Y122.827 E0.45306
G1 X124.714 Y123.069 E0.01714
G1 X124.026 Y123.188 E0.02191
G1 X113.960 Y123.188 E0.31562
G1 X113.366 Y123.095 E0.01885
G1 X112.817 Y122.841 E0.01896
G1 X112.211 Y122.261 E0.02631
G1 X111.867 Y121.491 E0.02642
G1 X111.812 Y121.017 E0.01498
G1 X111.846 Y118.611 E0.07544
G1 X118.870 Y88.496 E0.96959
G1 X119.133 Y87.879 E0.02102
G1 F8640
G1 X119.486 Y87.419 E-0.13383
G1 X119.894 Y87.112 E-0.11788
G1 X120.365 Y86.906 E-0.11872
G1 X120.871 Y86.815 E-0.11872
G1 X122.044 Y86.815 E-0.27085
G1 E-0.04000 F2100.00000
G1 Z0.800 F10800.000
G1 X121.587 Y89.587
G1 Z0.200
G1 E0.80000 F2100.00000
G1 F1200
G1 X135.413 Y89.587 E0.43350
G1 X135.413 Y90.413 E0.02589
G1 X123.413 Y90.413 E0.37625
G1 X123.413 Y111.587 E0.66390
G1 X135.413 Y111.587 E0.37625
G1 X135.413 Y112.413 E0.02589
G1 X123.413 Y112.413 E0.37625
G1 X123.413 Y120.413 E0.25083
G1 X114.587 Y120.413 E0.27673
G1 X114.587 Y119.587 E0.02589
G1 X121.587 Y119.587 E0.21948
G1 X121.587 Y89.647 E0.93875
G1 F8640
G1 X124.878 Y89.633 E-0.76000
G1 E-0.04000 F2100.00000
G1 Z0.800 F10800.000
G1 X123.790 Y90.790
G1 Z0.200
G1 E0.80000 F2100.00000
G1 F1200
G1 X123.790 Y111.210 E0.64025
G1 X135.790 Y111.210 E0.37625
G1 X135.790 Y112.790 E0.04954
G1 X123.790 Y112.790 E0.37625
G1 X123.790 Y120.790 E0.25083
G1 X114.210 Y120.790 E0.30037
G1 X114.210 Y119.210 E0.04954
G1 X121.210 Y119.210 E0.21948
G1 X121.210 Y89.210 E0.94063
G1 X135.790 Y89.210 E0.45715
G1 X135.790 Y90.790 E0.04954
G1 X123.850 Y90.790 E0.37437
G1 X123.390 Y90.807 F10800.000
G1 F8640
G1 X123.840 Y94.081 E-0.76000
G1 E-0.04000 F2100.00000
G1 Z0.800 F10800.000
G1 X135.136 Y90.300
G1 Z0.200
G1 E0.80000 F2100.00000
G1 F1200
G1 X134.706 Y89.870 E0.01909
G1 X134.172 Y89.870 E0.01677
G1 X134.432 Y90.130 E0.01156
G1 X133.898 Y90.130 E0.01677
G1 X133.638 Y89.870 E0.01156
G1 X133.104 Y89.870 E0.01677
G1 X133.364 Y90.130 E0.01156
G1 X132.830 Y90.130 E0.01677
G1 X132.570 Y89.870 E0.01156
G1 X132.035 Y89.870 E0.01677
G1 X132.296 Y90.130 E0.01156
G1 X131.762 Y90.130 E0.01677
G1 X131.501 Y89.870 E0.01156
G1 X130.967 Y89.870 E0.01677
G1 X131.227 Y90.130 E0.01156
G1 X130.693 Y90.130 E0.01677
G1 X130.433 Y89.870 E0.01156
G1 X129.899 Y89.870 E0.01677
G1 X130.159 Y90.130 E0.01156
G1 X129.625 Y90.130 E0.01677
G1 X129.365 Y89.870 E0.01156
G1 X128.831 Y89.870 E0.01677
G1 X129.091 Y90.130 E0.01156
G1 X128.557 Y90.130 E0.01677
G1 X128.297 Y89.870 E0.01156
G1 X127.763 Y89.870 E0.01677
G1 X128.023 Y90.130 E0.01156
G1 X127.489 Y90.130 E0.01677
G1 X127.228 Y89.870 E0.01156
G1 X126.694 Y89.870 E0.01677
G1 X126.955 Y90.130 E0.01156
G1 X126.420 Y90.130 E0.01677
G1 X126.160 Y89.870 E0.01156
G1 X125.626 Y89.870 E0.01677
G1 X125.886 Y90.130 E0.01156
G1 X125.352 Y90.130 E0.01677
G1 X125.092 Y89.870 E0.01156
G1 X124.558 Y89.870 E0.01677
G1 X124.818 Y90.130 E0.01156
G1 X124.284 Y90.130 E0.01677
G1 X124.024 Y89.870 E0.01156
G1 X123.490 Y89.870 E0.01677
G1 X123.750 Y90.130 E0.01156
G1 X123.216 Y90.130 E0.01677
G1 X122.956 Y89.870 E0.01156
G1 X122.421 Y89.870 E0.01677
G1 X123.130 Y90.579 E0.03147
G1 X123.130 Y91.113 E0.01677
G1 X121.870 Y89.870 E0.05558
G1 X121.870 Y90.387 E0.01622
G1 X123.130 Y91.647 E0.05597
G1 X123.130 Y92.181 E0.01677
G1 X121.870 Y90.921 E0.05597
G1 X121.870 Y91.455 E0.01677
G1 X123.130 Y92.715 E0.05597
G1 X123.130 Y93.249 E0.01677
G1 X121.870 Y91.989 E0.05597
G1 X121.870 Y92.523 E0.01677
G1 X123.130 Y93.783 E0.05597
G1 X123.130 Y94.317 E0.01677
G1 X121.870 Y93.057 E0.05597
G1 X121.870 Y93.591 E0.01677
G1 X123.130 Y94.851 E0.05597
G1 X123.130 Y95.386 E0.01677
G1 X121.870 Y94.125 E0.05597
G1 X121.870 Y94.659 E0.01677
G1 X123.130 Y95.920 E0.05597
G1 X123.130 Y96.454 E0.01677
G1 X121.870 Y95.194 E0.05597
G1 X121.870 Y95.728 E0.01677
G1 X123.130 Y96.988 E0.05597
G1 X123.130 Y97.522 E0.01677
G1 X121.870 Y96.262 E0.05597
G1 X121.870 Y96.796 E0.01677
G1 X123.130 Y98.056 E0.05597
G1 X123.130 Y98.590 E0.01677
G1 X121.870 Y97.330 E0.05597
G1 X121.870 Y97.864 E0.01677
G1 X123.130 Y99.124 E0.05597
G1 X123.130 Y99.658 E0.01677
G1 X121.870 Y98.398 E0.05597
G1 X121.870 Y98.932 E0.01677
G1 X123.130 Y100.193 E0.05597
G1 X123.130 Y100.727 E0.01677
G1 X121.870 Y99.466 E0.05597
G1 X121.870 Y100.000 E0.01677
G1 X123.130 Y101.261 E0.05597
G1 X123.130 Y101.795 E0.01677
G1 X121.870 Y100.535 E0.05597
G1 X121.870 Y101.069 E0.01677
G1 X123.130 Y102.329 E0.05597
G1 X123.130 Y102.863 E0.01677
G1 X121.870 Y101.603 E0.05597
G1 X121.870 Y102.137 E0.01677
G1 X123.130 Y103.397 E0.05597
G1 X123.130 Y103.931 E0.01677
G1 X121.870 Y102.671 E0.05597
G1 X121.870 Y103.205 E0.01677
G1 X123.130 Y104.465 E0.05597
G1 X123.130 Y105.000 E0.01677
G1 X121.870 Y103.739 E0.05597
G1 X121.870 Y104.273 E0.01677
G1 X123.130 Y105.534 E0.05597
G1 X123.130 Y106.068 E0.01677
G1 X121.870 Y104.807 E0.05597
G1 X121.870 Y105.342 E0.01677
G1 X123.130 Y106.602 E0.05597
G1 X123.130 Y107.136 E0.01677
G1 X121.870 Y105.876 E0.05597
G1 X121.870 Y106.410 E0.01677
G1 X123.130 Y107.670 E0.05597
G1 X123.130 Y108.204 E0.01677
G1 X121.870 Y106.944 E0.05597
G1 X121.870 Y107.478 E0.01677
G1 X123.130 Y108.738 E0.05597
G1 X123.130 Y109.272 E0.01677
G1 X121.870 Y108.012 E0.05597
G1 X121.870 Y108.546 E0.01677
G1 X123.130 Y109.807 E0.05597
G1 X123.130 Y110.341 E0.01677
G1 X121.870 Y109.080 E0.05597
G1 X121.870 Y109.614 E0.01677
G1 X123.130 Y110.875 E0.05597
G1 X123.130 Y111.409 E0.01677
G1 X121.870 Y110.149 E0.05597
G1 X121.870 Y110.683 E0.01677
G1 X123.317 Y112.130 E0.06428
G1 X123.851 Y112.130 E0.01677
G1 X123.591 Y111.870 E0.01156
G1 X124.125 Y111.870 E0.01677
G1 X124.386 Y112.130 E0.01156
G1 X124.920 Y112.130 E0.01677
G1 X124.659 Y111.870 E0.01156
G1 X125.193 Y111.870 E0.01677
G1 X125.454 Y112.130 E0.01156
G1 X125.988 Y112.130 E0.01677
G1 X125.728 Y111.870 E0.01156
G1 X126.262 Y111.870 E0.01677
G1 X126.522 Y112.130 E0.01156
G1 X127.056 Y112.130 E0.01677
G1 X126.796 Y111.870 E0.01156
G1 X127.330 Y111.870 E0.01677
G1 X127.590 Y112.130 E0.01156
G1 X128.124 Y112.130 E0.01677
G1 X127.864 Y111.870 E0.01156
G1 X128.398 Y111.870 E0.01677
G1 X128.658 Y112.130 E0.01156
G1 X129.193 Y112.130 E0.01677
G1 X128.932 Y111.870 E0.01156
G1 X129.466 Y111.870 E0.01677
G1 X129.727 Y112.130 E0.01156
G1 X130.261 Y112.130 E0.01677
G1 X130.000 Y111.870 E0.01156
G1 X130.535 Y111.870 E0.01677
G1 X130.795 Y112.130 E0.01156
G1 X131.329 Y112.130 E0.01677
G1 X131.069 Y111.870 E0.01156
G1 X131.603 Y111.870 E0.01677
G1 X131.863 Y112.130 E0.01156
G1 X132.397 Y112.130 E0.01677
G1 X132.137 Y111.870 E0.01156
G1 X132.671 Y111.870 E0.01677
G1 X132.931 Y112.130 E0.01156
G1 X133.465 Y112.130 E0.01677
G1 X133.205 Y111.870 E0.01156
G1 X133.739 Y111.870 E0.01677
G1 X134.000 Y112.130 E0.01156
G1 X134.534 Y112.130 E0.01677
G1 X134.273 Y111.870 E0.01156
G1 X134.807 Y111.870 E0.01677
G1 X135.237 Y112.300 E0.01909
G1 F8640
G1 X134.807 Y111.870 E-0.14040
G1 X134.273 Y111.870 E-0.12333
G1 X134.534 Y112.130 E-0.08499
G1 X134.000 Y112.130 E-0.12333
G1 X133.739 Y111.870 E-0.08499
G1 X133.205 Y111.870 E-0.12333
G1 X133.449 Y112.114 E-0.07964
G1 E-0.04000 F2100.00000
G1 Z0.800 F10800.000
G1 X123.300 Y112.647
G1 Z0.200
G1 E0.80000 F2100.00000
G1 F1200
G1 X121.870 Y111.217 E0.06351
G1 X121.870 Y111.751 E0.01677
G1 X123.130 Y113.011 E0.05597
G1 X123.130 Y113.545 E0.01677
G1 X121.870 Y112.285 E0.05597
G1 X121.870 Y112.819 E0.01677
G1 X123.130 Y114.079 E0.05597
G1 X123.130 Y114.614 E0.01677
G1 X121.870 Y113.353 E0.05597
G1 X121.870 Y113.887 E0.01677
G1 X123.130 Y115.148 E0.05597
G1 X123.130 Y115.682 E0.01677
G1 X121.870 Y114.421 E0.05597
G1 X121.870 Y114.956 E0.01677
G1 X123.130 Y116.216 E0.05597
G1 X123.130 Y116.750 E0.01677
G1 X121.870 Y115.490 E0.05597
G1 X121.870 Y116.024 E0.01677
G1 X123.130 Y117.284 E0.05597
G1 X123.130 Y117.818 E0.01677
G1 X121.870 Y116.558 E0.05597
G1 X121.870 Y117.092 E0.01677
G1 X123.130 Y118.352 E0.05597
G1 X123.130 Y118.886 E0.01677
G1 X121.870 Y117.626 E0.05597
G1 X121.870 Y118.160 E0.01677
G1 X123.130 Y119.421 E0.05597
G1 X123.130 Y119.955 E0.01677
G1 X121.870 Y118.694 E0.05597
G1 X121.870 Y119.228 E0.01677
G1 X122.772 Y120.130 E0.04004
G1 X122.237 Y120.130 E0.01677
G1 X121.870 Y119.763 E0.01632
G1 X121.870 Y119.870 E0.00337
G1 X121.443 Y119.870 E0.01340
G1 X121.703 Y120.130 E0.01156
G1 X121.169 Y120.130 E0.01677
G1 X120.909 Y119.870 E0.01156
G1 X120.375 Y119.870 E0.01677
G1 X120.635 Y120.130 E0.01156
G1 X120.101 Y120.130 E0.01677
G1 X119.841 Y119.870 E0.01156
G1 X119.307 Y119.870 E0.01677
G1 X119.567 Y120.130 E0.01156
G1 X119.033 Y120.130 E0.01677
G1 X118.772 Y119.870 E0.01156
G1 X118.238 Y119.870 E0.01677
G1 X118.499 Y120.130 E0.01156
G1 X117.965 Y120.130 E0.01677
G1 X117.704 Y119.870 E0.01156
G1 X117.170 Y119.870 E0.01677
G1 X117.430 Y120.130 E0.01156
G1 X116.896 Y120.130 E0.01677
G1 X116.636 Y119.870 E0.01156
G1 X116.102 Y119.870 E0.01677
G1 X116.362 Y120.130 E0.01156
G1 X115.828 Y120.130 E0.01677
G1 X115.568 Y119.870 E0.01156
G1 X115.034 Y119.870 E0.01677
G1 X115.464 Y120.300 E0.01909
M106 S255
;BEFORE_LAYER_CHANGE
G92 E0.0
;0.35


G1 F8640
G1 X115.034 Y119.870 E-0.14040
G1 X115.568 Y119.870 E-0.12333
G1 X115.828 Y120.130 E-0.08499
G1 X116.362 Y120.130 E-0.12333
G1 X116.102 Y119.870 E-0.08499
G1 X116.636 Y119.870 E-0.12333
G1 X116.880 Y120.114 E-0.07964
G1 E-0.04000 F2100.00000
G1 Z0.800 F10800.000
;AFTER_LAYER_CHANGE
;0.35
G1 X111.918 Y122.499
G1 Z0.350
G1 E0.80000 F2100.00000
G1 F1627
G1 X111.511 Y121.621 E0.02340
G1 X111.435 Y121.033 E0.01432
G1 X111.473 Y118.559 E0.05985
G1 X118.504 Y88.405 E0.74883
G1 X118.836 Y87.622 E0.02058
G1 X119.212 Y87.160 E0.01442
G1 X119.689 Y86.795 E0.01451
G1 X120.237 Y86.550 E0.01451
G1 X120.823 Y86.441 E0.01442
G1 X136.004 Y86.434 E0.36715
G1 X136.939 Y86.612 E0.02303
G1 X137.745 Y87.119 E0.02303
G1 X138.309 Y87.882 E0.02293
G1 X138.558 Y88.801 E0.02303
G1 X138.565 Y113.040 E0.58621
G1 X138.457 Y113.737 E0.01708
G1 X138.163 Y114.379 E0.01708
G1 X137.840 Y114.788 E0.01261
G1 X137.440 Y115.123 E0.01261
G1 X125.410 Y123.143 E0.34968
G1 X124.832 Y123.427 E0.01556
G1 X124.033 Y123.565 E0.01963
G1 X113.945 Y123.565 E0.24398
G1 X113.255 Y123.455 E0.01689
G1 X112.621 Y123.163 E0.01689
G1 X111.961 Y122.540 E0.02195
G1 F8640
G1 X111.511 Y121.621 E-0.23635
G1 X111.435 Y121.033 E-0.13675
G1 X111.460 Y119.358 E-0.38689
G1 E-0.04000 F2100.00000
G1 Z0.950 F10800.000
G1 X114.643 Y120.357
G1 Z0.350
G1 E0.80000 F2100.00000
M204 S800
G1 F1627
G1 X114.643 Y119.643 E0.01861
G1 X121.643 Y119.643 E0.18239
G1 X121.643 Y89.643 E0.78167
G1 X135.357 Y89.643 E0.35734
G1 X135.357 Y90.357 E0.01861
G1 X123.357 Y90.357 E0.31267
G1 X123.357 Y111.643 E0.55461
G1 X135.357 Y111.643 E0.31267
G1 X135.357 Y112.357 E0.01861
G1 X123.357 Y112.357 E0.31267
G1 X123.357 Y120.357 E0.20845
G1 X114.703 Y120.357 E0.22550
M204 S1000
G1 F8640
G1 X114.643 Y119.643 E-0.16553
G1 X117.217 Y119.643 E-0.59447
G1 E-0.04000 F2100.00000
G1 Z0.950 F10800.000
G1 X123.775 Y90.775
G1 Z0.350
G1 E0.80000 F2100.00000
M204 S800
G1 F1500
G1 X123.775 Y111.225 E0.53284
G1 X135.775 Y111.225 E0.31267
G1 X135.775 Y112.775 E0.04039
G1 X123.775 Y112.775 E0.31267
G1 X123.775 Y120.775 E0.20845
G1 X114.225 Y120.775 E0.24883
G1 X114.225 Y119.225 E0.04039
G1 X121.225 Y119.225 E0.18239
G1 X121.225 Y89.225 E0.78167
G1 X135.775 Y89.225 E0.37911
G1 X135.775 Y90.775 E0.04039
G1 X123.835 Y90.775 E0.31111
M204 S1000
G1 X123.375 Y90.792 F10800.000
G1 F8640
G1 X123.825 Y94.066 E-0.76000
G1 E-0.04000 F2100.00000
G1 Z0.950 F10800.000
G1 X123.148 Y90.000
G1 Z0.350
G1 E0.80000 F2100.00000
G1 F1627
G1 X135.148 Y90.000 E0.22194
G1 F8640
G1 X131.857 Y90.000 E-0.76000
G1 E-0.04000 F2100.00000
G1 Z0.950 F10800.000
G1 X121.768 Y90.616
G1 Z0.350
G1 E0.80000 F2100.00000
G1 F1627
G1 X122.427 Y89.956 E0.02438
G1 X122.835 Y89.956 E0.01065
G1 X122.835 Y90.141 E0.00484
G1 X121.956 Y91.020 E0.03249
G1 X121.956 Y91.613 E0.01550
G1 X123.044 Y90.525 E0.04021
G1 X123.044 Y91.118 E0.01550
G1 X121.956 Y92.206 E0.04021
G1 X121.956 Y92.799 E0.01550
G1 X123.044 Y91.711 E0.04021
G1 X123.044 Y92.304 E0.01550
G1 X121.956 Y93.391 E0.04021
G1 X121.956 Y93.984 E0.01550
G1 X123.044 Y92.897 E0.04021
G1 X123.044 Y93.489 E0.01550
G1 X121.956 Y94.577 E0.04021
G1 X121.956 Y95.170 E0.01550
G1 X123.044 Y94.082 E0.04021
G1 X123.044 Y94.675 E0.01550
G1 X121.956 Y95.763 E0.04021
G1 X121.956 Y96.355 E0.01550
G1 X123.044 Y95.268 E0.04021
G1 X123.044 Y95.861 E0.01550
G1 X121.956 Y96.948 E0.04021
G1 X121.956 Y97.541 E0.01550
G1 X123.044 Y96.453 E0.04021
G1 X123.044 Y97.046 E0.01550
G1 X121.956 Y98.134 E0.04021
G1 X121.956 Y98.727 E0.01550
G1 X123.044 Y97.639 E0.04021
G1 X123.044 Y98.232 E0.01550
G1 X121.956 Y99.319 E0.04021
G1 X121.956 Y99.912 E0.01550
G1 X123.044 Y98.825 E0.04021
G1 X123.044 Y99.417 E0.01550
G1 X121.956 Y100.505 E0.04021
G1 X121.956 Y101.098 E0.01550
G1 X123.044 Y100.010 E0.04021
G1 X123.044 Y100.603 E0.01550
M73 Q8 S12
G1 X121.956 Y101.691 E0.04021
G1 X121.956 Y102.283 E0.01550
G1 X123.044 Y101.196 E0.04021
G1 X123.044 Y101.789 E0.01550
G1 X121.956 Y102.876 E0.04021
G1 X121.956 Y103.469 E0.01550
G1 X123.044 Y102.381 E0.04021
G1 X123.044 Y102.974 E0.01550
G1 X121.956 Y104.062 E0.04021
M73 P8 R12
G1 X121.956 Y104.655 E0.01550
G1 X123.044 Y103.567 E0.04021
G1 X123.044 Y104.160 E0.01550
G1 X121.956 Y105.247 E0.04021
G1 X121.956 Y105.840 E0.01550
G1 X123.044 Y104.752 E0.04021
G1 X123.044 Y105.345 E0.01550
G1 X121.956 Y106.433 E0.04021
G1 X121.956 Y107.026 E0.01550
G1 X123.044 Y105.938 E0.04021
