; generated by PrusaSlicer 2.2.0+win64 on 2020-08-26 at 18:37:39 UTC

; 

; external perimeters extrusion width = 0.45mm
; perimeters extrusion width = 0.45mm
; infill extrusion width = 0.45mm
; solid infill extrusion width = 0.45mm
; top infill extrusion width = 0.40mm
; first layer extrusion width = 0.42mm

M73 P0 R16
M73 Q0 S16
M201 X1000 Y1000 Z200 E5000 ; sets maximum accelerations, mm/sec^2
M203 X200 Y200 Z12 E120 ; sets maximum feedrates, mm/sec
M204 P1250 R1250 T1250 ; sets acceleration (P, T) and retract acceleration (R), mm/sec^2
M205 X8.00 Y8.00 Z0.40 E4.50 ; sets the jerk limits, mm/sec
M205 S0 T0 ; sets the minimum extruding and travel feed rate, mm/sec
M107
M862.3 P "MK3" ; printer model check
M862.1 P0.4 ; nozzle diameter check
M115 U3.9.0 ; tell printer latest fw version
G90 ; use absolute coordinates
M83 ; extruder relative mode
M104 S215 ; set extruder temp
M140 S60 ; set bed temp
M190 S60 ; wait for bed temp
M109 S215 ; wait for extruder temp
G28 W ; home all without mesh bed level
G80 ; mesh bed leveling
G1 Y-3.0 F1000.0 ; go outside print area
G92 E0.0
G1 X60.0 E9.0 F1000.0 ; intro line
M73 Q0 S16
M73 P0 R16
G1 X100.0 E12.5 F1000.0 ; intro line
G92 E0.0
M221 S95

; Don't change E values below. Excessive value can damage the printer.
M907 E430 ; set extruder motor current
G21 ; set units to millimeters
G90 ; use absolute coordinates
M83 ; use relative distances for extrusion
M900 K0.06 ; Filament gcode LA 1.5
M900 K30 ; Filament gcode LA 1.0
;BEFORE_LAYER_CHANGE
G92 E0.0
;0.2


G1 E-0.80000 F2100.00000
G1 Z0.600 F10800.000
;AFTER_LAYER_CHANGE
;0.2
G1 X110.051 Y97.955
G1 Z0.200
G1 E0.80000 F2100.00000
M204 S1000
G1 F1200.000
G1 X111.185 Y96.921 E0.04812
G1 X112.454 Y96.075 E0.04780
G1 X114.318 Y95.252 E0.06389
G1 X115.803 Y94.888 E0.04793
G1 X117.766 Y94.750 E0.06171
G1 X118.656 Y94.812 E0.02796
G1 X119.987 Y95.052 E0.04242
G1 X138.809 Y99.912 E0.60951
G1 X139.868 Y100.310 E0.03546
G1 X140.749 Y100.871 E0.03276
G1 X141.521 Y101.618 E0.03368
G1 X142.128 Y102.512 E0.03388
G1 X142.527 Y103.473 E0.03260
G1 X142.714 Y104.357 E0.02835
G1 X142.736 Y105.432 E0.03373
G1 X142.549 Y106.454 E0.03255
G1 X142.150 Y107.445 E0.03351
G1 X141.578 Y108.312 E0.03259
G1 X140.956 Y108.957 E0.02806
G1 X140.118 Y109.556 E0.03230
G1 X139.156 Y109.986 E0.03304
G1 X119.935 Y114.960 E0.62252
G1 X117.946 Y115.243 E0.06301
G1 X116.414 Y115.196 E0.04806
G1 X114.411 Y114.777 E0.06414
G1 X112.941 Y114.184 E0.04972
G1 X111.257 Y113.133 E0.06222
G1 X110.125 Y112.124 E0.04754
G1 X109.153 Y110.955 E0.04767
G1 X108.164 Y109.239 E0.06210
G1 X107.627 Y107.767 E0.04914
G1 X107.280 Y105.817 E0.06210
G1 X107.271 Y104.287 E0.04799
G1 X107.491 Y102.778 E0.04780
G1 X108.096 Y100.916 E0.06138
G1 X108.810 Y99.557 E0.04813
G1 X110.015 Y98.002 E0.06168
G1 X110.312 Y98.233 F10800.000
G1 F1200.000
G1 X111.420 Y97.216 E0.04714
G1 X112.634 Y96.406 E0.04577
G1 X114.438 Y95.610 E0.06182
G1 X115.857 Y95.261 E0.04582
G1 X117.766 Y95.127 E0.05998
G1 X118.605 Y95.186 E0.02639
G1 X119.894 Y95.417 E0.04106
G1 X138.710 Y100.276 E0.60931
G1 X139.666 Y100.630 E0.03197
G1 X140.497 Y101.152 E0.03077
G1 X141.197 Y101.819 E0.03030
G1 X141.767 Y102.640 E0.03134
G1 X142.108 Y103.404 E0.02622
G1 X142.332 Y104.338 E0.03011
G1 X142.365 Y105.343 E0.03154
G1 X142.192 Y106.330 E0.03139
G1 X141.831 Y107.242 E0.03076
G1 X141.288 Y108.071 E0.03107
G1 X140.715 Y108.667 E0.02594
G1 X139.931 Y109.228 E0.03022
G1 X139.028 Y109.632 E0.03102
G1 X119.849 Y114.593 E0.62112
G1 X117.924 Y114.867 E0.06099
G1 X116.459 Y114.822 E0.04594
G1 X114.523 Y114.417 E0.06201
G1 X113.142 Y113.864 E0.04666
G1 X111.482 Y112.831 E0.06129
G1 X110.397 Y111.863 E0.04559
G1 X109.465 Y110.743 E0.04570
G1 X108.505 Y109.079 E0.06023
G1 X107.992 Y107.669 E0.04704
G1 X107.655 Y105.782 E0.06012
G1 X107.647 Y104.314 E0.04602
G1 X107.856 Y102.871 E0.04570
G1 X108.445 Y101.058 E0.05978
G1 X109.128 Y99.759 E0.04603
G1 X110.275 Y98.280 E0.05867
G1 F8640.000
G1 X111.420 Y97.216 E-0.36084
G1 X112.634 Y96.406 E-0.33708
G1 X112.880 Y96.297 E-0.06209
G1 E-0.04000 F2100.00000
G1 Z0.800 F10800.000
G1 X115.142 Y102.709
G1 Z0.200
G1 E0.80000 F2100.00000
G1 F1200.000
G1 X115.459 Y102.423 E0.01338
G1 X115.661 Y102.275 E0.00785
G1 X115.865 Y102.147 E0.00755
G1 X116.268 Y101.951 E0.01406
G1 X116.695 Y101.812 E0.01406
G1 X116.939 Y101.760 E0.00784
G1 X117.375 Y101.714 E0.01374
G1 X117.625 Y101.714 E0.00784
G1 X118.061 Y101.760 E0.01374
G1 X118.305 Y101.812 E0.00783
G1 X118.721 Y101.947 E0.01371
G1 X119.144 Y102.151 E0.01472
G1 X119.516 Y102.403 E0.01409
G1 X119.872 Y102.723 E0.01502
G1 X120.161 Y103.067 E0.01406
G1 X120.398 Y103.447 E0.01406
G1 X120.593 Y103.885 E0.01502
G1 X120.717 Y104.317 E0.01409
G1 X120.781 Y104.782 E0.01472
G1 X120.781 Y105.219 E0.01371
G1 X120.714 Y105.694 E0.01502
G1 X120.590 Y106.125 E0.01406
G1 X120.408 Y106.535 E0.01406
G1 X120.283 Y106.751 E0.00784
G1 X120.025 Y107.106 E0.01374
G1 X119.858 Y107.291 E0.00783
G1 X119.541 Y107.577 E0.01338
G1 X119.339 Y107.725 E0.00785
G1 X119.135 Y107.853 E0.00755
G1 X118.732 Y108.049 E0.01406
G1 X118.305 Y108.188 E0.01406
G1 X118.061 Y108.240 E0.00784
G1 X117.625 Y108.286 E0.01374
G1 X117.375 Y108.286 E0.00784
G1 X116.939 Y108.240 E0.01374
G1 X116.695 Y108.188 E0.00783
G1 X116.279 Y108.053 E0.01371
G1 X115.856 Y107.849 E0.01472
G1 X115.484 Y107.597 E0.01409
G1 X115.300 Y107.443 E0.00752
G1 X115.128 Y107.277 E0.00752
G1 X114.839 Y106.933 E0.01406
G1 X114.602 Y106.553 E0.01406
G1 X114.497 Y106.337 E0.00752
G1 X114.407 Y106.115 E0.00752
G1 X114.283 Y105.683 E0.01409
G1 X114.219 Y105.218 E0.01472
G1 X114.219 Y104.781 E0.01371
G1 X114.245 Y104.541 E0.00754
G1 X114.289 Y104.295 E0.00785
G1 X114.410 Y103.875 E0.01370
G1 X114.592 Y103.465 E0.01405
G1 X114.717 Y103.249 E0.00784
G1 X114.975 Y102.894 E0.01374
G1 X115.102 Y102.753 E0.00595
G1 X115.382 Y103.006 F10800.000
G1 F1200.000
G1 X115.697 Y102.716 E0.01342
G1 X115.872 Y102.588 E0.00681
G1 X116.048 Y102.478 E0.00650
G1 X116.410 Y102.301 E0.01262
G1 X116.792 Y102.177 E0.01262
G1 X116.998 Y102.133 E0.00660
G1 X117.395 Y102.092 E0.01250
G1 X117.605 Y102.092 E0.00660
G1 X118.002 Y102.133 E0.01250
G1 X118.208 Y102.177 E0.00660
G1 X118.580 Y102.298 E0.01228
G1 X118.955 Y102.479 E0.01306
G1 X119.289 Y102.704 E0.01263
G1 X119.447 Y102.837 E0.00648
G1 X119.596 Y102.981 E0.00648
G1 X119.855 Y103.289 E0.01262
G1 X120.068 Y103.630 E0.01262
G1 X120.159 Y103.816 E0.00648
G1 X120.236 Y104.008 E0.00648
G1 X120.347 Y104.395 E0.01263
G1 X120.404 Y104.808 E0.01306
G1 X120.404 Y105.199 E0.01228
G1 X120.382 Y105.405 E0.00648
G1 X120.346 Y105.609 E0.00648
G1 X120.235 Y105.995 E0.01262
G1 X120.071 Y106.363 E0.01262
G1 X119.966 Y106.545 E0.00660
G1 X119.732 Y106.868 E0.01250
G1 X119.591 Y107.024 E0.00660
G1 X119.303 Y107.284 E0.01216
G1 X119.128 Y107.412 E0.00681
G1 X118.952 Y107.522 E0.00650
G1 X118.590 Y107.699 E0.01262
G1 X118.208 Y107.823 E0.01262
G1 X118.002 Y107.867 E0.00660
G1 X117.605 Y107.908 E0.01250
G1 X117.395 Y107.908 E0.00660
G1 X116.998 Y107.867 E0.01250
G1 X116.792 Y107.823 E0.00660
G1 X116.420 Y107.702 E0.01228
G1 X116.045 Y107.521 E0.01306
G1 X115.711 Y107.296 E0.01263
G1 X115.553 Y107.163 E0.00648
G1 X115.404 Y107.019 E0.00648
G1 X115.145 Y106.711 E0.01262
G1 X114.932 Y106.370 E0.01262
G1 X114.841 Y106.184 E0.00648
G1 X114.764 Y105.992 E0.00648
G1 X114.653 Y105.605 E0.01263
G1 X114.596 Y105.192 E0.01306
G1 X114.596 Y104.801 E0.01228
G1 X114.618 Y104.595 E0.00649
G1 X114.657 Y104.381 E0.00682
G1 X114.765 Y104.004 E0.01228
G1 X114.929 Y103.637 E0.01261
G1 X115.034 Y103.455 E0.00660
G1 X115.342 Y103.050 E0.01593
G1 X115.268 Y102.622 F10800.000
G1 F8640.000
G1 X115.697 Y102.716 E-0.11265
G1 X115.872 Y102.588 E-0.05018
G1 X116.048 Y102.478 E-0.04784
G1 X116.410 Y102.301 E-0.09291
G1 X116.792 Y102.177 E-0.09291
G1 X116.998 Y102.133 E-0.04860
G1 X117.395 Y102.092 E-0.09206
G1 X117.605 Y102.092 E-0.04860
G1 X118.002 Y102.133 E-0.09206
G1 X118.208 Y102.177 E-0.04858
G1 X118.346 Y102.222 E-0.03359
G1 E-0.04000 F2100.00000
G1 Z0.800 F10800.000
G1 X112.518 Y100.508
G1 Z0.200
G1 E0.80000 F2100.00000
G1 F1200.000
G1 X113.008 Y100.012 E0.02188
G1 X113.367 Y99.711 E0.01469
G1 X113.746 Y99.435 E0.01469
G1 X114.144 Y99.187 E0.01469
G1 X114.557 Y98.967 E0.01469
G1 X114.985 Y98.776 E0.01469
G1 X115.419 Y98.618 E0.01448
G1 X116.105 Y98.439 E0.02224
G1 X116.805 Y98.324 E0.02224
G1 X117.266 Y98.292 E0.01447
G1 X117.738 Y98.292 E0.01480
G1 X118.202 Y98.324 E0.01459
G1 X118.666 Y98.390 E0.01469
G1 X119.124 Y98.487 E0.01469
G1 X119.574 Y98.616 E0.01469
G1 X120.015 Y98.776 E0.01469
G1 X120.443 Y98.967 E0.01469
G1 X120.856 Y99.187 E0.01469
G1 X121.254 Y99.435 E0.01469
G1 X121.633 Y99.711 E0.01469
G1 X121.992 Y100.012 E0.01469
G1 X122.329 Y100.337 E0.01469
G1 X122.642 Y100.685 E0.01469
G1 X122.930 Y101.055 E0.01469
G1 X123.192 Y101.443 E0.01469
G1 X123.427 Y101.849 E0.01469
G1 X123.632 Y102.270 E0.01469
G1 X123.808 Y102.704 E0.01469
G1 X123.952 Y103.150 E0.01469
G1 X124.066 Y103.604 E0.01469
G1 X124.147 Y104.066 E0.01469
G1 X124.196 Y104.532 E0.01469
G1 X124.212 Y104.997 E0.01459
G1 X124.196 Y105.468 E0.01480
G1 X124.147 Y105.934 E0.01469
G1 X124.066 Y106.396 E0.01469
G1 X123.952 Y106.850 E0.01469
G1 X123.808 Y107.296 E0.01469
G1 X123.632 Y107.730 E0.01469
G1 X123.427 Y108.151 E0.01469
G1 X123.192 Y108.557 E0.01469
G1 X122.930 Y108.945 E0.01469
G1 X122.642 Y109.315 E0.01469
G1 X122.329 Y109.663 E0.01469
G1 X121.992 Y109.988 E0.01469
G1 X121.633 Y110.289 E0.01469
G1 X121.254 Y110.565 E0.01469
G1 X120.856 Y110.813 E0.01469
G1 X120.443 Y111.033 E0.01469
G1 X120.015 Y111.224 E0.01469
G1 X119.574 Y111.384 E0.01469
G1 X119.124 Y111.513 E0.01469
G1 X118.666 Y111.610 E0.01469
G1 X118.202 Y111.676 E0.01469
G1 X117.734 Y111.708 E0.01469
G1 X117.266 Y111.708 E0.01469
G1 X116.798 Y111.676 E0.01469
G1 X116.334 Y111.610 E0.01469
G1 X115.876 Y111.513 E0.01469
G1 X115.426 Y111.384 E0.01469
G1 X114.985 Y111.224 E0.01469
G1 X114.557 Y111.033 E0.01469
G1 X114.144 Y110.813 E0.01469
G1 X113.746 Y110.565 E0.01469
G1 X113.367 Y110.289 E0.01469
G1 X113.008 Y109.988 E0.01469
G1 X112.671 Y109.663 E0.01469
G1 X112.358 Y109.315 E0.01469
G1 X112.070 Y108.945 E0.01469
G1 X111.808 Y108.557 E0.01469
G1 X111.573 Y108.151 E0.01469
G1 X111.368 Y107.730 E0.01469
G1 X111.192 Y107.296 E0.01469
G1 X111.048 Y106.850 E0.01469
G1 X110.934 Y106.396 E0.01469
G1 X110.853 Y105.934 E0.01469
G1 X110.804 Y105.468 E0.01469
G1 X110.788 Y105.003 E0.01459
G1 X110.804 Y104.532 E0.01480
G1 X110.853 Y104.066 E0.01469
G1 X110.934 Y103.604 E0.01469
G1 X111.048 Y103.150 E0.01469
G1 X111.192 Y102.704 E0.01469
G1 X111.368 Y102.270 E0.01469
G1 X111.572 Y101.852 E0.01459
G1 X111.808 Y101.443 E0.01480
G1 X112.070 Y101.055 E0.01469
G1 X112.478 Y100.552 E0.02029
G1 X112.197 Y100.300 F10800.000
G1 F1200.000
G1 X112.400 Y100.075 E0.00949
G1 X112.756 Y99.731 E0.01552
G1 X113.135 Y99.413 E0.01552
G1 X113.535 Y99.122 E0.01552
G1 X113.955 Y98.860 E0.01552
G1 X114.392 Y98.628 E0.01552
G1 X114.844 Y98.426 E0.01552
G1 X115.307 Y98.258 E0.01544
G1 X116.027 Y98.070 E0.02334
G1 X116.761 Y97.949 E0.02334
G1 X117.253 Y97.915 E0.01544
G1 X117.751 Y97.915 E0.01562
G1 X118.241 Y97.949 E0.01541
G1 X118.731 Y98.018 E0.01552
G1 X119.215 Y98.121 E0.01552
G1 X119.691 Y98.257 E0.01552
G1 X120.156 Y98.426 E0.01552
G1 X120.608 Y98.628 E0.01552
G1 X121.045 Y98.860 E0.01552
G1 X121.465 Y99.122 E0.01552
G1 X121.865 Y99.413 E0.01552
G1 X122.244 Y99.731 E0.01552
G1 X122.600 Y100.075 E0.01552
G1 X122.931 Y100.443 E0.01552
G1 X123.236 Y100.833 E0.01552
G1 X123.512 Y101.243 E0.01552
G1 X123.760 Y101.672 E0.01552
G1 X123.977 Y102.116 E0.01552
G1 X124.162 Y102.575 E0.01552
G1 X124.315 Y103.046 E0.01552
G1 X124.435 Y103.526 E0.01552
G1 X124.521 Y104.013 E0.01552
G1 X124.572 Y104.505 E0.01552
G1 X124.590 Y104.997 E0.01541
G1 X124.572 Y105.495 E0.01563
G1 X124.521 Y105.987 E0.01551
G1 X124.435 Y106.474 E0.01552
G1 X124.315 Y106.954 E0.01552
G1 X124.162 Y107.425 E0.01552
G1 X123.977 Y107.884 E0.01552
G1 X123.760 Y108.328 E0.01552
G1 X123.512 Y108.757 E0.01552
G1 X123.236 Y109.167 E0.01552
G1 X122.931 Y109.557 E0.01552
G1 X122.600 Y109.925 E0.01552
G1 X122.244 Y110.269 E0.01552
G1 X121.865 Y110.587 E0.01552
G1 X121.465 Y110.878 E0.01552
G1 X121.045 Y111.140 E0.01552
G1 X120.608 Y111.372 E0.01552
G1 X120.156 Y111.574 E0.01552
G1 X119.691 Y111.743 E0.01552
G1 X119.215 Y111.879 E0.01552
G1 X118.731 Y111.982 E0.01552
G1 X118.241 Y112.051 E0.01552
G1 X117.747 Y112.085 E0.01552
G1 X117.253 Y112.085 E0.01552
G1 X116.759 Y112.051 E0.01552
G1 X116.269 Y111.982 E0.01552
G1 X115.785 Y111.879 E0.01552
G1 X115.309 Y111.743 E0.01552
G1 X114.844 Y111.574 E0.01552
G1 X114.392 Y111.372 E0.01552
G1 X113.955 Y111.140 E0.01552
G1 X113.535 Y110.878 E0.01552
G1 X113.135 Y110.587 E0.01552
G1 X112.756 Y110.269 E0.01552
G1 X112.400 Y109.925 E0.01552
G1 X112.069 Y109.557 E0.01552
G1 X111.764 Y109.167 E0.01552
G1 X111.488 Y108.757 E0.01552
G1 X111.240 Y108.328 E0.01552
G1 X111.023 Y107.884 E0.01552
G1 X110.838 Y107.425 E0.01552
G1 X110.685 Y106.954 E0.01552
G1 X110.565 Y106.474 E0.01552
G1 X110.479 Y105.987 E0.01552
G1 X110.428 Y105.495 E0.01552
G1 X110.410 Y105.003 E0.01541
G1 X110.428 Y104.505 E0.01562
G1 X110.479 Y104.013 E0.01551
G1 X110.565 Y103.526 E0.01552
G1 X110.685 Y103.046 E0.01552
G1 X110.838 Y102.575 E0.01552
G1 X111.023 Y102.116 E0.01552
G1 X111.239 Y101.675 E0.01541
G1 X111.488 Y101.243 E0.01562
G1 X111.764 Y100.833 E0.01551
G1 X112.157 Y100.345 E0.01965
G1 X112.495 Y100.354 F10800.000
G1 F8640.000
G1 X112.400 Y100.075 E-0.08376
G1 X112.756 Y99.731 E-0.11426
G1 X113.135 Y99.413 E-0.11426
G1 X113.535 Y99.122 E-0.11426
G1 X113.955 Y98.860 E-0.11426
G1 X114.392 Y98.628 E-0.11427
G1 X114.807 Y98.443 E-0.10492
G1 E-0.04000 F2100.00000
G1 Z0.800 F10800.000
G1 X114.270 Y106.048
G1 Z0.200
G1 E0.80000 F2100.00000
G1 F1200.000
G1 X111.352 Y103.130 E0.12977
G1 X111.487 Y102.730 E0.01326
G1 X113.936 Y105.179 E0.10891
G1 X113.948 Y104.657 E0.01644
G1 X111.643 Y102.351 E0.10250
G1 X111.818 Y101.992 E0.01257
G1 X114.023 Y104.197 E0.09804
G1 X114.142 Y103.781 E0.01359
G1 X112.013 Y101.652 E0.09467
G1 X112.225 Y101.329 E0.01214
G1 X114.307 Y103.411 E0.09256
G1 X114.499 Y103.068 E0.01235
G1 X112.453 Y101.023 E0.09096
G1 X112.697 Y100.732 E0.01194
G1 X114.724 Y102.759 E0.09013
G1 X114.977 Y102.477 E0.01191
G1 X112.956 Y100.456 E0.08986
G1 X113.230 Y100.195 E0.01189
G1 X115.258 Y102.223 E0.09018
G1 X115.569 Y101.999 E0.01204
G1 X113.521 Y99.951 E0.09106
G1 X113.829 Y99.725 E0.01203
G1 X115.913 Y101.809 E0.09268
G1 X116.286 Y101.648 E0.01278
G1 X114.153 Y99.514 E0.09485
G1 X114.494 Y99.321 E0.01233
G1 X116.696 Y101.523 E0.09791
G1 X117.161 Y101.453 E0.01477
G1 X114.853 Y99.145 E0.10261
G1 X115.231 Y98.988 E0.01286
G1 X117.679 Y101.436 E0.10884
G1 X118.105 Y101.481 E0.01348
G1 X118.300 Y101.522 E0.00626
G1 X115.633 Y98.855 E0.11859
G1 X116.057 Y98.744 E0.01377
G1 X123.761 Y106.448 E0.34258
G1 X123.848 Y106.001 E0.01434
G1 X116.507 Y98.659 E0.32643
G1 X116.977 Y98.595 E0.01493
G1 X123.906 Y105.524 E0.30807
G1 X123.929 Y105.012 E0.01611
G1 X117.491 Y98.575 E0.28623
G1 X118.049 Y98.597 E0.01754
G1 X123.903 Y104.452 E0.26032
G1 X123.819 Y103.832 E0.01965
G1 X118.665 Y98.678 E0.22917
G1 X119.055 Y98.762 E0.01255
G1 X119.374 Y98.853 E0.01042
G1 X123.647 Y103.126 E0.19002
G1 X123.542 Y102.801 E0.01076
G1 X123.310 Y102.254 E0.01868
G1 X120.244 Y99.188 E0.13632
G1 X120.715 Y99.432 E0.01667
G1 X121.095 Y99.670 E0.01411
G1 X121.458 Y99.934 E0.01411
G1 X121.802 Y100.222 E0.01411
G1 X123.101 Y101.510 E0.05750
G1 F8640.000
G1 X121.802 Y100.222 E-0.42230
G1 X121.458 Y99.934 E-0.10362
G1 X121.095 Y99.670 E-0.10362
G1 X120.715 Y99.432 E-0.10362
G1 X120.612 Y99.378 E-0.02684
G1 E-0.04000 F2100.00000
G1 Z0.800 F10800.000
G1 X123.783 Y107.005
G1 Z0.200
G1 E0.80000 F2100.00000
G1 F1200.000
G1 X120.978 Y104.200 E0.12475
G1 X121.064 Y104.821 E0.01971
G1 X123.513 Y107.270 E0.10890
G1 X123.357 Y107.649 E0.01288
G1 X121.052 Y105.344 E0.10250
G1 X120.977 Y105.803 E0.01464
G1 X123.182 Y108.008 E0.09805
G1 X122.987 Y108.348 E0.01231
G1 X120.858 Y106.219 E0.09467
G1 X120.693 Y106.589 E0.01274
