; generated by PrusaSlicer 2.1.1 on 2020-09-26 at 06:15:23 UTC

; 

; external perimeters extrusion width = 0.45mm
; perimeters extrusion width = 0.45mm
; infill extrusion width = 0.45mm
; solid infill extrusion width = 0.45mm
; top infill extrusion width = 0.40mm
; support material extrusion width = 0.35mm
; first layer extrusion width = 0.42mm

M73 P0 R138
M73 Q0 S138
M201 X1000 Y1000 Z200 E5000 ; sets maximum accelerations, mm/sec^2
M203 X200 Y200 Z12 E120 ; sets maximum feedrates, mm/sec
M204 P1250 R1250 T1250 ; sets acceleration (P, T) and retract acceleration (R), mm/sec^2
M205 X8.00 Y8.00 Z0.40 E4.50 ; sets the jerk limits, mm/sec
M205 S0 T0 ; sets the minimum extruding and travel feed rate, mm/sec
M107
M862.3 P "MK3S" ; printer model check
M862.1 P0.4 ; nozzle diameter check
M115 U3.9.0 ; tell printer latest fw version
G90 ; use absolute coordinates
M83 ; extruder relative mode
M104 S230 ; set extruder temp
M140 S85 ; set bed temp
M190 S85 ; wait for bed temp
M109 S230 ; wait for extruder temp
G28 W ; home all without mesh bed level
G80 ; mesh bed leveling
G1 Y-3.0 F1000.0 ; go outside print area
G92 E0.0
G1 X60.0 E9.0 F1000.0 ; intro line
M73 Q0 S138
M73 P0 R138
G1 X100.0 E12.5 F1000.0 ; intro line
G92 E0.0
M221 S95
G21 ; set units to millimeters
G90 ; use absolute coordinates
M83 ; use relative distances for extrusion
M900 K0.12 ; Filament gcode LA 1.5
M900 K45 ; Filament gcode LA 1.0
;BEFORE_LAYER_CHANGE
G92 E0.0
;0.2


G1 E-1.40000 F2100.00000
G1 Z0.200 F10800.000
;AFTER_LAYER_CHANGE
;0.2
G1 Z0.400
G1 X111.484 Y80.874
G1 Z0.200
G1 E1.40000 F2100.00000
M204 S1000
G1 F1200
G1 X112.842 Y80.678 E0.04304
G1 X137.372 Y80.678 E0.76911
G1 X138.570 Y80.823 E0.03784
G1 X139.705 Y81.248 E0.03801
G1 X140.708 Y81.929 E0.03801
G1 X141.521 Y82.828 E0.03801
G1 X146.526 Y90.388 E0.28428
G1 X148.412 Y95.723 E0.17740
G1 X148.622 Y96.577 E0.02758
G1 X148.682 Y97.337 E0.02392
G1 X148.682 Y112.739 E0.48292
G1 X148.617 Y113.550 E0.02549
G1 X148.291 Y114.695 E0.03732
G1 X144.144 Y124.295 E0.32790
G1 X143.686 Y124.987 E0.02601
G1 X143.122 Y125.595 E0.02601
G1 X139.819 Y128.261 E0.13309
G1 X138.702 Y128.882 E0.04009
G1 X137.465 Y129.206 E0.04009
G1 X130.825 Y129.419 E0.20830
G1 X117.838 Y129.418 E0.40717
G1 X112.834 Y129.215 E0.15703
G1 X111.871 Y129.007 E0.03089
G1 X110.967 Y128.617 E0.03089
G1 X110.284 Y128.165 E0.02566
G1 X107.291 Y125.739 E0.12080
G1 X106.426 Y124.805 E0.03992
G1 X99.220 Y112.980 E0.43416
G1 X98.849 Y112.195 E0.02723
G1 X98.617 Y111.358 E0.02723
G1 X98.531 Y110.466 E0.02810
G1 X98.530 Y101.966 E0.26652
G1 X98.677 Y100.779 E0.03749
G1 X99.042 Y99.769 E0.03367
G1 X103.788 Y90.267 E0.33304
G1 X106.929 Y85.260 E0.18531
G1 X108.947 Y82.541 E0.10615
G1 X109.477 Y81.985 E0.02410
G1 X110.086 Y81.516 E0.02410
G1 X110.763 Y81.141 E0.02427
G1 X111.427 Y80.895 E0.02221
G1 F8640
G1 X112.842 Y80.678 E-0.33050
G1 X117.171 Y80.678 E-0.99950
G1 E-0.07000 F2100.00000
G1 Z0.400 F10800.000
G1 X146.181 Y116.802
G1 Z0.200
G1 E1.40000 F2100.00000
G1 F1200
G1 X146.100 Y118.451 E0.05176
G1 X145.786 Y119.293 E0.02817
G1 X145.337 Y120.063 E0.02795
G1 X144.582 Y120.849 E0.03416
G1 X144.554 Y122.546 E0.05321
G1 X144.265 Y123.624 E0.03499
G1 X143.895 Y124.402 E0.02700
G1 X142.735 Y125.697 E0.05454
G1 X141.894 Y126.239 E0.03136
G1 X141.070 Y126.539 E0.02751
G1 X140.752 Y127.096 E0.02011
G1 X139.949 Y127.943 E0.03662
G1 X138.755 Y128.676 E0.04393
G1 X137.204 Y129.061 E0.05008
G1 X131.208 Y129.061 E0.18802
G1 X130.603 Y129.036 E0.01898
G1 X130.363 Y129.061 E0.00755
G1 X118.387 Y129.061 E0.37551
G1 X117.782 Y129.036 E0.01898
G1 X117.543 Y129.061 E0.00755
G1 X113.087 Y129.061 E0.13969
G1 X112.229 Y128.941 E0.02716
G1 X110.490 Y128.109 E0.06046
G1 X109.556 Y127.197 E0.04093
G1 X109.164 Y126.531 E0.02423
G1 X108.252 Y126.188 E0.03054
G1 X107.436 Y125.632 E0.03096
G1 X106.678 Y124.846 E0.03425
G1 X106.151 Y124.021 E0.03069
G1 X105.708 Y122.612 E0.04631
G1 X105.669 Y120.879 E0.05434
G1 X104.879 Y120.040 E0.03614
G1 X104.188 Y118.628 E0.04929
G1 X104.006 Y117.639 E0.03152
G1 X103.999 Y117.104 E0.01678
G1 X103.026 Y116.538 E0.03528
G1 X102.066 Y115.614 E0.04180
G1 X101.572 Y114.765 E0.03079
G1 X100.594 Y114.219 E0.03512
G1 X99.812 Y113.470 E0.03394
G1 X99.188 Y112.553 E0.03478
G1 X98.719 Y110.942 E0.05260
G1 X98.719 Y101.660 E0.29104
G1 X98.835 Y100.812 E0.02683
G1 X99.604 Y99.154 E0.05731
G1 X100.714 Y98.026 E0.04962
G1 X101.778 Y97.453 E0.03789
G1 X101.814 Y96.384 E0.03353
G1 X102.164 Y95.304 E0.03561
G1 X102.793 Y94.295 E0.03727
G1 X103.345 Y93.749 E0.02435
G1 X103.351 Y92.279 E0.04611
G1 X103.699 Y90.844 E0.04629
G1 X104.334 Y89.741 E0.03991
G1 X105.225 Y88.838 E0.03975
G1 X106.265 Y88.263 E0.03727
G1 X106.283 Y87.502 E0.02385
G1 X106.644 Y86.138 E0.04424
G1 X107.363 Y84.960 E0.04327
G1 X108.113 Y84.225 E0.03292
G1 X108.280 Y84.111 E0.00634
G1 X108.507 Y83.513 E0.02008
G1 X108.968 Y82.791 E0.02684
G1 X109.977 Y81.798 E0.04439
G1 X111.111 Y81.183 E0.04043
G1 X112.429 Y80.867 E0.04251
G1 X137.989 Y80.892 E0.80142
G1 X138.973 Y81.115 E0.03163
G1 X139.855 Y81.510 E0.03031
G1 X141.558 Y83.172 E0.07461
G1 X141.947 Y83.986 E0.02827
G1 X142.236 Y85.064 E0.03501
G1 X142.264 Y86.700 E0.05131
G1 X142.945 Y87.381 E0.03018
G1 X143.337 Y88.003 E0.02306
G1 X143.661 Y88.090 E0.01052
G1 X144.842 Y88.705 E0.04175
G1 X146.136 Y90.043 E0.05838
G1 X146.582 Y90.935 E0.03126
G1 X146.863 Y91.960 E0.03331
G1 X146.898 Y93.777 E0.05698
G1 X147.636 Y94.560 E0.03374
G1 X148.393 Y96.233 E0.05758
G1 X148.493 Y97.026 E0.02505
G1 X148.493 Y113.138 E0.50518
G1 X148.398 Y113.877 E0.02336
G1 X147.501 Y115.678 E0.06309
G1 X146.527 Y116.604 E0.04213
G1 X146.233 Y116.773 E0.01065
G1 X145.812 Y116.572 F10800.000
G1 F1200
G1 X145.736 Y118.349 E0.05578
G1 X145.452 Y119.118 E0.02569
G1 X145.023 Y119.853 E0.02669
G1 X144.207 Y120.694 E0.03674
G1 X144.183 Y122.471 E0.05574
G1 X143.905 Y123.509 E0.03368
G1 X143.567 Y124.214 E0.02452
G1 X142.509 Y125.394 E0.04969
G1 X141.709 Y125.910 E0.02987
G1 X140.809 Y126.231 E0.02996
G1 X140.461 Y126.854 E0.02237
G1 X139.692 Y127.665 E0.03505
G1 X138.584 Y128.339 E0.04067
G1 X137.182 Y128.684 E0.04528
G1 X131.212 Y128.684 E0.18719
G1 X130.590 Y128.658 E0.01952
G1 X130.353 Y128.684 E0.00748
G1 X118.391 Y128.684 E0.37504
G1 X117.769 Y128.658 E0.01952
G1 X117.532 Y128.684 E0.00748
G1 X113.101 Y128.684 E0.13893
G1 X112.311 Y128.572 E0.02502
G1 X110.731 Y127.818 E0.05489
G1 X109.839 Y126.946 E0.03911
G1 X109.423 Y126.224 E0.02610
G1 X108.445 Y125.863 E0.03270
G1 X107.665 Y125.332 E0.02959
G1 X106.963 Y124.598 E0.03183
G1 X106.503 Y123.883 E0.02666
G1 X106.076 Y122.525 E0.04465
G1 X106.044 Y120.724 E0.05646
G1 X105.204 Y119.848 E0.03806
G1 X104.539 Y118.487 E0.04750
G1 X104.380 Y117.590 E0.02853
G1 X104.375 Y116.822 E0.02410
G1 X104.103 Y116.729 E0.00900
G1 X103.271 Y116.250 E0.03011
G1 X102.347 Y115.361 E0.04019
G1 X101.848 Y114.485 E0.03162
G1 X100.837 Y113.929 E0.03618
G1 X100.088 Y113.212 E0.03251
G1 X99.517 Y112.367 E0.03198
G1 X99.096 Y110.916 E0.04738
G1 X99.096 Y101.673 E0.28979
G1 X99.205 Y100.892 E0.02474
G1 X99.896 Y99.395 E0.05169
G1 X100.962 Y98.312 E0.04766
G1 X102.150 Y97.684 E0.04215
G1 X102.181 Y96.474 E0.03794
G1 X102.516 Y95.443 E0.03398
G1 X103.099 Y94.515 E0.03436
G1 X103.722 Y93.909 E0.02727
G1 X103.722 Y92.345 E0.04903
G1 X104.059 Y90.960 E0.04469
G1 X104.647 Y89.953 E0.03658
G1 X105.472 Y89.125 E0.03664
G1 X106.639 Y88.489 E0.04167
G1 X106.654 Y87.574 E0.02871
G1 X106.981 Y86.309 E0.04096
G1 X107.644 Y85.212 E0.04017
G1 X108.361 Y84.509 E0.03150
G1 X108.589 Y84.362 E0.00851
G1 X108.836 Y83.698 E0.02219
G1 X109.274 Y83.013 E0.02551
G1 X110.222 Y82.087 E0.04154
G1 X111.224 Y81.543 E0.03574
G1 X112.452 Y81.244 E0.03964
G1 X137.927 Y81.264 E0.79877
G1 X138.836 Y81.468 E0.02920
G1 X139.671 Y81.841 E0.02866
G1 X141.233 Y83.365 E0.06845
G1 X141.587 Y84.100 E0.02558
G1 X141.865 Y85.139 E0.03370
G1 X141.889 Y86.858 E0.05393
G1 X142.662 Y87.632 E0.03430
G1 X143.098 Y88.332 E0.02587
G1 X143.511 Y88.436 E0.01335
G1 X144.595 Y88.991 E0.03818
G1 X145.813 Y90.240 E0.05471
G1 X146.224 Y91.053 E0.02857
G1 X146.493 Y92.036 E0.03196
G1 X146.523 Y93.932 E0.05945
G1 X147.307 Y94.747 E0.03546
G1 X148.023 Y96.310 E0.05389
G1 X148.116 Y97.038 E0.02301
G1 X148.116 Y113.125 E0.50441
G1 X148.028 Y113.796 E0.02123
G1 X147.218 Y115.427 E0.05711
G1 X146.287 Y116.312 E0.04027
G1 X145.865 Y116.543 E0.01507
G1 X145.443 Y116.338 F10800.000
G1 F1200
G1 X145.372 Y118.247 E0.05989
G1 X145.104 Y118.971 E0.02420
G1 X144.710 Y119.641 E0.02438
G1 X143.831 Y120.538 E0.03937
G1 X143.813 Y122.397 E0.05830
G1 X143.546 Y123.394 E0.03235
G1 X143.240 Y124.025 E0.02201
G1 X142.284 Y125.091 E0.04487
G1 X141.524 Y125.581 E0.02836
G1 X140.546 Y125.923 E0.03246
G1 X140.170 Y126.613 E0.02465
G1 X139.437 Y127.387 E0.03343
G1 X138.415 Y128.001 E0.03737
G1 X137.159 Y128.307 E0.04052
G1 X131.216 Y128.307 E0.18636
G1 X130.576 Y128.280 E0.02009
G1 X130.341 Y128.307 E0.00740
G1 X118.395 Y128.307 E0.37456
G1 X117.755 Y128.280 E0.02009
G1 X117.521 Y128.307 E0.00740
G1 X113.115 Y128.307 E0.13815
G1 X112.393 Y128.203 E0.02286
G1 X110.972 Y127.526 E0.04934
G1 X110.122 Y126.695 E0.03727
G1 X109.684 Y125.917 E0.02800
G1 X108.636 Y125.537 E0.03497
G1 X107.923 Y125.056 E0.02694
G1 X107.248 Y124.350 E0.03064
G1 X106.855 Y123.745 E0.02261
G1 X106.444 Y122.438 E0.04296
G1 X106.419 Y120.568 E0.05863
G1 X105.529 Y119.654 E0.03999
G1 X104.890 Y118.346 E0.04566
G1 X104.754 Y117.544 E0.02550
G1 X104.752 Y116.542 E0.03142
G1 X104.270 Y116.390 E0.01585
G1 X103.515 Y115.962 E0.02720
G1 X102.629 Y115.110 E0.03853
G1 X102.124 Y114.206 E0.03247
G1 X101.079 Y113.639 E0.03727
G1 X100.364 Y112.954 E0.03105
G1 X99.847 Y112.182 E0.02914
G1 X99.473 Y110.889 E0.04219
G1 X99.473 Y101.687 E0.28853
G1 X99.574 Y100.972 E0.02264
G1 X100.187 Y99.636 E0.04608
G1 X101.209 Y98.598 E0.04567
G1 X102.247 Y98.059 E0.03666
G1 X102.523 Y97.983 E0.00898
G1 X102.549 Y96.563 E0.04453
G1 X102.867 Y95.583 E0.03232
G1 X103.404 Y94.738 E0.03140
G1 X104.100 Y94.070 E0.03021
G1 X104.100 Y92.367 E0.05340
G1 X104.398 Y91.126 E0.04003
G1 X104.960 Y90.164 E0.03493
G1 X105.717 Y89.412 E0.03346
G1 X107.015 Y88.716 E0.04616
G1 X107.025 Y87.643 E0.03365
G1 X107.319 Y86.478 E0.03768
G1 X107.925 Y85.464 E0.03702
G1 X108.609 Y84.794 E0.03002
G1 X108.899 Y84.615 E0.01068
G1 X109.165 Y83.883 E0.02442
G1 X109.580 Y83.234 E0.02415
G1 X110.465 Y82.375 E0.03867
G1 X111.338 Y81.903 E0.03111
G1 X112.475 Y81.621 E0.03674
G1 X137.867 Y81.637 E0.79614
G1 X138.700 Y81.820 E0.02676
G1 X139.486 Y82.171 E0.02699
G1 X140.909 Y83.560 E0.06233
G1 X141.228 Y84.216 E0.02287
G1 X141.495 Y85.213 E0.03236
G1 X141.513 Y87.016 E0.05654
G1 X142.380 Y87.882 E0.03842
G1 X142.858 Y88.665 E0.02876
G1 X143.360 Y88.783 E0.01618
G1 X144.395 Y89.313 E0.03645
G1 X145.491 Y90.437 E0.04920
G1 X145.865 Y91.172 E0.02587
G1 X146.123 Y92.112 E0.03058
G1 X146.147 Y94.089 E0.06199
G1 X146.979 Y94.936 E0.03723
G1 X147.653 Y96.388 E0.05017
G1 X147.739 Y97.050 E0.02095
G1 X147.739 Y113.113 E0.50362
G1 X147.659 Y113.716 E0.01908
G1 X146.934 Y115.177 E0.05114
G1 X146.047 Y116.020 E0.03837
G1 X145.496 Y116.310 E0.01951
G1 F8640
G1 X145.372 Y118.247 E-0.44810
G1 X145.104 Y118.971 E-0.17820
G1 X144.710 Y119.641 E-0.17957
G1 X143.831 Y120.538 E-0.28995
G1 X143.821 Y121.552 E-0.23418
G1 E-0.07000 F2100.00000
G1 Z0.400 F10800.000
G1 X141.137 Y87.248
G1 Z0.200
G1 E1.40000 F2100.00000
G1 F1200
G1 X141.348 Y87.380 E0.00780
G1 X142.096 Y88.132 E0.03325
G1 X142.503 Y88.806 E0.02469
G1 X142.572 Y88.988 E0.00611
G1 X143.211 Y89.130 E0.02054
G1 X144.196 Y89.634 E0.03469
G1 X145.168 Y90.634 E0.04374
G1 X145.507 Y91.291 E0.02315
G1 X145.753 Y92.188 E0.02917
G1 X145.772 Y94.248 E0.06458
G1 X146.653 Y95.128 E0.03905
G1 X147.283 Y96.467 E0.04641
G1 X147.362 Y97.063 E0.01885
G1 X147.362 Y113.100 E0.50282
G1 X147.289 Y113.634 E0.01693
G1 X146.650 Y114.926 E0.04520
G1 X145.808 Y115.727 E0.03644
G1 X145.073 Y116.102 E0.02587
G1 X145.007 Y118.145 E0.06408
G1 X144.757 Y118.824 E0.02268
G1 X144.398 Y119.428 E0.02204
G1 X143.616 Y120.219 E0.03488
G1 X143.455 Y120.333 E0.00617
G1 X143.442 Y122.323 E0.06241
G1 X143.186 Y123.278 E0.03099
G1 X142.913 Y123.835 E0.01947
G1 X142.058 Y124.787 E0.04010
G1 X141.339 Y125.251 E0.02684
G1 X140.474 Y125.548 E0.02867
G1 X140.305 Y125.573 E0.00537
G1 X139.878 Y126.373 E0.02842
G1 X139.181 Y127.108 E0.03177
G1 X138.248 Y127.662 E0.03404
G1 X137.137 Y127.930 E0.03581
G1 X131.220 Y127.930 E0.18554
G1 X130.560 Y127.902 E0.02070
G1 X130.329 Y127.930 E0.00729
G1 X118.399 Y127.930 E0.37406
G1 X117.739 Y127.902 E0.02070
G1 X117.509 Y127.930 E0.00729
G1 X113.129 Y127.930 E0.13733
G1 X112.476 Y127.834 E0.02069
G1 X111.213 Y127.235 E0.04381
G1 X110.406 Y126.446 E0.03538
G1 X109.925 Y125.572 E0.03130
G1 X109.768 Y125.547 E0.00497
G1 X108.825 Y125.210 E0.03141
G1 X108.180 Y124.780 E0.02430
G1 X107.552 Y124.127 E0.02841
G1 X107.207 Y123.606 E0.01960
G1 X106.812 Y122.352 E0.04121
G1 X106.794 Y120.335 E0.06325
G1 X106.565 Y120.188 E0.00854
G1 X105.855 Y119.461 E0.03185
G1 X105.241 Y118.206 E0.04380
G1 X105.129 Y117.501 E0.02240
G1 X105.129 Y116.261 E0.03888
G1 X104.434 Y116.050 E0.02278
G1 X103.758 Y115.673 E0.02426
G1 X102.912 Y114.858 E0.03683
G1 X102.370 Y113.870 E0.03535
G1 X102.161 Y113.808 E0.00683
G1 X101.322 Y113.350 E0.02999
G1 X100.639 Y112.696 E0.02965
G1 X100.200 Y112.046 E0.02457
G1 X99.850 Y110.862 E0.03873
G1 X99.850 Y101.699 E0.28730
G1 X99.930 Y101.100 E0.01893
G1 X100.481 Y99.874 E0.04215
G1 X101.411 Y98.919 E0.04179
G1 X102.398 Y98.406 E0.03487
G1 X102.895 Y98.287 E0.01603
G1 X102.925 Y96.599 E0.05291
G1 X103.217 Y95.726 E0.02888
G1 X103.709 Y94.962 E0.02849
G1 X104.477 Y94.233 E0.03320
G1 X104.477 Y92.389 E0.05781
G1 X104.739 Y91.290 E0.03543
G1 X105.244 Y90.414 E0.03172
G1 X105.963 Y89.699 E0.03178
G1 X107.021 Y89.136 E0.03758
G1 X107.391 Y89.049 E0.01191
G1 X107.397 Y87.710 E0.04198
G1 X107.658 Y86.645 E0.03440
G1 X108.207 Y85.716 E0.03382
G1 X108.856 Y85.081 E0.02847
G1 X109.208 Y84.871 E0.01285
G1 X109.495 Y84.068 E0.02674
G1 X109.886 Y83.455 E0.02278
G1 X110.669 Y82.693 E0.03427
G1 X111.455 Y82.263 E0.02809
G1 X112.499 Y81.998 E0.03377
G1 X137.806 Y82.010 E0.79348
G1 X138.600 Y82.184 E0.02548
G1 X139.300 Y82.501 E0.02411
G1 X140.585 Y83.756 E0.05630
G1 X140.869 Y84.332 E0.02013
G1 X141.124 Y85.287 E0.03100
G1 X141.137 Y87.188 E0.05960
G1 X140.760 Y87.471 F10800.000
G1 F1200
G1 X141.101 Y87.667 E0.01232
G1 X141.812 Y88.381 E0.03159
G1 X142.166 Y88.977 E0.02176
G1 X142.279 Y89.313 E0.01111
G1 X143.063 Y89.478 E0.02512
G1 X143.997 Y89.956 E0.03289
G1 X144.847 Y90.833 E0.03832
G1 X145.149 Y91.410 E0.02041
G1 X145.382 Y92.263 E0.02774
G1 X145.396 Y94.474 E0.06931
G1 X145.631 Y94.630 E0.00886
G1 X146.327 Y95.320 E0.03074
G1 X146.913 Y96.548 E0.04265
G1 X146.985 Y97.076 E0.01671
G1 X146.985 Y113.086 E0.50199
G1 X146.920 Y113.552 E0.01476
G1 X146.366 Y114.676 E0.03929
G1 X145.569 Y115.433 E0.03447
G1 X144.702 Y115.864 E0.03037
G1 X144.643 Y118.046 E0.06841
G1 X144.423 Y118.647 E0.02006
G1 X144.086 Y119.215 E0.02072
G1 X143.365 Y119.936 E0.03198
G1 X143.078 Y120.126 E0.01078
G1 X143.071 Y122.250 E0.06660
G1 X142.827 Y123.162 E0.02961
G1 X142.587 Y123.644 E0.01690
G1 X141.831 Y124.486 E0.03546
G1 X141.194 Y124.902 E0.02388
G1 X140.380 Y125.182 E0.02699
G1 X140.069 Y125.207 E0.00976
G1 X139.586 Y126.133 E0.03275
G1 X138.927 Y126.829 E0.03006
G1 X138.082 Y127.322 E0.03066
G1 X137.115 Y127.553 E0.03116
G1 X131.236 Y127.553 E0.18434
G1 X131.045 Y127.532 E0.00602
G1 X130.535 Y127.524 E0.01599
G1 X130.317 Y127.553 E0.00692
G1 X118.416 Y127.553 E0.37315
G1 X118.225 Y127.532 E0.00602
G1 X117.715 Y127.524 E0.01599
G1 X117.496 Y127.553 E0.00692
G1 X113.143 Y127.553 E0.13648
G1 X112.559 Y127.465 E0.01851
G1 X111.454 Y126.943 E0.03831
G1 X110.691 Y126.197 E0.03347
G1 X110.157 Y125.206 E0.03528
G1 X109.864 Y125.181 E0.00923
G1 X109.012 Y124.881 E0.02831
G1 X108.436 Y124.502 E0.02162
G1 X107.854 Y123.900 E0.02626
G1 X107.558 Y123.465 E0.01650
G1 X107.180 Y122.266 E0.03940
G1 X107.171 Y120.116 E0.06743
G1 X106.815 Y119.904 E0.01298
G1 X106.147 Y119.220 E0.02999
