; generated by PrusaSlicer 2.1.1 on 2020-09-26 at 08:59:07 UTC

; 

; external perimeters extrusion width = 0.45mm
; perimeters extrusion width = 0.45mm
; infill extrusion width = 0.45mm
; solid infill extrusion width = 0.45mm
; top infill extrusion width = 0.40mm
; first layer extrusion width = 0.42mm

M73 P0 R6
M73 Q0 S6
M201 X1000 Y1000 Z200 E5000 ; sets maximum accelerations, mm/sec^2
M203 X200 Y200 Z12 E120 ; sets maximum feedrates, mm/sec
M204 P1250 R1250 T1250 ; sets acceleration (P, T) and retract acceleration (R), mm/sec^2
M205 X8.00 Y8.00 Z0.40 E4.50 ; sets the jerk limits, mm/sec
M205 S0 T0 ; sets the minimum extruding and travel feed rate, mm/sec
M107
M862.3 P "MK3S" ; printer model check
M862.1 P0.4 ; nozzle diameter check
M115 U3.9.0 ; tell printer latest fw version
G90 ; use absolute coordinates
M83 ; extruder relative mode
M104 S230 ; set extruder temp
M140 S85 ; set bed temp
M190 S85 ; wait for bed temp
M109 S230 ; wait for extruder temp
G28 W ; home all without mesh bed level
G80 ; mesh bed leveling
G1 Y-3.0 F1000.0 ; go outside print area
G92 E0.0
G1 X60.0 E9.0 F1000.0 ; intro line
M73 Q1 S6
M73 P1 R6
G1 X100.0 E12.5 F1000.0 ; intro line
G92 E0.0
M221 S95
G21 ; set units to millimeters
G90 ; use absolute coordinates
M83 ; use relative distances for extrusion
M900 K0.12 ; Filament gcode LA 1.5
M900 K45 ; Filament gcode LA 1.0
;BEFORE_LAYER_CHANGE
G92 E0.0
;0.2


G1 E-1.40000 F2100.00000
G1 Z0.200 F10800.000
;AFTER_LAYER_CHANGE
;0.2
G1 Z0.400
G1 X22.095 Y25.303
G1 Z0.200
G1 E1.40000 F2100.00000
M204 S1000
G1 F900
G1 X23.331 Y24.648 E0.04386
G1 X24.679 Y24.259 E0.04399
G1 X26.015 Y24.153 E0.04203
G1 X27.180 Y24.275 E0.03672
G1 X28.523 Y24.681 E0.04400
G1 X29.718 Y25.327 E0.04259
G1 X30.789 Y26.227 E0.04386
G1 X31.654 Y27.329 E0.04391
G1 X32.262 Y28.545 E0.04264
G1 X32.579 Y29.654 E0.03617
G1 X32.707 Y31.042 E0.04368
G1 X32.558 Y32.392 E0.04259
G1 X32.126 Y33.727 E0.04399
G1 X31.425 Y34.951 E0.04423
G1 X30.530 Y35.965 E0.04242
G1 X29.611 Y36.684 E0.03659
G1 X28.367 Y37.323 E0.04386
G1 X27.063 Y37.688 E0.04245
G1 X25.685 Y37.787 E0.04330
G1 X24.334 Y37.610 E0.04274
G1 X23.233 Y37.251 E0.03630
G1 X22.052 Y36.608 E0.04217
G1 X20.976 Y35.700 E0.04414
G1 X20.120 Y34.608 E0.04349
G1 X19.514 Y33.392 E0.04261
G1 X19.155 Y32.045 E0.04369
G1 X19.070 Y30.892 E0.03626
G1 X19.217 Y29.557 E0.04211
G1 X19.627 Y28.270 E0.04235
G1 X20.308 Y27.052 E0.04377
G1 X21.059 Y26.157 E0.03663
G1 X22.048 Y25.341 E0.04021
G1 X22.287 Y25.631 F10800.000
G1 F900
G1 X23.474 Y24.997 E0.04219
G1 X24.748 Y24.629 E0.04156
G1 X26.015 Y24.530 E0.03985
G1 X27.102 Y24.644 E0.03427
G1 X28.375 Y25.027 E0.04170
G1 X29.504 Y25.638 E0.04025
G1 X30.519 Y26.491 E0.04157
G1 X31.336 Y27.531 E0.04148
G1 X31.912 Y28.686 E0.04045
G1 X32.250 Y29.961 E0.04137
G1 X32.330 Y31.039 E0.03390
G1 X32.189 Y32.315 E0.04025
G1 X31.780 Y33.576 E0.04157
G1 X31.115 Y34.737 E0.04193
G1 X30.269 Y35.694 E0.04007
G1 X29.410 Y36.364 E0.03414
G1 X28.232 Y36.971 E0.04157
G1 X26.996 Y37.317 E0.04024
G1 X25.694 Y37.410 E0.04091
G1 X24.413 Y37.241 E0.04051
G1 X23.386 Y36.906 E0.03387
G1 X22.266 Y36.298 E0.03998
G1 X21.249 Y35.440 E0.04170
G1 X20.438 Y34.405 E0.04121
G1 X19.864 Y33.252 E0.04041
G1 X19.526 Y31.975 E0.04140
G1 X19.447 Y30.898 E0.03385
G1 X19.585 Y29.638 E0.03977
G1 X19.974 Y28.418 E0.04014
G1 X20.618 Y27.266 E0.04137
G1 X21.321 Y26.428 E0.03432
G1 X22.241 Y25.669 E0.03738
G1 X22.480 Y25.958 F10800.000
G1 F900
G1 X23.614 Y25.347 E0.04039
G1 X24.817 Y25.000 E0.03926
G1 X26.015 Y24.907 E0.03766
G1 X27.025 Y25.013 E0.03185
G1 X28.224 Y25.373 E0.03926
G1 X29.291 Y25.949 E0.03803
G1 X30.247 Y26.752 E0.03914
G1 X31.019 Y27.735 E0.03916
G1 X31.560 Y28.823 E0.03812
G1 X31.879 Y30.027 E0.03906
G1 X31.953 Y31.029 E0.03149
G1 X31.821 Y32.234 E0.03803
G1 X31.436 Y33.422 E0.03914
G1 X30.808 Y34.518 E0.03962
G1 X30.007 Y35.422 E0.03786
G1 X29.209 Y36.045 E0.03173
G1 X28.097 Y36.619 E0.03926
G1 X26.933 Y36.945 E0.03790
G1 X25.699 Y37.033 E0.03877
G1 X24.493 Y36.872 E0.03816
G1 X23.534 Y36.559 E0.03163
G1 X22.479 Y35.987 E0.03763
G1 X21.519 Y35.177 E0.03939
G1 X20.756 Y34.203 E0.03879
G1 X20.215 Y33.115 E0.03808
G1 X19.897 Y31.909 E0.03910
G1 X19.824 Y30.904 E0.03160
G1 X19.955 Y29.714 E0.03755
G1 X20.321 Y28.565 E0.03780
G1 X20.931 Y27.477 E0.03910
G1 X21.584 Y26.698 E0.03190
G1 X22.433 Y25.996 E0.03453
G1 X22.672 Y26.285 F10800.000
G1 F900
G1 X23.758 Y25.696 E0.03872
G1 X24.887 Y25.371 E0.03683
G1 X26.014 Y25.284 E0.03546
G1 X26.948 Y25.382 E0.02945
G1 X28.077 Y25.720 E0.03694
G1 X29.079 Y26.261 E0.03569
G1 X29.978 Y27.016 E0.03683
G1 X30.701 Y27.938 E0.03672
G1 X31.211 Y28.963 E0.03591
G1 X31.508 Y30.093 E0.03663
G1 X31.576 Y31.023 E0.02922
G1 X31.452 Y32.154 E0.03569
G1 X31.090 Y33.272 E0.03683
G1 X30.500 Y34.300 E0.03717
G1 X29.746 Y35.151 E0.03565
G1 X29.008 Y35.726 E0.02934
G1 X27.965 Y36.266 E0.03683
G1 X26.869 Y36.574 E0.03569
G1 X25.708 Y36.656 E0.03649
G1 X24.576 Y36.505 E0.03581
G1 X23.690 Y36.216 E0.02922
G1 X22.695 Y35.678 E0.03546
G1 X21.791 Y34.916 E0.03706
G1 X21.074 Y34.000 E0.03649
G1 X20.565 Y32.975 E0.03587
G1 X20.268 Y31.844 E0.03667
G1 X20.201 Y30.910 E0.02935
G1 X20.323 Y29.793 E0.03522
G1 X20.668 Y28.712 E0.03558
G1 X21.243 Y27.688 E0.03682
G1 X21.848 Y26.967 E0.02950
G1 X22.626 Y26.323 E0.03167
G1 F8640
G1 X23.758 Y25.696 E-0.29879
G1 X24.887 Y25.371 E-0.27121
G1 X26.014 Y25.284 E-0.26116
G1 X26.948 Y25.382 E-0.21688
G1 X28.077 Y25.720 E-0.27206
G1 X28.115 Y25.741 E-0.00990
G1 E-0.07000 F2100.00000
G1 Z0.400 F10800.000
G1 X24.087 Y28.682
G1 Z0.200
G1 E1.40000 F2100.00000
G1 F900
G1 X24.441 Y28.443 E0.01338
G1 X24.603 Y28.357 E0.00573
G1 X24.989 Y28.201 E0.01306
G1 X25.393 Y28.100 E0.01306
G1 X25.574 Y28.075 E0.00573
G1 X25.992 Y28.061 E0.01313
G1 X26.404 Y28.104 E0.01299
G1 X26.593 Y28.144 E0.00605
G1 X26.779 Y28.197 E0.00605
G1 X27.174 Y28.357 E0.01338
G1 X27.336 Y28.443 E0.00573
G1 X27.689 Y28.682 E0.01338
G1 X27.831 Y28.801 E0.00580
G1 X28.119 Y29.099 E0.01299
G1 X28.364 Y29.436 E0.01306
G1 X28.460 Y29.603 E0.00605
G1 X28.545 Y29.776 E0.00605
G1 X28.687 Y30.166 E0.01299
G1 X28.772 Y30.565 E0.01280
G1 X28.801 Y30.980 E0.01305
G1 X28.794 Y31.173 E0.00605
G1 X28.774 Y31.365 E0.00605
G1 X28.685 Y31.783 E0.01338
G1 X28.629 Y31.957 E0.00573
G1 X28.460 Y32.335 E0.01299
G1 X28.238 Y32.690 E0.01313
G1 X28.126 Y32.834 E0.00573
G1 X27.830 Y33.141 E0.01338
G1 X27.689 Y33.259 E0.00573
G1 X27.336 Y33.497 E0.01338
G1 X27.174 Y33.583 E0.00573
G1 X26.788 Y33.739 E0.01306
G1 X26.384 Y33.840 E0.01306
G1 X26.203 Y33.865 E0.00573
G1 X25.787 Y33.880 E0.01306
G1 X25.373 Y33.836 E0.01306
G1 X25.184 Y33.796 E0.00605
G1 X24.998 Y33.743 E0.00605
G1 X24.603 Y33.583 E0.01338
G1 X24.441 Y33.497 E0.00573
G1 X24.088 Y33.259 E0.01338
G1 X23.946 Y33.140 E0.00580
G1 X23.658 Y32.842 E0.01299
G1 X23.413 Y32.505 E0.01306
G1 X23.317 Y32.338 E0.00605
G1 X23.232 Y32.164 E0.00605
G1 X23.090 Y31.775 E0.01299
G1 X23.005 Y31.375 E0.01280
G1 X22.976 Y30.960 E0.01305
G1 X22.983 Y30.767 E0.00605
G1 X23.003 Y30.575 E0.00605
G1 X23.092 Y30.158 E0.01338
G1 X23.148 Y29.984 E0.00573
G1 X23.317 Y29.605 E0.01299
G1 X23.539 Y29.250 E0.01313
G1 X23.651 Y29.106 E0.00573
G1 X24.041 Y28.720 E0.01721
G1 X23.799 Y28.431 F10800.000
G1 F900
G1 X24.247 Y28.119 E0.01711
G1 X24.443 Y28.015 E0.00697
G1 X24.872 Y27.842 E0.01450
G1 X25.321 Y27.730 E0.01450
G1 X25.541 Y27.699 E0.00697
G1 X26.005 Y27.683 E0.01457
G1 X26.463 Y27.731 E0.01444
G1 X26.684 Y27.778 E0.00709
G1 X26.902 Y27.840 E0.00708
G1 X27.334 Y28.015 E0.01462
G1 X27.530 Y28.119 E0.00697
G1 X27.917 Y28.380 E0.01462
G1 X28.089 Y28.524 E0.00704
G1 X28.408 Y28.856 E0.01444
G1 X28.680 Y29.230 E0.01451
G1 X28.793 Y29.426 E0.00708
G1 X28.892 Y29.629 E0.00709
G1 X29.050 Y30.061 E0.01444
G1 X29.146 Y30.512 E0.01446
G1 X29.178 Y30.974 E0.01450
G1 X29.170 Y31.200 E0.00708
G1 X29.147 Y31.424 E0.00708
G1 X29.050 Y31.881 E0.01462
G1 X28.981 Y32.092 E0.00697
G1 X28.794 Y32.513 E0.01444
G1 X28.548 Y32.907 E0.01457
G1 X28.411 Y33.082 E0.00697
G1 X28.087 Y33.417 E0.01462
G1 X27.917 Y33.560 E0.00697
G1 X27.530 Y33.821 E0.01462
G1 X27.334 Y33.925 E0.00697
G1 X26.905 Y34.099 E0.01450
G1 X26.456 Y34.211 E0.01450
G1 X26.236 Y34.242 E0.00697
G1 X25.774 Y34.258 E0.01450
G1 X25.314 Y34.209 E0.01450
G1 X25.093 Y34.162 E0.00708
G1 X24.875 Y34.100 E0.00708
G1 X24.443 Y33.925 E0.01462
G1 X24.247 Y33.821 E0.00697
G1 X23.860 Y33.560 E0.01462
G1 X23.688 Y33.416 E0.00704
G1 X23.369 Y33.085 E0.01444
G1 X23.097 Y32.710 E0.01451
G1 X22.984 Y32.515 E0.00708
G1 X22.885 Y32.312 E0.00709
G1 X22.727 Y31.879 E0.01444
G1 X22.631 Y31.428 E0.01446
G1 X22.599 Y30.967 E0.01450
G1 X22.607 Y30.741 E0.00708
G1 X22.630 Y30.516 E0.00708
G1 X22.727 Y30.060 E0.01462
G1 X22.796 Y29.848 E0.00697
G1 X22.983 Y29.428 E0.01444
G1 X23.229 Y29.034 E0.01457
G1 X23.366 Y28.858 E0.00697
G1 X23.753 Y28.470 E0.01720
G1 X24.172 Y28.576 F10800.000
G1 F8640
G1 X24.247 Y28.119 E-0.13980
G1 X24.443 Y28.015 E-0.05133
G1 X24.872 Y27.842 E-0.10682
G1 X25.321 Y27.730 E-0.10682
G1 X25.541 Y27.699 E-0.05131
G1 X26.005 Y27.683 E-0.10732
G1 X26.463 Y27.731 E-0.10631
G1 X26.684 Y27.778 E-0.05218
G1 X26.902 Y27.840 E-0.05217
G1 X27.334 Y28.015 E-0.10767
G1 X27.530 Y28.119 E-0.05133
G1 X27.917 Y28.380 E-0.10765
G1 X28.089 Y28.524 E-0.05184
G1 X28.408 Y28.856 E-0.10632
G1 X28.680 Y29.230 E-0.10682
G1 X28.733 Y29.321 E-0.02432
G1 E-0.07000 F2100.00000
G1 Z0.400 F10800.000
G1 X27.036 Y28.423
G1 Z0.200
G1 E1.40000 F2100.00000
G1 F900
G1 X28.445 Y29.832 E0.06657
G1 X28.662 Y30.618 F10800.000
G1 F900
G1 X26.452 Y28.407 E0.10446
G1 X25.982 Y28.344 E0.01583
G1 X25.825 Y28.349 E0.00524
G1 X28.513 Y31.037 E0.12704
G1 X28.493 Y31.326 E0.00967
G1 X28.448 Y31.540 E0.00731
G1 X25.318 Y28.411 E0.14790
G1 X25.076 Y28.471 E0.00833
G1 X24.887 Y28.547 E0.00684
G1 X28.312 Y31.973 E0.16188
G1 X28.210 Y32.202 E0.00840
G1 X28.119 Y32.348 E0.00574
G1 X24.509 Y28.738 E0.17060
G1 X24.178 Y28.975 E0.01362
G1 X27.882 Y32.680 E0.17508
G1 X27.599 Y32.965 E0.01343
G1 X23.895 Y29.261 E0.17508
G1 X23.771 Y29.412 E0.00655
G1 X23.658 Y29.593 E0.00710
G1 X27.268 Y33.202 E0.17060
G1 X27.055 Y33.327 E0.00825
G1 X26.890 Y33.393 E0.00593
G1 X23.465 Y29.968 E0.16188
G1 X23.365 Y30.231 E0.00940
G1 X23.329 Y30.401 E0.00580
G1 X26.459 Y33.530 E0.14790
G1 X26.178 Y33.583 E0.00954
G1 X25.952 Y33.591 E0.00758
G1 X23.264 Y30.903 E0.12704
G1 X23.286 Y31.336 E0.01447
G1 X23.329 Y31.537 E0.00687
G1 X25.531 Y33.739 E0.10410
G1 X24.741 Y33.517 F10800.000
G1 F900
G1 X23.332 Y32.109 E0.06655
;BEFORE_LAYER_CHANGE
G92 E0.0
;0.35


G1 F8640
G1 X24.741 Y33.517 E-0.45982
G1 E-0.94018 F2100.00000
G1 Z0.400 F10800.000
;AFTER_LAYER_CHANGE
;0.35
M104 S240 ; set temperature
M140 S90 ; set bed temperature
G1 X22.052 Y36.608
G1 Z0.350
G1 E1.40000 F2100.00000
G1 F900
G1 X20.976 Y35.700 E0.03405
G1 X20.120 Y34.608 E0.03355
G1 X19.514 Y33.392 E0.03287
G1 X19.155 Y32.045 E0.03370
G1 X19.070 Y30.892 E0.02797
G1 X19.217 Y29.557 E0.03248
G1 X19.627 Y28.270 E0.03266
G1 X20.308 Y27.052 E0.03376
G1 X21.059 Y26.157 E0.02825
G1 X22.095 Y25.303 E0.03247
G1 X23.331 Y24.648 E0.03383
G1 X24.679 Y24.259 E0.03394
G1 X26.015 Y24.153 E0.03242
G1 X27.180 Y24.275 E0.02833
G1 X28.523 Y24.681 E0.03394
G1 X29.718 Y25.327 E0.03285
G1 X30.789 Y26.227 E0.03383
G1 X31.654 Y27.329 E0.03387
G1 X32.262 Y28.545 E0.03289
G1 X32.579 Y29.654 E0.02790
G1 X32.707 Y31.042 E0.03369
G1 X32.558 Y32.392 E0.03285
G1 X32.126 Y33.727 E0.03393
G1 X31.425 Y34.951 E0.03412
G1 X30.530 Y35.965 E0.03272
G1 X29.611 Y36.684 E0.02822
G1 X28.367 Y37.323 E0.03383
G1 X27.063 Y37.688 E0.03274
G1 X25.685 Y37.787 E0.03340
G1 X24.334 Y37.610 E0.03297
G1 X23.233 Y37.251 E0.02800
G1 X22.104 Y36.637 E0.03108
G1 F8640
G1 X20.976 Y35.700 E-0.33865
G1 X20.120 Y34.608 E-0.32030
G1 X19.514 Y33.392 E-0.31381
G1 X19.155 Y32.045 E-0.32172
G1 X19.144 Y31.892 E-0.03551
G1 E-0.07000 F2100.00000
G1 Z0.550 F10800.000
G1 X24.470 Y33.450
G1 Z0.350
G1 E1.40000 F2100.00000
M204 S800
G1 F900
G1 X24.121 Y33.214 E0.01097
G1 X23.986 Y33.100 E0.00461
G1 X23.701 Y32.806 E0.01068
G1 X23.463 Y32.479 E0.01053
G1 X23.366 Y32.311 E0.00506
G1 X23.284 Y32.142 E0.00489
G1 X23.143 Y31.757 E0.01067
G1 X23.061 Y31.368 E0.01038
G1 X23.032 Y30.964 E0.01053
G1 X23.039 Y30.770 E0.00506
G1 X23.058 Y30.584 E0.00489
G1 X23.143 Y30.183 E0.01067
G1 X23.284 Y29.798 E0.01067
G1 X23.366 Y29.629 E0.00490
G1 X23.460 Y29.466 E0.00490
G1 X23.701 Y29.135 E0.01067
G1 X23.985 Y28.840 E0.01066
G1 X24.125 Y28.723 E0.00477
G1 X24.470 Y28.491 E0.01082
G1 X24.626 Y28.408 E0.00461
G1 X25.006 Y28.254 E0.01067
G1 X25.404 Y28.155 E0.01067
G1 X25.578 Y28.131 E0.00460
G1 X25.994 Y28.117 E0.01083
G1 X26.395 Y28.159 E0.01053
G1 X26.580 Y28.198 E0.00491
G1 X26.760 Y28.250 E0.00490
G1 X27.151 Y28.408 E0.01097
G1 X27.307 Y28.491 E0.00461
G1 X27.656 Y28.726 E0.01097
G1 X27.791 Y28.840 E0.00461
G1 X28.076 Y29.135 E0.01068
G1 X28.314 Y29.462 E0.01053
G1 X28.411 Y29.630 E0.00506
G1 X28.493 Y29.798 E0.00489
G1 X28.632 Y30.178 E0.01053
G1 X28.716 Y30.573 E0.01054
G1 X28.745 Y30.976 E0.01052
G1 X28.738 Y31.170 E0.00506
G1 X28.719 Y31.357 E0.00489
G1 X28.633 Y31.757 E0.01067
G1 X28.493 Y32.142 E0.01067
G1 X28.411 Y32.311 E0.00490
G1 X28.317 Y32.474 E0.00490
G1 X28.076 Y32.806 E0.01067
G1 X27.792 Y33.100 E0.01066
G1 X27.652 Y33.217 E0.00477
G1 X27.308 Y33.449 E0.01081
G1 X27.146 Y33.535 E0.00477
G1 X26.771 Y33.686 E0.01053
G1 X26.373 Y33.785 E0.01068
G1 X26.198 Y33.810 E0.00461
G1 X25.789 Y33.824 E0.01067
G1 X25.381 Y33.781 E0.01067
G1 X25.197 Y33.742 E0.00490
G1 X25.016 Y33.690 E0.00490
G1 X24.523 Y33.478 E0.01400
M204 S1000
G1 X24.327 Y33.847 F10800.000
M204 S800
G1 F900
G1 X23.869 Y33.548 E0.01423
G1 X23.700 Y33.406 E0.00575
G1 X23.380 Y33.075 E0.01201
G1 X23.113 Y32.707 E0.01185
G1 X22.997 Y32.508 E0.00601
G1 X22.898 Y32.306 E0.00585
G1 X22.741 Y31.873 E0.01201
G1 X22.646 Y31.426 E0.01190
G1 X22.614 Y30.972 E0.01185
G1 X22.622 Y30.742 E0.00601
G1 X22.645 Y30.518 E0.00585
G1 X22.741 Y30.068 E0.01201
G1 X22.898 Y29.635 E0.01201
G1 X22.997 Y29.433 E0.00585
G1 X23.109 Y29.238 E0.00585
G1 X23.380 Y28.865 E0.01201
G1 X23.700 Y28.534 E0.01200
G1 X23.874 Y28.389 E0.00591
G1 X24.254 Y28.132 E0.01195
G1 X24.449 Y28.029 E0.00575
G1 X24.877 Y27.856 E0.01201
G1 X25.324 Y27.745 E0.01201
G1 X25.542 Y27.714 E0.00575
G1 X26.009 Y27.698 E0.01216
G1 X26.461 Y27.746 E0.01185
G1 X26.681 Y27.793 E0.00585
G1 X26.897 Y27.855 E0.00585
G1 X27.328 Y28.029 E0.01211
G1 X27.522 Y28.132 E0.00575
G1 X27.908 Y28.392 E0.01211
G1 X28.077 Y28.534 E0.00575
G1 X28.397 Y28.865 E0.01201
G1 X28.664 Y29.233 E0.01185
G1 X28.780 Y29.433 E0.00601
G1 X28.879 Y29.635 E0.00585
G1 X29.034 Y30.062 E0.01185
G1 X29.131 Y30.515 E0.01206
G1 X29.163 Y30.968 E0.01185
G1 X29.155 Y31.199 E0.00601
G1 X29.132 Y31.422 E0.00585
G1 X29.036 Y31.873 E0.01201
G1 X28.878 Y32.306 E0.01201
G1 X28.780 Y32.508 E0.00585
G1 X28.668 Y32.702 E0.00585
G1 X28.397 Y33.075 E0.01201
G1 X28.077 Y33.406 E0.01200
G1 X27.903 Y33.552 E0.00591
G1 X27.523 Y33.808 E0.01195
G1 X27.322 Y33.914 E0.00591
G1 X26.900 Y34.084 E0.01185
G1 X26.453 Y34.196 E0.01201
G1 X26.235 Y34.227 E0.00575
G1 X25.774 Y34.243 E0.01201
G1 X25.316 Y34.195 E0.01201
G1 X25.096 Y34.148 E0.00585
G1 X24.880 Y34.086 E0.00585
G1 X24.380 Y33.875 E0.01415
M204 S1000
G1 X24.321 Y33.447 F10800.000
G1 F8640
G1 X23.869 Y33.548 E-0.13993
G1 X23.700 Y33.406 E-0.05096
G1 X23.380 Y33.075 E-0.10640
G1 X23.113 Y32.707 E-0.10503
G1 X22.997 Y32.508 E-0.05327
G1 X22.898 Y32.306 E-0.05183
G1 X22.741 Y31.873 E-0.10639
G1 X22.646 Y31.426 E-0.10549
G1 X22.614 Y30.972 E-0.10503
G1 X22.622 Y30.742 E-0.05327
G1 X22.645 Y30.518 E-0.05183
G1 X22.741 Y30.068 E-0.10639
G1 X22.898 Y29.635 E-0.10639
G1 X22.997 Y29.433 E-0.05187
G1 X23.109 Y29.238 E-0.05187
G1 X23.323 Y28.944 E-0.08404
G1 E-0.07000 F2100.00000
G1 Z0.550 F10800.000
G1 X26.162 Y33.686
G1 Z0.350
G1 E1.40000 F2100.00000
G1 F900
G1 X28.373 Y31.474 E0.08244
G1 X28.408 Y31.313 E0.00434
G1 X28.431 Y30.976 E0.00890
G1 X28.420 Y30.829 E0.00388
G1 X25.745 Y33.504 E0.09972
G1 X25.436 Y33.472 E0.00820
G1 X25.231 Y33.421 E0.00557
G1 X28.340 Y30.312 E0.11589
G1 X28.179 Y29.875 E0.01227
G1 X24.792 Y33.262 E0.12625
