; generated by PrusaSlicer 2.1.1 on 2020-08-01 at 13:51:09 UTC

; 

; external perimeters extrusion width = 0.60mm
; perimeters extrusion width = 0.50mm
; infill extrusion width = 0.50mm
; solid infill extrusion width = 0.50mm
; top infill extrusion width = 0.45mm
; first layer extrusion width = 0.42mm

M73 P0 R21
M73 Q0 S22
M201 X1000 Y1000 Z200 E5000 ; sets maximum accelerations, mm/sec^2
M203 X200 Y200 Z12 E120 ; sets maximum feedrates, mm/sec
M204 P1250 R1250 T1250 ; sets acceleration (P, T) and retract acceleration (R), mm/sec^2
M205 X8.00 Y8.00 Z0.40 E4.50 ; sets the jerk limits, mm/sec
M205 S0 T0 ; sets the minimum extruding and travel feed rate, mm/sec
M107
M862.3 P "MK3S" ; printer model check
M862.1 P0.4 ; nozzle diameter check
M115 U3.9.0 ; tell printer latest fw version
G90 ; use absolute coordinates
M83 ; extruder relative mode
M104 S215 ; set extruder temp
M140 S60 ; set bed temp
M190 S60 ; wait for bed temp
M109 S215 ; wait for extruder temp
G28 W ; home all without mesh bed level
G80 ; mesh bed leveling
G1 Y-3.0 F1000.0 ; go outside print area
G92 E0.0
G1 X60.0 E9.0 F1000.0 ; intro line
M73 Q0 S21
M73 P0 R21
G1 X100.0 E12.5 F1000.0 ; intro line
G92 E0.0
M221 S95
G21 ; set units to millimeters
G90 ; use absolute coordinates
M83 ; use relative distances for extrusion
M900 K0.06 ; Filament gcode LA 1.5
M900 K30 ; Filament gcode LA 1.0
;BEFORE_LAYER_CHANGE
G92 E0.0
;0.2


G1 E-0.80000 F2100.00000
G1 Z0.600 F10800.000
;AFTER_LAYER_CHANGE
;0.2
G1 X76.713 Y88.230
G1 Z0.200
G1 E0.80000 F2100.00000
M204 S1000
G1 F1200
G1 X77.291 Y87.930 E0.02044
G1 X77.998 Y87.811 E0.02247
G1 X172.004 Y87.811 E2.94749
G1 X172.830 Y87.975 E0.02642
G1 X173.531 Y88.436 E0.02631
G1 X174.008 Y89.131 E0.02642
G1 X174.188 Y89.954 E0.02642
G1 X174.186 Y120.102 E0.94528
G1 X174.059 Y120.742 E0.02044
G1 X173.749 Y121.315 E0.02044
G1 X173.287 Y121.770 E0.02032
G1 X172.709 Y122.070 E0.02044
G1 X172.002 Y122.189 E0.02247
G1 X77.967 Y122.188 E2.94840
G1 X77.310 Y122.077 E0.02089
G1 X76.714 Y121.771 E0.02100
G1 X76.239 Y121.299 E0.02100
G1 X75.930 Y120.709 E0.02089
G1 X75.811 Y120.010 E0.02225
G1 X75.813 Y89.909 E0.94379
G1 X75.937 Y89.269 E0.02044
G1 X76.246 Y88.691 E0.02055
G1 X76.670 Y88.272 E0.01867
G1 F8640
G1 X77.291 Y87.930 E-0.16379
G1 X77.998 Y87.811 E-0.16550
G1 X79.863 Y87.811 E-0.43071
G1 E-0.04000 F2100.00000
G1 Z0.800 F10800.000
G1 X166.067 Y100.293
G1 Z0.200
G1 E0.80000 F2100.00000
G1 F1200
G1 X166.139 Y99.884 E0.01304
G1 X166.242 Y99.601 E0.00946
G1 X166.379 Y99.343 E0.00913
G1 X166.550 Y99.108 E0.00914
G1 X166.753 Y98.898 E0.00914
G1 X166.982 Y98.719 E0.00913
G1 X167.234 Y98.573 E0.00914
G1 X167.505 Y98.464 E0.00914
G1 X167.787 Y98.393 E0.00913
G1 X168.087 Y98.362 E0.00946
G1 X168.503 Y98.391 E0.01306
G1 X168.805 Y98.466 E0.00978
G1 X169.195 Y98.640 E0.01338
G1 X169.549 Y98.897 E0.01370
G1 X169.841 Y99.221 E0.01370
G1 X170.060 Y99.600 E0.01370
G1 X170.195 Y100.015 E0.01370
G1 X170.237 Y100.420 E0.01275
G1 X170.233 Y102.107 E0.05288
G1 X170.161 Y102.516 E0.01304
G1 X170.058 Y102.799 E0.00946
G1 X169.921 Y103.057 E0.00913
G1 X169.750 Y103.293 E0.00914
G1 X169.547 Y103.502 E0.00913
G1 X169.318 Y103.681 E0.00914
G1 X169.066 Y103.827 E0.00914
G1 X168.795 Y103.936 E0.00914
G1 X168.513 Y104.007 E0.00913
G1 X168.213 Y104.038 E0.00946
G1 X167.787 Y104.009 E0.01338
G1 X167.367 Y103.888 E0.01370
G1 X166.981 Y103.683 E0.01370
G1 X166.646 Y103.402 E0.01370
G1 X166.384 Y103.066 E0.01338
G1 X166.237 Y102.790 E0.00978
G1 X166.105 Y102.385 E0.01337
G1 X166.063 Y101.980 E0.01275
G1 X166.067 Y100.353 E0.05100
G1 X166.444 Y100.354 F10800.000
G1 F1200
G1 X166.504 Y99.982 E0.01183
G1 X166.587 Y99.754 E0.00760
G1 X166.699 Y99.544 E0.00748
G1 X166.840 Y99.350 E0.00748
G1 X167.005 Y99.179 E0.00748
G1 X167.193 Y99.032 E0.00748
G1 X167.400 Y98.913 E0.00748
G1 X167.621 Y98.823 E0.00748
G1 X167.853 Y98.765 E0.00748
G1 X168.094 Y98.740 E0.00760
G1 X168.443 Y98.765 E0.01099
G1 X168.682 Y98.824 E0.00771
G1 X169.006 Y98.968 E0.01110
G1 X169.295 Y99.178 E0.01122
G1 X169.534 Y99.444 E0.01122
G1 X169.713 Y99.754 E0.01122
G1 X169.824 Y100.094 E0.01122
G1 X169.860 Y100.439 E0.01088
G1 X169.856 Y102.073 E0.05123
G1 X169.796 Y102.418 E0.01098
G1 X169.713 Y102.646 E0.00760
G1 X169.601 Y102.856 E0.00748
G1 X169.460 Y103.050 E0.00748
G1 X169.295 Y103.221 E0.00748
G1 X169.107 Y103.368 E0.00748
G1 X168.900 Y103.487 E0.00748
G1 X168.679 Y103.577 E0.00748
G1 X168.447 Y103.635 E0.00748
G1 X168.206 Y103.660 E0.00760
G1 X167.853 Y103.635 E0.01110
G1 X167.509 Y103.537 E0.01121
G1 X167.193 Y103.369 E0.01122
G1 X166.919 Y103.139 E0.01122
G1 X166.701 Y102.860 E0.01110
G1 X166.586 Y102.642 E0.00771
G1 X166.476 Y102.306 E0.01110
G1 X166.440 Y101.961 E0.01088
G1 X166.444 Y100.414 E0.04849
G1 X166.138 Y100.133 F10800.000
G1 F8640
G1 X166.504 Y99.982 E-0.10082
G1 X166.587 Y99.754 E-0.05595
G1 X166.699 Y99.544 E-0.05509
G1 X166.840 Y99.350 E-0.05511
G1 X167.005 Y99.179 E-0.05511
G1 X167.193 Y99.032 E-0.05510
G1 X167.400 Y98.913 E-0.05510
G1 X167.621 Y98.823 E-0.05512
G1 X167.853 Y98.765 E-0.05509
G1 X168.094 Y98.740 E-0.05595
G1 X168.443 Y98.765 E-0.08091
G1 X168.682 Y98.824 E-0.05679
G1 X168.777 Y98.866 E-0.02387
G1 E-0.04000 F2100.00000
G1 Z0.800 F10800.000
G1 X83.895 Y100.015
G1 Z0.200
G1 E0.80000 F2100.00000
G1 F1200
G1 X83.937 Y100.420 E0.01275
G1 X83.933 Y102.107 E0.05289
G1 X83.861 Y102.516 E0.01303
G1 X83.758 Y102.799 E0.00946
G1 X83.621 Y103.057 E0.00914
G1 X83.450 Y103.293 E0.00914
G1 X83.248 Y103.502 E0.00913
G1 X83.018 Y103.681 E0.00914
G1 X82.766 Y103.827 E0.00914
G1 X82.495 Y103.936 E0.00914
G1 X82.213 Y104.007 E0.00913
G1 X81.913 Y104.038 E0.00946
G1 X81.487 Y104.009 E0.01338
G1 X81.067 Y103.888 E0.01370
G1 X80.681 Y103.683 E0.01370
G1 X80.354 Y103.409 E0.01338
G1 X80.154 Y103.170 E0.00978
G1 X79.940 Y102.800 E0.01338
G1 X79.805 Y102.385 E0.01370
G1 X79.763 Y101.980 E0.01275
G1 X79.767 Y100.293 E0.05289
G1 X79.839 Y99.884 E0.01303
G1 X79.942 Y99.601 E0.00946
G1 X80.079 Y99.343 E0.00914
G1 X80.250 Y99.108 E0.00914
G1 X80.453 Y98.898 E0.00914
G1 X80.682 Y98.719 E0.00914
G1 X80.934 Y98.573 E0.00914
G1 X81.205 Y98.464 E0.00914
G1 X81.487 Y98.393 E0.00914
G1 X81.787 Y98.362 E0.00946
G1 X82.203 Y98.391 E0.01305
G1 X82.505 Y98.466 E0.00978
G1 X82.895 Y98.640 E0.01338
G1 X83.249 Y98.897 E0.01370
G1 X83.541 Y99.221 E0.01370
G1 X83.760 Y99.600 E0.01370
G1 X83.876 Y99.958 E0.01182
G1 X83.517 Y100.075 F10800.000
G1 F1200
G1 X83.560 Y100.439 E0.01150
G1 X83.556 Y102.073 E0.05123
G1 X83.496 Y102.418 E0.01098
G1 X83.413 Y102.646 E0.00760
G1 X83.301 Y102.856 E0.00748
G1 X83.160 Y103.050 E0.00748
G1 X82.995 Y103.221 E0.00748
G1 X82.807 Y103.368 E0.00748
G1 X82.600 Y103.487 E0.00748
G1 X82.379 Y103.577 E0.00748
G1 X82.147 Y103.635 E0.00748
G1 X81.906 Y103.660 E0.00760
G1 X81.553 Y103.635 E0.01110
G1 X81.209 Y103.537 E0.01122
G1 X80.893 Y103.369 E0.01122
G1 X80.622 Y103.141 E0.01110
G1 X80.464 Y102.953 E0.00771
G1 X80.287 Y102.646 E0.01110
G1 X80.176 Y102.306 E0.01122
G1 X80.140 Y101.961 E0.01088
G1 X80.144 Y100.327 E0.05123
G1 X80.204 Y99.982 E0.01098
G1 X80.287 Y99.754 E0.00760
G1 X80.399 Y99.544 E0.00748
G1 X80.540 Y99.351 E0.00748
G1 X80.705 Y99.179 E0.00748
G1 X80.893 Y99.032 E0.00748
G1 X81.100 Y98.913 E0.00748
G1 X81.321 Y98.823 E0.00748
G1 X81.553 Y98.765 E0.00748
G1 X81.794 Y98.740 E0.00760
G1 X82.143 Y98.765 E0.01098
G1 X82.382 Y98.824 E0.00771
G1 X82.706 Y98.968 E0.01110
G1 X82.995 Y99.178 E0.01122
G1 X83.234 Y99.444 E0.01122
G1 X83.413 Y99.754 E0.01122
G1 X83.499 Y100.018 E0.00870
G1 X83.867 Y100.185 F10800.000
G1 F8640
G1 X83.560 Y100.439 E-0.09834
G1 X83.556 Y102.073 E-0.37729
G1 X83.496 Y102.418 E-0.08086
G1 X83.413 Y102.646 E-0.05594
G1 X83.301 Y102.856 E-0.05511
G1 X83.160 Y103.050 E-0.05511
G1 X83.048 Y103.166 E-0.03736
G1 E-0.04000 F2100.00000
G1 Z0.800 F10800.000
G1 X165.587 Y92.413
G1 Z0.200
G1 E0.80000 F2100.00000
G1 F1200
G1 X84.413 Y92.413 E2.54516
G1 X84.413 Y119.413 E0.84657
G1 X78.587 Y119.413 E0.18267
G1 X78.587 Y90.587 E0.90381
G1 X171.413 Y90.587 E2.91049
G1 X171.413 Y119.413 E0.90381
G1 X165.587 Y119.413 E0.18267
G1 X165.587 Y92.473 E0.84468
G1 X165.210 Y92.790 F10800.000
G1 F1200
G1 X84.790 Y92.790 E2.52151
G1 X84.790 Y119.790 E0.84657
G1 X78.210 Y119.790 E0.20631
G1 X78.210 Y90.210 E0.92746
G1 X171.790 Y90.210 E2.93414
G1 X171.790 Y119.790 E0.92746
G1 X165.210 Y119.790 E0.20631
G1 X165.210 Y92.850 E0.84468
G1 X165.178 Y92.391 F10800.000
G1 F8640
G1 X161.919 Y92.848 E-0.76000
G1 E-0.04000 F2100.00000
G1 Z0.800 F10800.000
G1 X171.300 Y91.464
G1 Z0.200
G1 E0.80000 F2100.00000
G1 F1200
G1 X170.706 Y90.870 E0.02639
G1 X170.172 Y90.870 E0.01678
G1 X171.130 Y91.828 E0.04258
G1 X171.130 Y92.363 E0.01678
G1 X169.637 Y90.870 E0.06632
G1 X169.103 Y90.870 E0.01678
G1 X171.130 Y92.897 E0.09005
G1 X171.130 Y93.431 E0.01678
G1 X168.569 Y90.870 E0.11378
G1 X168.035 Y90.870 E0.01678
G1 X171.130 Y93.965 E0.13752
G1 X171.130 Y94.500 E0.01678
G1 X167.500 Y90.870 E0.16125
G1 X166.966 Y90.870 E0.01678
G1 X171.130 Y95.034 E0.18498
G1 X171.130 Y95.568 E0.01678
G1 X166.432 Y90.870 E0.20872
G1 X165.898 Y90.870 E0.01678
G1 X171.130 Y96.102 E0.23245
G1 X171.130 Y96.637 E0.01678
G1 X165.363 Y90.870 E0.25618
G1 X164.829 Y90.870 E0.01678
G1 X171.130 Y97.171 E0.27991
G1 X171.130 Y97.705 E0.01678
G1 X164.295 Y90.870 E0.30365
G1 X163.761 Y90.870 E0.01678
G1 X165.021 Y92.130 E0.05598
G1 X164.487 Y92.130 E0.01678
G1 X163.226 Y90.870 E0.05598
G1 X162.692 Y90.870 E0.01678
G1 X163.952 Y92.130 E0.05598
G1 X163.418 Y92.130 E0.01678
G1 X162.158 Y90.870 E0.05598
G1 X161.624 Y90.870 E0.01678
G1 X162.884 Y92.130 E0.05598
G1 X162.350 Y92.130 E0.01678
G1 X161.089 Y90.870 E0.05598
G1 X160.555 Y90.870 E0.01678
G1 X161.815 Y92.130 E0.05598
G1 X161.281 Y92.130 E0.01678
G1 X160.021 Y90.870 E0.05598
G1 X159.487 Y90.870 E0.01678
G1 X160.747 Y92.130 E0.05598
G1 X160.213 Y92.130 E0.01678
G1 X158.952 Y90.870 E0.05598
G1 X158.418 Y90.870 E0.01678
G1 X159.678 Y92.130 E0.05598
G1 X159.144 Y92.130 E0.01678
G1 X157.884 Y90.870 E0.05598
G1 X157.350 Y90.870 E0.01678
G1 X158.610 Y92.130 E0.05598
G1 X158.076 Y92.130 E0.01678
G1 X156.815 Y90.870 E0.05598
G1 X156.281 Y90.870 E0.01678
G1 X157.541 Y92.130 E0.05598
M73 Q4 S20
G1 X157.007 Y92.130 E0.01678
G1 X155.747 Y90.870 E0.05598
G1 X155.213 Y90.870 E0.01678
G1 X156.473 Y92.130 E0.05598
G1 X155.939 Y92.130 E0.01678
G1 X154.678 Y90.870 E0.05598
G1 X154.144 Y90.870 E0.01678
G1 X155.404 Y92.130 E0.05598
G1 X154.870 Y92.130 E0.01678
G1 X153.610 Y90.870 E0.05598
G1 X153.076 Y90.870 E0.01678
G1 X154.336 Y92.130 E0.05598
G1 X153.802 Y92.130 E0.01678
G1 X152.541 Y90.870 E0.05598
G1 X152.007 Y90.870 E0.01678
G1 X153.267 Y92.130 E0.05598
G1 X152.733 Y92.130 E0.01678
G1 X151.473 Y90.870 E0.05598
G1 X150.939 Y90.870 E0.01678
G1 X152.199 Y92.130 E0.05598
M73 P4 R20
G1 X151.665 Y92.130 E0.01678
G1 X150.404 Y90.870 E0.05598
G1 X149.870 Y90.870 E0.01678
G1 X151.130 Y92.130 E0.05598
G1 X150.596 Y92.130 E0.01678
G1 X149.336 Y90.870 E0.05598
G1 X148.802 Y90.870 E0.01678
G1 X150.062 Y92.130 E0.05598
G1 X149.528 Y92.130 E0.01678
G1 X148.267 Y90.870 E0.05598
G1 X147.733 Y90.870 E0.01678
G1 X148.993 Y92.130 E0.05598
G1 X148.459 Y92.130 E0.01678
G1 X147.199 Y90.870 E0.05598
G1 X146.665 Y90.870 E0.01678
G1 X147.925 Y92.130 E0.05598
G1 X147.391 Y92.130 E0.01678
G1 X146.130 Y90.870 E0.05598
G1 X145.596 Y90.870 E0.01678
G1 X146.856 Y92.130 E0.05598
G1 X146.322 Y92.130 E0.01678
G1 X145.062 Y90.870 E0.05598
G1 X144.528 Y90.870 E0.01678
G1 X145.788 Y92.130 E0.05598
G1 X145.254 Y92.130 E0.01678
G1 X143.993 Y90.870 E0.05598
G1 X143.459 Y90.870 E0.01678
G1 X144.719 Y92.130 E0.05598
G1 X144.185 Y92.130 E0.01678
G1 X142.925 Y90.870 E0.05598
G1 X142.391 Y90.870 E0.01678
G1 X143.651 Y92.130 E0.05598
G1 X143.117 Y92.130 E0.01678
G1 X141.856 Y90.870 E0.05598
G1 X141.322 Y90.870 E0.01678
G1 X142.582 Y92.130 E0.05598
G1 X142.048 Y92.130 E0.01678
G1 X140.788 Y90.870 E0.05598
G1 X140.254 Y90.870 E0.01678
G1 X141.514 Y92.130 E0.05598
G1 X140.980 Y92.130 E0.01678
G1 X139.719 Y90.870 E0.05598
G1 X139.185 Y90.870 E0.01678
G1 X140.445 Y92.130 E0.05598
G1 X139.911 Y92.130 E0.01678
G1 X138.651 Y90.870 E0.05598
G1 X138.117 Y90.870 E0.01678
G1 X139.377 Y92.130 E0.05598
G1 X138.843 Y92.130 E0.01678
G1 X137.582 Y90.870 E0.05598
G1 X137.048 Y90.870 E0.01678
G1 X138.308 Y92.130 E0.05598
G1 X137.774 Y92.130 E0.01678
G1 X136.514 Y90.870 E0.05598
G1 X135.980 Y90.870 E0.01678
G1 X137.240 Y92.130 E0.05598
G1 X136.706 Y92.130 E0.01678
G1 X135.445 Y90.870 E0.05598
G1 X134.911 Y90.870 E0.01678
G1 X136.171 Y92.130 E0.05598
G1 X135.637 Y92.130 E0.01678
G1 X134.377 Y90.870 E0.05598
G1 X133.843 Y90.870 E0.01678
G1 X135.103 Y92.130 E0.05598
G1 X134.569 Y92.130 E0.01678
G1 X133.308 Y90.870 E0.05598
G1 X132.774 Y90.870 E0.01678
G1 X134.034 Y92.130 E0.05598
G1 X133.500 Y92.130 E0.01678
G1 X132.240 Y90.870 E0.05598
G1 X131.706 Y90.870 E0.01678
G1 X132.966 Y92.130 E0.05598
G1 X132.432 Y92.130 E0.01678
G1 X131.171 Y90.870 E0.05598
G1 X130.637 Y90.870 E0.01678
G1 X131.897 Y92.130 E0.05598
G1 X131.363 Y92.130 E0.01678
G1 X130.103 Y90.870 E0.05598
G1 X129.569 Y90.870 E0.01678
G1 X130.829 Y92.130 E0.05598
G1 X130.295 Y92.130 E0.01678
G1 X129.034 Y90.870 E0.05598
G1 X128.500 Y90.870 E0.01678
G1 X129.760 Y92.130 E0.05598
G1 X129.226 Y92.130 E0.01678
G1 X127.966 Y90.870 E0.05598
G1 X127.432 Y90.870 E0.01678
G1 X128.692 Y92.130 E0.05598
G1 X128.158 Y92.130 E0.01678
G1 X126.897 Y90.870 E0.05598
G1 X126.363 Y90.870 E0.01678
G1 X127.623 Y92.130 E0.05598
G1 X127.089 Y92.130 E0.01678
G1 X125.829 Y90.870 E0.05598
G1 X125.295 Y90.870 E0.01678
G1 X126.555 Y92.130 E0.05598
G1 X126.021 Y92.130 E0.01678
G1 X124.760 Y90.870 E0.05598
G1 X124.226 Y90.870 E0.01678
G1 X125.486 Y92.130 E0.05598
G1 X124.952 Y92.130 E0.01678
G1 X123.692 Y90.870 E0.05598
G1 X123.158 Y90.870 E0.01678
G1 X124.418 Y92.130 E0.05598
G1 X123.884 Y92.130 E0.01678
G1 X122.623 Y90.870 E0.05598
G1 X122.089 Y90.870 E0.01678
G1 X123.349 Y92.130 E0.05598
G1 X122.815 Y92.130 E0.01678
G1 X121.555 Y90.870 E0.05598
G1 X121.021 Y90.870 E0.01678
G1 X122.281 Y92.130 E0.05598
G1 X121.747 Y92.130 E0.01678
G1 X120.486 Y90.870 E0.05598
G1 X119.952 Y90.870 E0.01678
G1 X121.212 Y92.130 E0.05598
G1 X120.678 Y92.130 E0.01678
G1 X119.418 Y90.870 E0.05598
G1 X118.884 Y90.870 E0.01678
G1 X120.144 Y92.130 E0.05598
G1 X119.610 Y92.130 E0.01678
G1 X118.349 Y90.870 E0.05598
G1 X117.815 Y90.870 E0.01678
G1 X119.075 Y92.130 E0.05598
G1 X118.541 Y92.130 E0.01678
G1 X117.281 Y90.870 E0.05598
G1 X116.747 Y90.870 E0.01678
G1 X118.007 Y92.130 E0.05598
G1 X117.473 Y92.130 E0.01678
G1 X116.212 Y90.870 E0.05598
G1 X115.678 Y90.870 E0.01678
G1 X116.938 Y92.130 E0.05598
G1 X116.404 Y92.130 E0.01678
G1 X115.144 Y90.870 E0.05598
G1 X114.610 Y90.870 E0.01678
G1 X115.870 Y92.130 E0.05598
G1 X115.336 Y92.130 E0.01678
G1 X114.075 Y90.870 E0.05598
G1 X113.541 Y90.870 E0.01678
G1 X114.801 Y92.130 E0.05598
G1 X114.267 Y92.130 E0.01678
G1 X113.007 Y90.870 E0.05598
G1 X112.473 Y90.870 E0.01678
G1 X113.733 Y92.130 E0.05598
G1 X113.199 Y92.130 E0.01678
G1 X111.938 Y90.870 E0.05598
G1 X111.404 Y90.870 E0.01678
G1 X112.664 Y92.130 E0.05598
G1 X112.130 Y92.130 E0.01678
G1 X110.870 Y90.870 E0.05598
G1 X110.336 Y90.870 E0.01678
G1 X111.596 Y92.130 E0.05598
G1 X111.062 Y92.130 E0.01678
G1 X109.801 Y90.870 E0.05598
G1 X109.267 Y90.870 E0.01678
G1 X110.527 Y92.130 E0.05598
G1 X109.993 Y92.130 E0.01678
G1 X108.733 Y90.870 E0.05598
G1 X108.199 Y90.870 E0.01678
G1 X109.459 Y92.130 E0.05598
G1 X108.925 Y92.130 E0.01678
G1 X107.664 Y90.870 E0.05598
G1 X107.130 Y90.870 E0.01678
G1 X108.390 Y92.130 E0.05598
G1 X107.856 Y92.130 E0.01678
G1 X106.596 Y90.870 E0.05598
G1 X106.062 Y90.870 E0.01678
G1 X107.322 Y92.130 E0.05598
G1 X106.788 Y92.130 E0.01678
G1 X105.527 Y90.870 E0.05598
G1 X104.993 Y90.870 E0.01678
G1 X106.253 Y92.130 E0.05598
G1 X105.719 Y92.130 E0.01678
G1 X104.459 Y90.870 E0.05598
G1 X103.925 Y90.870 E0.01678
G1 X105.185 Y92.130 E0.05598
G1 X104.651 Y92.130 E0.01678
G1 X103.390 Y90.870 E0.05598
G1 X102.856 Y90.870 E0.01678
G1 X104.116 Y92.130 E0.05598
G1 X103.582 Y92.130 E0.01678
G1 X102.322 Y90.870 E0.05598
