; generated by PrusaSlicer 2.1.1 on 2020-07-31 at 19:22:20 UTC

; 

; external perimeters extrusion width = 0.60mm
; perimeters extrusion width = 0.50mm
; infill extrusion width = 0.50mm
; solid infill extrusion width = 0.50mm
; top infill extrusion width = 0.45mm
; first layer extrusion width = 0.42mm

M73 P0 R26
M73 Q0 S26
M201 X1000 Y1000 Z200 E5000 ; sets maximum accelerations, mm/sec^2
M203 X200 Y200 Z12 E120 ; sets maximum feedrates, mm/sec
M204 P1250 R1250 T1250 ; sets acceleration (P, T) and retract acceleration (R), mm/sec^2
M205 X8.00 Y8.00 Z0.40 E4.50 ; sets the jerk limits, mm/sec
M205 S0 T0 ; sets the minimum extruding and travel feed rate, mm/sec
M107
M862.3 P "MK3S" ; printer model check
M862.1 P0.4 ; nozzle diameter check
M115 U3.9.0 ; tell printer latest fw version
G90 ; use absolute coordinates
M83 ; extruder relative mode
M104 S215 ; set extruder temp
M140 S60 ; set bed temp
M190 S60 ; wait for bed temp
M109 S215 ; wait for extruder temp
G28 W ; home all without mesh bed level
G80 ; mesh bed leveling
G1 Y-3.0 F1000.0 ; go outside print area
G92 E0.0
G1 X60.0 E9.0 F1000.0 ; intro line
M73 Q0 S26
M73 P0 R26
G1 X100.0 E12.5 F1000.0 ; intro line
G92 E0.0
M221 S95
G21 ; set units to millimeters
G90 ; use absolute coordinates
M83 ; use relative distances for extrusion
M900 K0.06 ; Filament gcode LA 1.5
M900 K30 ; Filament gcode LA 1.0
;BEFORE_LAYER_CHANGE
G92 E0.0
;0.2


G1 E-0.80000 F2100.00000
G1 Z0.600 F10800.000
;AFTER_LAYER_CHANGE
;0.2
G1 X77.605 Y95.347
G1 Z0.200
G1 E0.80000 F2100.00000
M204 S1000
G1 F1200
G1 X172.004 Y95.311 E2.95980
G1 X172.830 Y95.475 E0.02642
G1 X173.534 Y95.939 E0.02642
G1 X174.010 Y96.634 E0.02642
G1 X174.188 Y97.458 E0.02642
G1 X174.177 Y112.726 E0.47874
G1 X173.993 Y113.404 E0.02202
G1 X173.607 Y113.986 E0.02191
G1 X173.056 Y114.417 E0.02191
G1 X172.395 Y114.653 E0.02202
G1 X77.960 Y114.688 E2.96094
G1 X77.228 Y114.548 E0.02338
G1 X76.582 Y114.167 E0.02349
G1 X76.105 Y113.594 E0.02338
G1 X75.847 Y112.895 E0.02338
G1 X75.822 Y97.281 E0.48956
G1 X76.004 Y96.603 E0.02202
G1 X76.391 Y96.017 E0.02202
G1 X76.944 Y95.583 E0.02202
G1 X77.549 Y95.368 E0.02014
G1 F8640
G1 X80.840 Y95.366 E-0.76000
G1 E-0.04000 F2100.00000
G1 Z0.800 F10800.000
G1 X166.117 Y100.843
G1 Z0.200
G1 E0.80000 F2100.00000
G1 F1200
G1 X166.189 Y100.434 E0.01303
G1 X166.292 Y100.151 E0.00946
G1 X166.429 Y99.893 E0.00913
G1 X166.600 Y99.658 E0.00914
G1 X166.803 Y99.448 E0.00914
G1 X167.032 Y99.269 E0.00913
G1 X167.284 Y99.123 E0.00914
G1 X167.555 Y99.014 E0.00914
G1 X167.837 Y98.943 E0.00913
G1 X168.137 Y98.912 E0.00946
G1 X168.563 Y98.941 E0.01338
G1 X168.983 Y99.062 E0.01370
G1 X169.360 Y99.262 E0.01338
G1 X169.606 Y99.454 E0.00978
G1 X169.891 Y99.771 E0.01338
G1 X170.110 Y100.150 E0.01370
G1 X170.245 Y100.565 E0.01370
G1 X170.287 Y100.970 E0.01275
G1 X170.283 Y102.657 E0.05289
G1 X170.211 Y103.066 E0.01303
G1 X170.108 Y103.349 E0.00946
G1 X169.971 Y103.607 E0.00913
G1 X169.800 Y103.842 E0.00914
G1 X169.597 Y104.052 E0.00914
G1 X169.368 Y104.231 E0.00913
G1 X169.116 Y104.377 E0.00914
G1 X168.845 Y104.486 E0.00914
G1 X168.563 Y104.557 E0.00913
G1 X168.263 Y104.588 E0.00946
G1 X167.837 Y104.559 E0.01338
G1 X167.417 Y104.438 E0.01370
G1 X167.040 Y104.238 E0.01338
G1 X166.794 Y104.046 E0.00978
G1 X166.509 Y103.729 E0.01338
G1 X166.290 Y103.350 E0.01370
G1 X166.155 Y102.935 E0.01370
G1 X166.113 Y102.530 E0.01275
G1 X166.117 Y100.903 E0.05101
G1 X166.494 Y100.904 F10800.000
G1 F1200
G1 X166.554 Y100.532 E0.01183
G1 X166.637 Y100.304 E0.00760
G1 X166.749 Y100.094 E0.00748
G1 X166.890 Y99.901 E0.00748
G1 X167.055 Y99.729 E0.00748
G1 X167.243 Y99.582 E0.00748
G1 X167.450 Y99.463 E0.00748
G1 X167.671 Y99.373 E0.00748
G1 X167.903 Y99.315 E0.00748
G1 X168.144 Y99.290 E0.00760
G1 X168.497 Y99.315 E0.01110
G1 X168.841 Y99.413 E0.01122
G1 X169.154 Y99.580 E0.01110
G1 X169.347 Y99.731 E0.00771
G1 X169.584 Y99.994 E0.01110
G1 X169.763 Y100.304 E0.01122
G1 X169.874 Y100.644 E0.01122
G1 X169.910 Y100.989 E0.01088
G1 X169.906 Y102.623 E0.05123
G1 X169.846 Y102.968 E0.01098
G1 X169.763 Y103.196 E0.00760
G1 X169.651 Y103.406 E0.00748
G1 X169.510 Y103.600 E0.00748
G1 X169.345 Y103.771 E0.00748
G1 X169.157 Y103.918 E0.00748
G1 X168.950 Y104.037 E0.00748
G1 X168.729 Y104.127 E0.00748
G1 X168.497 Y104.185 E0.00748
G1 X168.256 Y104.210 E0.00760
G1 X167.903 Y104.185 E0.01110
G1 X167.559 Y104.087 E0.01121
G1 X167.246 Y103.920 E0.01110
G1 X167.053 Y103.769 E0.00771
G1 X166.816 Y103.506 E0.01110
G1 X166.637 Y103.196 E0.01122
G1 X166.526 Y102.856 E0.01122
G1 X166.490 Y102.511 E0.01088
G1 X166.494 Y100.964 E0.04849
G1 X166.188 Y100.683 F10800.000
G1 F8640
G1 X166.554 Y100.532 E-0.10079
G1 X166.637 Y100.304 E-0.05596
G1 X166.749 Y100.094 E-0.05510
G1 X166.890 Y99.901 E-0.05511
G1 X167.055 Y99.729 E-0.05511
G1 X167.243 Y99.582 E-0.05510
G1 X167.450 Y99.463 E-0.05510
G1 X167.671 Y99.373 E-0.05512
G1 X167.903 Y99.315 E-0.05509
G1 X168.144 Y99.290 E-0.05597
G1 X168.497 Y99.315 E-0.08174
G1 X168.829 Y99.410 E-0.07982
G1 E-0.04000 F2100.00000
G1 Z0.800 F10800.000
G1 X83.845 Y100.565
G1 Z0.200
G1 E0.80000 F2100.00000
G1 F1200
G1 X83.887 Y100.970 E0.01275
G1 X83.883 Y102.646 E0.05256
G1 X83.841 Y102.944 E0.00944
G1 X83.713 Y103.340 E0.01305
G1 X83.571 Y103.607 E0.00946
G1 X83.400 Y103.842 E0.00914
G1 X83.197 Y104.052 E0.00914
G1 X82.968 Y104.231 E0.00914
G1 X82.716 Y104.377 E0.00914
G1 X82.445 Y104.486 E0.00914
G1 X82.163 Y104.557 E0.00914
G1 X81.863 Y104.588 E0.00946
G1 X81.437 Y104.559 E0.01338
G1 X81.017 Y104.438 E0.01370
G1 X80.640 Y104.238 E0.01338
G1 X80.394 Y104.046 E0.00978
G1 X80.109 Y103.729 E0.01338
G1 X79.890 Y103.350 E0.01370
G1 X79.755 Y102.935 E0.01370
G1 X79.713 Y102.530 E0.01275
G1 X79.717 Y100.853 E0.05259
G1 X79.760 Y100.549 E0.00961
G1 X79.887 Y100.159 E0.01287
G1 X80.029 Y99.893 E0.00945
G1 X80.200 Y99.658 E0.00914
G1 X80.403 Y99.448 E0.00914
G1 X80.632 Y99.269 E0.00914
G1 X80.884 Y99.123 E0.00914
G1 X81.155 Y99.014 E0.00914
G1 X81.437 Y98.943 E0.00914
G1 X81.737 Y98.912 E0.00945
G1 X82.146 Y98.940 E0.01287
G1 X82.455 Y99.016 E0.00996
G1 X82.845 Y99.190 E0.01340
G1 X83.199 Y99.447 E0.01370
G1 X83.491 Y99.771 E0.01370
G1 X83.710 Y100.150 E0.01370
G1 X83.826 Y100.508 E0.01182
G1 X83.467 Y100.625 F10800.000
G1 F1200
G1 X83.510 Y100.989 E0.01150
G1 X83.506 Y102.620 E0.05112
G1 X83.473 Y102.859 E0.00759
G1 X83.364 Y103.192 E0.01098
G1 X83.251 Y103.406 E0.00760
G1 X83.110 Y103.599 E0.00748
G1 X82.945 Y103.771 E0.00748
G1 X82.757 Y103.918 E0.00748
G1 X82.550 Y104.037 E0.00748
G1 X82.329 Y104.127 E0.00748
G1 X82.097 Y104.185 E0.00748
G1 X81.856 Y104.210 E0.00760
G1 X81.503 Y104.185 E0.01110
G1 X81.159 Y104.087 E0.01122
G1 X80.846 Y103.920 E0.01110
G1 X80.653 Y103.769 E0.00771
G1 X80.416 Y103.506 E0.01110
G1 X80.237 Y103.196 E0.01122
G1 X80.126 Y102.856 E0.01122
G1 X80.090 Y102.511 E0.01088
G1 X80.094 Y100.880 E0.05113
G1 X80.129 Y100.635 E0.00776
G1 X80.236 Y100.307 E0.01081
G1 X80.349 Y100.094 E0.00759
G1 X80.490 Y99.901 E0.00748
G1 X80.655 Y99.729 E0.00748
G1 X80.843 Y99.582 E0.00748
G1 X81.050 Y99.463 E0.00748
G1 X81.271 Y99.373 E0.00748
G1 X81.503 Y99.315 E0.00748
G1 X81.744 Y99.290 E0.00759
G1 X82.088 Y99.314 E0.01081
G1 X82.332 Y99.374 E0.00788
G1 X82.656 Y99.518 E0.01111
G1 X82.945 Y99.728 E0.01122
G1 X83.184 Y99.994 E0.01122
G1 X83.363 Y100.304 E0.01122
G1 X83.449 Y100.568 E0.00870
G1 X83.817 Y100.735 F10800.000
G1 F8640
G1 X83.510 Y100.989 E-0.09833
G1 X83.506 Y102.620 E-0.37645
G1 X83.473 Y102.859 E-0.05590
G1 X83.364 Y103.192 E-0.08089
G1 X83.251 Y103.406 E-0.05596
G1 X83.110 Y103.599 E-0.05510
G1 X82.998 Y103.716 E-0.03738
G1 E-0.04000 F2100.00000
G1 Z0.800 F10800.000
G1 X78.587 Y98.087
G1 Z0.200
G1 E0.80000 F2100.00000
G1 F1200
G1 X171.413 Y98.087 E2.91049
G1 X171.413 Y111.913 E0.43350
G1 X78.587 Y111.913 E2.91049
G1 X78.587 Y98.147 E0.43162
G1 X78.210 Y97.710 F10800.000
G1 F1200
G1 X171.790 Y97.710 E2.93414
G1 X171.790 Y112.290 E0.45715
G1 X78.210 Y112.290 E2.93414
G1 X78.210 Y97.770 E0.45526
G1 X78.609 Y97.731 F10800.000
G1 F8640
G1 X81.501 Y97.768 E-0.76000
G1 E-0.04000 F2100.00000
G1 Z0.800 F10800.000
G1 X79.610 Y103.401
G1 Z0.200
G1 E0.80000 F2100.00000
G1 F1200
G1 X78.870 Y102.661 E0.03285
G1 X78.870 Y102.127 E0.01677
G1 X79.447 Y102.704 E0.02562
G1 X79.431 Y102.154 E0.01727
G1 X78.870 Y101.593 E0.02491
G1 X78.870 Y101.059 E0.01677
G1 X79.432 Y101.621 E0.02497
G1 X79.433 Y101.089 E0.01673
G1 X78.870 Y100.525 E0.02502
G1 X78.870 Y99.991 E0.01677
G1 X79.469 Y100.590 E0.02659
G1 X79.484 Y100.485 E0.00332
G1 X79.586 Y100.173 E0.01032
G1 X78.870 Y99.457 E0.03178
G1 X78.870 Y98.923 E0.01677
G1 X79.754 Y99.807 E0.03927
G1 X79.972 Y99.491 E0.01206
G1 X78.870 Y98.389 E0.04893
G1 X78.870 Y98.370 E0.00060
G1 X79.385 Y98.370 E0.01617
G1 X80.235 Y99.220 E0.03775
G1 X80.543 Y98.994 E0.01199
G1 X79.919 Y98.370 E0.02770
G1 X80.453 Y98.370 E0.01677
G1 X80.896 Y98.813 E0.01968
G1 X81.067 Y98.744 E0.00579
G1 X81.302 Y98.685 E0.00762
G1 X80.987 Y98.370 E0.01401
G1 X81.521 Y98.370 E0.01677
G1 X81.783 Y98.631 E0.01161
G1 X82.190 Y98.659 E0.01283
G1 X82.395 Y98.710 E0.00662
G1 X82.055 Y98.370 E0.01510
G1 X82.589 Y98.370 E0.01677
G1 X95.849 Y111.630 E0.58883
G1 X96.383 Y111.630 E0.01677
G1 X83.123 Y98.370 E0.58883
G1 X83.657 Y98.370 E0.01677
G1 X96.917 Y111.630 E0.58883
G1 X97.451 Y111.630 E0.01677
G1 X84.191 Y98.370 E0.58883
G1 X84.725 Y98.370 E0.01677
G1 X97.986 Y111.630 E0.58883
G1 X98.520 Y111.630 E0.01677
G1 X85.259 Y98.370 E0.58883
G1 X85.793 Y98.370 E0.01677
G1 X99.054 Y111.630 E0.58883
G1 X99.588 Y111.630 E0.01677
G1 X86.327 Y98.370 E0.58883
G1 X86.861 Y98.370 E0.01677
G1 X100.122 Y111.630 E0.58883
G1 X100.656 Y111.630 E0.01677
G1 X87.395 Y98.370 E0.58883
G1 X87.930 Y98.370 E0.01677
G1 X101.190 Y111.630 E0.58883
G1 X101.724 Y111.630 E0.01677
G1 X88.464 Y98.370 E0.58883
G1 X88.998 Y98.370 E0.01677
G1 X102.258 Y111.630 E0.58883
G1 X102.792 Y111.630 E0.01677
G1 X89.532 Y98.370 E0.58883
G1 X90.066 Y98.370 E0.01677
G1 X103.326 Y111.630 E0.58883
G1 X103.860 Y111.630 E0.01677
G1 X90.600 Y98.370 E0.58883
M73 Q4 S25
G1 X91.134 Y98.370 E0.01677
G1 X104.394 Y111.630 E0.58883
M73 P4 R25
G1 X104.928 Y111.630 E0.01677
G1 X91.668 Y98.370 E0.58883
G1 X92.202 Y98.370 E0.01677
G1 X105.462 Y111.630 E0.58883
G1 X105.996 Y111.630 E0.01677
G1 X92.736 Y98.370 E0.58883
G1 X93.270 Y98.370 E0.01677
G1 X106.530 Y111.630 E0.58883
G1 X107.064 Y111.630 E0.01677
G1 X93.804 Y98.370 E0.58883
G1 X94.338 Y98.370 E0.01677
G1 X107.598 Y111.630 E0.58883
G1 X108.132 Y111.630 E0.01677
G1 X94.872 Y98.370 E0.58883
G1 X95.406 Y98.370 E0.01677
G1 X108.666 Y111.630 E0.58883
G1 X109.200 Y111.630 E0.01677
G1 X95.940 Y98.370 E0.58883
G1 X96.474 Y98.370 E0.01677
G1 X109.734 Y111.630 E0.58883
G1 X110.268 Y111.630 E0.01677
G1 X97.008 Y98.370 E0.58883
G1 X97.542 Y98.370 E0.01677
G1 X110.803 Y111.630 E0.58883
G1 X111.337 Y111.630 E0.01677
G1 X98.076 Y98.370 E0.58883
G1 X98.610 Y98.370 E0.01677
G1 X111.871 Y111.630 E0.58883
G1 X112.405 Y111.630 E0.01677
G1 X99.144 Y98.370 E0.58883
G1 X99.678 Y98.370 E0.01677
G1 X112.939 Y111.630 E0.58883
G1 X113.473 Y111.630 E0.01677
G1 X100.212 Y98.370 E0.58883
G1 X100.747 Y98.370 E0.01677
G1 X114.007 Y111.630 E0.58883
G1 X114.541 Y111.630 E0.01677
G1 X101.281 Y98.370 E0.58883
G1 X101.815 Y98.370 E0.01677
G1 X115.075 Y111.630 E0.58883
G1 X115.609 Y111.630 E0.01677
G1 X102.349 Y98.370 E0.58883
G1 X102.883 Y98.370 E0.01677
G1 X116.143 Y111.630 E0.58883
G1 X116.677 Y111.630 E0.01677
G1 X103.417 Y98.370 E0.58883
G1 X103.951 Y98.370 E0.01677
G1 X117.211 Y111.630 E0.58883
G1 X117.745 Y111.630 E0.01677
G1 X104.485 Y98.370 E0.58883
G1 X105.019 Y98.370 E0.01677
G1 X118.279 Y111.630 E0.58883
G1 X118.813 Y111.630 E0.01677
G1 X105.553 Y98.370 E0.58883
G1 X106.087 Y98.370 E0.01677
G1 X119.347 Y111.630 E0.58883
G1 X119.881 Y111.630 E0.01677
G1 X106.621 Y98.370 E0.58883
G1 X107.155 Y98.370 E0.01677
G1 X120.415 Y111.630 E0.58883
G1 X120.949 Y111.630 E0.01677
G1 X107.689 Y98.370 E0.58883
G1 X108.223 Y98.370 E0.01677
G1 X121.483 Y111.630 E0.58883
G1 X122.017 Y111.630 E0.01677
G1 X108.757 Y98.370 E0.58883
G1 X109.291 Y98.370 E0.01677
G1 X122.551 Y111.630 E0.58883
G1 X123.086 Y111.630 E0.01677
G1 X109.825 Y98.370 E0.58883
G1 X110.359 Y98.370 E0.01677
G1 X123.620 Y111.630 E0.58883
G1 X124.154 Y111.630 E0.01677
G1 X110.893 Y98.370 E0.58883
G1 X111.427 Y98.370 E0.01677
G1 X124.688 Y111.630 E0.58883
G1 X125.222 Y111.630 E0.01677
G1 X111.961 Y98.370 E0.58883
G1 X112.495 Y98.370 E0.01677
G1 X125.756 Y111.630 E0.58883
G1 X126.290 Y111.630 E0.01677
G1 X113.029 Y98.370 E0.58883
G1 X113.564 Y98.370 E0.01677
G1 X126.824 Y111.630 E0.58883
G1 X127.358 Y111.630 E0.01677
G1 X114.098 Y98.370 E0.58883
G1 X114.632 Y98.370 E0.01677
G1 X127.892 Y111.630 E0.58883
G1 X128.426 Y111.630 E0.01677
G1 X115.166 Y98.370 E0.58883
G1 X115.700 Y98.370 E0.01677
G1 X128.960 Y111.630 E0.58883
G1 X129.494 Y111.630 E0.01677
G1 X116.234 Y98.370 E0.58883
G1 X116.768 Y98.370 E0.01677
G1 X130.028 Y111.630 E0.58883
G1 X130.562 Y111.630 E0.01677
G1 X117.302 Y98.370 E0.58883
G1 X117.836 Y98.370 E0.01677
G1 X131.096 Y111.630 E0.58883
G1 X131.630 Y111.630 E0.01677
G1 X118.370 Y98.370 E0.58883
G1 X118.904 Y98.370 E0.01677
G1 X132.164 Y111.630 E0.58883
G1 X132.698 Y111.630 E0.01677
G1 X119.438 Y98.370 E0.58883
G1 X119.972 Y98.370 E0.01677
G1 X133.232 Y111.630 E0.58883
G1 X133.766 Y111.630 E0.01677
G1 X120.506 Y98.370 E0.58883
G1 X121.040 Y98.370 E0.01677
G1 X134.300 Y111.630 E0.58883
G1 X134.834 Y111.630 E0.01677
G1 X121.574 Y98.370 E0.58883
G1 X122.108 Y98.370 E0.01677
G1 X135.368 Y111.630 E0.58883
G1 X135.903 Y111.630 E0.01677
G1 X122.642 Y98.370 E0.58883
G1 X123.176 Y98.370 E0.01677
G1 X136.437 Y111.630 E0.58883
G1 X136.971 Y111.630 E0.01677
G1 X123.710 Y98.370 E0.58883
M73 Q7 S24
G1 X124.244 Y98.370 E0.01677
G1 X137.505 Y111.630 E0.58883
M73 P7 R24
G1 X138.039 Y111.630 E0.01677
G1 X124.778 Y98.370 E0.58883
G1 X125.312 Y98.370 E0.01677
G1 X138.573 Y111.630 E0.58883
G1 X139.107 Y111.630 E0.01677
G1 X125.847 Y98.370 E0.58883
G1 X126.381 Y98.370 E0.01677
G1 X139.641 Y111.630 E0.58883
G1 X140.175 Y111.630 E0.01677
G1 X126.915 Y98.370 E0.58883
G1 X127.449 Y98.370 E0.01677
G1 X140.709 Y111.630 E0.58883
G1 X141.243 Y111.630 E0.01677
G1 X127.983 Y98.370 E0.58883
G1 X128.517 Y98.370 E0.01677
G1 X141.777 Y111.630 E0.58883
G1 X142.311 Y111.630 E0.01677
G1 X129.051 Y98.370 E0.58883
G1 X129.585 Y98.370 E0.01677
G1 X142.845 Y111.630 E0.58883
G1 X143.379 Y111.630 E0.01677
G1 X130.119 Y98.370 E0.58883
G1 X130.653 Y98.370 E0.01677
G1 X143.913 Y111.630 E0.58883
G1 X144.447 Y111.630 E0.01677
G1 X131.187 Y98.370 E0.58883
G1 X131.721 Y98.370 E0.01677
G1 X144.981 Y111.630 E0.58883
G1 X145.515 Y111.630 E0.01677
G1 X132.255 Y98.370 E0.58883
G1 X132.789 Y98.370 E0.01677
G1 X146.049 Y111.630 E0.58883
G1 X146.583 Y111.630 E0.01677
G1 X133.323 Y98.370 E0.58883
G1 X133.857 Y98.370 E0.01677
G1 X147.117 Y111.630 E0.58883
G1 X147.651 Y111.630 E0.01677
G1 X134.391 Y98.370 E0.58883
G1 X134.925 Y98.370 E0.01677
G1 X148.186 Y111.630 E0.58883
G1 X148.720 Y111.630 E0.01677
G1 X135.459 Y98.370 E0.58883
G1 X135.993 Y98.370 E0.01677
G1 X149.254 Y111.630 E0.58883
G1 X149.788 Y111.630 E0.01677
G1 X136.527 Y98.370 E0.58883
G1 X137.061 Y98.370 E0.01677
G1 X150.322 Y111.630 E0.58883
G1 X150.856 Y111.630 E0.01677
G1 X137.595 Y98.370 E0.58883
G1 X138.129 Y98.370 E0.01677
G1 X151.390 Y111.630 E0.58883
G1 X151.924 Y111.630 E0.01677
G1 X138.664 Y98.370 E0.58883
G1 X139.198 Y98.370 E0.01677
G1 X152.458 Y111.630 E0.58883
G1 X152.992 Y111.630 E0.01677
G1 X139.732 Y98.370 E0.58883
G1 X140.266 Y98.370 E0.01677
G1 X153.526 Y111.630 E0.58883
G1 X154.060 Y111.630 E0.01677
G1 X140.800 Y98.370 E0.58883
G1 X141.334 Y98.370 E0.01677
G1 X154.594 Y111.630 E0.58883
G1 X155.128 Y111.630 E0.01677
G1 X141.868 Y98.370 E0.58883
G1 X142.402 Y98.370 E0.01677
G1 X155.662 Y111.630 E0.58883
G1 X156.196 Y111.630 E0.01677
G1 X142.936 Y98.370 E0.58883
G1 X143.470 Y98.370 E0.01677
G1 X156.730 Y111.630 E0.58883
G1 X157.264 Y111.630 E0.01677
G1 X144.004 Y98.370 E0.58883
G1 X144.538 Y98.370 E0.01677
G1 X157.798 Y111.630 E0.58883
G1 X158.332 Y111.630 E0.01677
