; generated by PrusaSlicer 2.1.1 on 2020-11-01 at 10:26:26 UTC

; 

; external perimeters extrusion width = 0.45mm
; perimeters extrusion width = 0.45mm
; infill extrusion width = 0.45mm
; solid infill extrusion width = 0.45mm
; top infill extrusion width = 0.40mm
; first layer extrusion width = 0.42mm

M73 P0 R15
M73 Q0 S15
M201 X1000 Y1000 Z200 E5000 ; sets maximum accelerations, mm/sec^2
M203 X200 Y200 Z12 E120 ; sets maximum feedrates, mm/sec
M204 P1250 R1250 T1250 ; sets acceleration (P, T) and retract acceleration (R), mm/sec^2
M205 X8.00 Y8.00 Z0.40 E4.50 ; sets the jerk limits, mm/sec
M205 S0 T0 ; sets the minimum extruding and travel feed rate, mm/sec
M107
M862.3 P "MK3S" ; printer model check
M862.1 P0.4 ; nozzle diameter check
M115 U3.9.1 ; tell printer latest fw version
G90 ; use absolute coordinates
M83 ; extruder relative mode
M104 S215 ; set extruder temp
M140 S60 ; set bed temp
M190 S60 ; wait for bed temp
M109 S215 ; wait for extruder temp
G28 W ; home all without mesh bed level
G80 ; mesh bed leveling
G1 Y-3.0 F1000.0 ; go outside print area
G92 E0.0
G1 X60.0 E9.0 F1000.0 ; intro line
M73 Q0 S15
M73 P0 R15
G1 X100.0 E12.5 F1000.0 ; intro line
G92 E0.0
M221 S95
G21 ; set units to millimeters
G90 ; use absolute coordinates
M83 ; use relative distances for extrusion
M900 K0.05 ; Filament gcode LA 1.5
M900 K30 ; Filament gcode LA 1.0
;BEFORE_LAYER_CHANGE
G92 E0.0
;0.2


G1 E-0.80000 F2100.00000
G1 Z0.600 F10800.000
;AFTER_LAYER_CHANGE
;0.2
G1 X109.346 Y77.865
G1 Z0.200
G1 E0.80000 F2100.00000
M204 S1000
G1 F1200
G1 X109.568 Y77.221 E0.02134
G1 X109.975 Y76.680 E0.02123
G1 X110.531 Y76.288 E0.02134
G1 X111.177 Y76.085 E0.02123
G1 X121.504 Y76.061 E0.32378
G1 X122.113 Y76.149 E0.01930
G1 X137.397 Y80.716 E0.50017
G1 X137.932 Y80.975 E0.01863
G1 X138.387 Y81.335 E0.01820
G1 X138.755 Y81.786 E0.01824
G1 X139.018 Y82.308 E0.01834
G1 X139.185 Y83.118 E0.02593
G1 X139.687 Y96.638 E0.42419
G1 X140.686 Y126.615 E0.94043
G1 X140.625 Y127.477 E0.02710
G1 X140.237 Y128.642 E0.03851
G1 X139.519 Y129.653 E0.03888
G1 X138.535 Y130.411 E0.03896
G1 X137.381 Y130.845 E0.03864
G1 X121.754 Y133.924 E0.49939
G1 X111.115 Y133.904 E0.33360
G1 X110.417 Y133.652 E0.02326
G1 X109.844 Y133.181 E0.02326
G1 X109.461 Y132.545 E0.02326
G1 X109.313 Y131.818 E0.02326
G1 X109.346 Y77.925 E1.68979
G1 F8640
G1 X109.568 Y77.221 E-0.17033
G1 X109.975 Y76.680 E-0.15634
G1 X110.531 Y76.288 E-0.15717
G1 X111.177 Y76.085 E-0.15634
G1 X111.696 Y76.084 E-0.11983
G1 E-0.04000 F2100.00000
G1 Z0.800 F10800.000
G1 X112.087 Y122.337
G1 Z0.200
G1 E0.80000 F2100.00000
G1 F1200
G1 X120.913 Y122.337 E0.27673
G1 X120.913 Y125.337 E0.09406
G1 X136.479 Y125.337 E0.48808
G1 X136.686 Y125.352 E0.00650
G1 X136.985 Y125.426 E0.00965
G1 X137.226 Y125.541 E0.00840
G1 X137.444 Y125.702 E0.00847
G1 X137.626 Y125.901 E0.00847
G1 X137.768 Y126.132 E0.00848
G1 X137.861 Y126.383 E0.00840
G1 X137.908 Y126.679 E0.00940
G1 X137.896 Y126.951 E0.00856
G1 X137.850 Y127.160 E0.00670
G1 X137.757 Y127.390 E0.00779
G1 X137.625 Y127.601 E0.00779
G1 X137.482 Y127.763 E0.00678
G1 X137.287 Y127.921 E0.00787
G1 X137.099 Y128.028 E0.00678
G1 X136.863 Y128.114 E0.00787
G1 X136.655 Y128.152 E0.00662
G1 X120.913 Y128.163 E0.49358
G1 X120.913 Y131.163 E0.09405
G1 X112.087 Y131.163 E0.27673
G1 X112.087 Y122.397 E0.27485
G1 F8640
G1 X115.378 Y122.375 E-0.76000
G1 E-0.04000 F2100.00000
G1 Z0.800 F10800.000
G1 X121.290 Y124.960
G1 Z0.200
G1 E0.80000 F2100.00000
G1 F1200
G1 X136.493 Y124.960 E0.47667
G1 X136.745 Y124.978 E0.00794
G1 X137.113 Y125.069 E0.01187
G1 X137.421 Y125.217 E0.01073
G1 X137.697 Y125.420 E0.01075
G1 X137.929 Y125.673 E0.01075
G1 X138.108 Y125.966 E0.01075
G1 X138.228 Y126.286 E0.01072
G1 X138.287 Y126.657 E0.01178
G1 X138.272 Y127.001 E0.01078
G1 X138.211 Y127.272 E0.00872
G1 X138.094 Y127.562 E0.00981
G1 X137.928 Y127.828 E0.00981
G1 X137.744 Y128.036 E0.00875
G1 X137.500 Y128.234 E0.00984
G1 X137.257 Y128.371 E0.00875
G1 X136.962 Y128.479 E0.00984
G1 X136.690 Y128.529 E0.00869
G1 X121.290 Y128.540 E0.48285
G1 X121.290 Y131.540 E0.09406
G1 X111.710 Y131.540 E0.30037
G1 X111.710 Y121.960 E0.30037
G1 X121.290 Y121.960 E0.30037
G1 X121.290 Y124.900 E0.09218
G1 X121.454 Y125.325 F10800.000
G1 F8640
G1 X124.581 Y124.913 E-0.76000
G1 E-0.04000 F2100.00000
G1 Z0.800 F10800.000
G1 X120.800 Y122.835
G1 Z0.200
G1 E0.80000 F2100.00000
G1 F1200
G1 X120.585 Y122.620 E0.00955
G1 X120.050 Y122.620 E0.01683
G1 X120.630 Y123.200 E0.02580
G1 X120.630 Y123.735 E0.01683
G1 X119.515 Y122.620 E0.04960
G1 X118.980 Y122.620 E0.01683
G1 X120.630 Y124.270 E0.07340
G1 X120.630 Y124.805 E0.01683
G1 X118.445 Y122.620 E0.09720
G1 X117.910 Y122.620 E0.01683
G1 X123.169 Y127.879 E0.23395
G1 X123.704 Y127.879 E0.01682
G1 X121.445 Y125.620 E0.10048
G1 X121.980 Y125.620 E0.01683
G1 X124.238 Y127.878 E0.10046
G1 X124.773 Y127.878 E0.01682
G1 X122.515 Y125.620 E0.10044
G1 X123.050 Y125.620 E0.01683
G1 X125.308 Y127.877 E0.10043
G1 X125.842 Y127.877 E0.01682
G1 X123.585 Y125.620 E0.10041
G1 X124.120 Y125.620 E0.01683
G1 X126.377 Y127.877 E0.10039
G1 X126.911 Y127.876 E0.01682
G1 X124.655 Y125.620 E0.10038
G1 X125.190 Y125.620 E0.01683
G1 X127.446 Y127.876 E0.10036
G1 X127.981 Y127.875 E0.01682
G1 X125.725 Y125.620 E0.10034
G1 X126.260 Y125.620 E0.01683
G1 X128.515 Y127.875 E0.10032
G1 X129.050 Y127.875 E0.01682
G1 X126.795 Y125.620 E0.10031
G1 X127.330 Y125.620 E0.01683
G1 X129.585 Y127.874 E0.10029
G1 X130.119 Y127.874 E0.01682
G1 X127.865 Y125.620 E0.10027
G1 X128.400 Y125.620 E0.01683
G1 X130.654 Y127.874 E0.10026
G1 X131.188 Y127.873 E0.01682
G1 X128.935 Y125.620 E0.10024
G1 X129.470 Y125.620 E0.01683
G1 X131.723 Y127.873 E0.10022
G1 X132.258 Y127.872 E0.01682
G1 X130.005 Y125.620 E0.10020
G1 X130.540 Y125.620 E0.01683
G1 X132.792 Y127.872 E0.10019
G1 X133.327 Y127.872 E0.01682
G1 X131.075 Y125.620 E0.10017
G1 X131.610 Y125.620 E0.01683
G1 X133.861 Y127.871 E0.10015
G1 X134.396 Y127.871 E0.01682
G1 X132.145 Y125.620 E0.10013
G1 X132.680 Y125.620 E0.01683
G1 X134.931 Y127.870 E0.10012
G1 X135.465 Y127.870 E0.01682
G1 X133.215 Y125.620 E0.10010
G1 X133.750 Y125.620 E0.01683
G1 X136.000 Y127.870 E0.10008
G1 X136.535 Y127.869 E0.01682
G1 X134.285 Y125.620 E0.10007
G1 X134.820 Y125.620 E0.01683
G1 X136.973 Y127.772 E0.09576
G1 X137.127 Y127.687 E0.00556
G1 X137.289 Y127.554 E0.00659
G1 X135.355 Y125.620 E0.08604
G1 X135.890 Y125.620 E0.01683
G1 X137.512 Y127.242 E0.07215
G1 X137.579 Y127.076 E0.00562
G1 X137.619 Y126.814 E0.00834
G1 X136.425 Y125.620 E0.05312
G1 X136.642 Y125.632 E0.00682
G1 X136.889 Y125.693 E0.00800
G1 X137.080 Y125.785 E0.00667
G1 X137.253 Y125.913 E0.00678
G1 X137.751 Y126.411 E0.02214
G1 F8640
G1 X137.253 Y125.913 E-0.16254
G1 X137.080 Y125.785 E-0.04976
G1 X136.889 Y125.693 E-0.04898
G1 X136.642 Y125.632 E-0.05875
G1 X136.425 Y125.620 E-0.05007
G1 X137.619 Y126.814 E-0.38989
G1 X137.619 Y126.814 E-0.00001
G1 E-0.04000 F2100.00000
G1 Z0.800 F10800.000
G1 X122.804 Y128.049
G1 Z0.200
G1 E0.80000 F2100.00000
G1 F1200
G1 X117.375 Y122.620 E0.24151
G1 X116.840 Y122.620 E0.01683
G1 X122.100 Y127.880 E0.23399
G1 X121.565 Y127.880 E0.01682
G1 X116.305 Y122.620 E0.23400
G1 X115.770 Y122.620 E0.01683
G1 X121.031 Y127.880 E0.23402
G1 X120.630 Y127.881 E0.01260
G1 X120.630 Y128.015 E0.00422
G1 X115.235 Y122.620 E0.24000
G1 X114.700 Y122.620 E0.01683
G1 X120.630 Y128.550 E0.26380
G1 X120.630 Y129.085 E0.01683
G1 X114.165 Y122.620 E0.28760
G1 X113.630 Y122.620 E0.01683
G1 X120.630 Y129.620 E0.31140
G1 X120.630 Y130.155 E0.01683
G1 X113.095 Y122.620 E0.33520
G1 X112.560 Y122.620 E0.01683
G1 X120.630 Y130.690 E0.35900
G1 X120.630 Y130.880 E0.00598
G1 X120.285 Y130.880 E0.01085
G1 X112.370 Y122.965 E0.35212
G1 X112.370 Y123.500 E0.01683
G1 X119.750 Y130.880 E0.32832
G1 X119.215 Y130.880 E0.01683
G1 X112.370 Y124.035 E0.30452
G1 X112.370 Y124.570 E0.01683
G1 X118.680 Y130.880 E0.28072
G1 X118.145 Y130.880 E0.01683
G1 X112.370 Y125.105 E0.25692
G1 X112.370 Y125.640 E0.01683
G1 X117.610 Y130.880 E0.23312
G1 X117.075 Y130.880 E0.01683
G1 X112.370 Y126.175 E0.20932
G1 X112.370 Y126.710 E0.01683
G1 X116.540 Y130.880 E0.18552
G1 X116.005 Y130.880 E0.01683
G1 X112.370 Y127.245 E0.16172
G1 X112.370 Y127.780 E0.01683
G1 X115.470 Y130.880 E0.13792
G1 X114.935 Y130.880 E0.01683
G1 X112.370 Y128.315 E0.11412
G1 X112.370 Y128.850 E0.01683
G1 X114.400 Y130.880 E0.09032
G1 X113.865 Y130.880 E0.01683
G1 X112.370 Y129.385 E0.06652
G1 X112.370 Y129.920 E0.01683
G1 X113.330 Y130.880 E0.04272
G1 X112.795 Y130.880 E0.01683
G1 X112.200 Y130.285 E0.02647
G1 F8640
G1 X112.795 Y130.880 E-0.19432
G1 X113.330 Y130.880 E-0.12353
G1 X112.370 Y129.920 E-0.31361
G1 X112.370 Y129.385 E-0.12353
G1 X112.385 Y129.400 E-0.00500
G1 E-0.04000 F2100.00000
G1 Z0.800 F10800.000
G1 X112.200 Y116.163
G1 Z0.200
G1 E0.80000 F2100.00000
G1 F1200
G1 X112.087 Y116.163 E0.00355
G1 X112.087 Y107.337 E0.27673
G1 X120.913 Y107.337 E0.27673
G1 X120.913 Y110.837 E0.10973
G1 X136.598 Y110.845 E0.49178
G1 X136.766 Y110.880 E0.00539
G1 X136.925 Y110.945 E0.00539
G1 X137.087 Y111.055 E0.00613
G1 X137.207 Y111.177 E0.00539
G1 X137.304 Y111.323 E0.00548
G1 X137.370 Y111.484 E0.00547
G1 X137.405 Y111.652 E0.00539
G1 X137.405 Y111.850 E0.00621
G1 X137.375 Y112.001 E0.00482
G1 X137.248 Y112.270 E0.00935
G1 X137.144 Y112.394 E0.00506
G1 X137.022 Y112.496 E0.00497
G1 X136.885 Y112.575 E0.00498
G1 X136.736 Y112.630 E0.00498
G1 X136.579 Y112.657 E0.00498
G1 X120.913 Y112.663 E0.49121
G1 X120.913 Y116.163 E0.10973
G1 X112.260 Y116.163 E0.27130
G1 F8640
G1 X112.087 Y116.163 E-0.03997
G1 X112.087 Y113.045 E-0.72003
G1 E-0.04000 F2100.00000
G1 Z0.800 F10800.000
G1 X121.290 Y110.460
G1 Z0.200
G1 E0.80000 F2100.00000
G1 F1200
G1 X136.636 Y110.468 E0.48115
G1 X136.877 Y110.517 E0.00772
G1 X137.104 Y110.612 E0.00772
G1 X137.329 Y110.763 E0.00851
G1 X137.502 Y110.939 E0.00772
G1 X137.638 Y111.145 E0.00775
G1 X137.733 Y111.373 E0.00775
G1 X137.782 Y111.614 E0.00772
G1 X137.782 Y111.887 E0.00854
G1 X137.739 Y112.105 E0.00699
G1 X137.658 Y112.316 E0.00707
G1 X137.557 Y112.489 E0.00629
G1 X137.412 Y112.662 E0.00707
G1 X137.240 Y112.806 E0.00704
G1 X137.045 Y112.918 E0.00705
G1 X136.834 Y112.995 E0.00705
G1 X136.612 Y113.034 E0.00705
G1 X121.290 Y113.040 E0.48042
G1 X121.290 Y116.540 E0.10974
G1 X111.710 Y116.540 E0.30037
G1 X111.710 Y106.960 E0.30037
G1 X121.290 Y106.960 E0.30037
G1 X121.290 Y110.400 E0.10786
G1 X121.448 Y110.827 F10800.000
G1 F8640
G1 X124.581 Y110.415 E-0.76000
G1 E-0.04000 F2100.00000
G1 Z0.800 F10800.000
G1 X121.389 Y112.550
G1 Z0.200
G1 E0.80000 F2100.00000
G1 F1200
G1 X116.459 Y107.620 E0.22201
G1 X115.918 Y107.620 E0.01724
G1 X120.678 Y112.380 E0.21438
G1 X120.630 Y112.380 E0.00154
G1 X120.630 Y112.874 E0.01571
G1 X115.376 Y107.620 E0.23659
G1 X114.835 Y107.620 E0.01724
G1 X120.630 Y113.415 E0.26098
G1 X120.630 Y113.957 E0.01724
G1 X114.293 Y107.620 E0.28537
G1 X113.752 Y107.620 E0.01724
G1 X120.630 Y114.498 E0.30975
G1 X120.630 Y115.040 E0.01724
G1 X113.210 Y107.620 E0.33414
G1 X112.668 Y107.620 E0.01724
G1 X120.630 Y115.582 E0.35853
G1 X120.630 Y115.880 E0.00951
G1 X120.387 Y115.880 E0.00774
G1 X112.370 Y107.863 E0.36103
G1 X112.370 Y108.404 E0.01724
G1 X119.846 Y115.880 E0.33664
G1 X119.304 Y115.880 E0.01724
G1 X112.370 Y108.946 E0.31225
G1 X112.370 Y109.488 E0.01724
G1 X118.762 Y115.880 E0.28786
G1 X118.221 Y115.880 E0.01724
G1 X112.370 Y110.029 E0.26348
G1 X112.370 Y110.571 E0.01724
G1 X117.679 Y115.880 E0.23909
G1 X117.138 Y115.880 E0.01724
G1 X112.370 Y111.112 E0.21470
G1 X112.370 Y111.654 E0.01724
G1 X116.596 Y115.880 E0.19031
G1 X116.055 Y115.880 E0.01724
G1 X112.370 Y112.195 E0.16593
G1 X112.370 Y112.737 E0.01724
G1 X115.513 Y115.880 E0.14154
G1 X114.971 Y115.880 E0.01724
G1 X112.370 Y113.279 E0.11715
G1 X112.370 Y113.820 E0.01724
G1 X114.430 Y115.880 E0.09276
G1 X113.888 Y115.880 E0.01724
G1 X112.370 Y114.362 E0.06838
G1 X112.370 Y114.903 E0.01724
G1 X113.347 Y115.880 E0.04399
G1 X112.805 Y115.880 E0.01724
G1 X112.200 Y115.275 E0.02724
G1 F8640
G1 X112.805 Y115.880 E-0.19755
G1 X113.347 Y115.880 E-0.12505
G1 X112.370 Y114.903 E-0.31898
G1 X112.370 Y114.390 E-0.11842
G1 E-0.04000 F2100.00000
G1 Z0.800 F10800.000
G1 X120.081 Y107.450
G1 Z0.200
G1 E0.80000 F2100.00000
G1 F1200
G1 X120.630 Y108.000 E0.02474
G1 X120.630 Y108.541 E0.01724
G1 X119.709 Y107.620 E0.04149
G1 X119.167 Y107.620 E0.01724
G1 X120.630 Y109.083 E0.06588
G1 X120.630 Y109.624 E0.01724
G1 X118.626 Y107.620 E0.09027
G1 X118.084 Y107.620 E0.01724
G1 X120.630 Y110.166 E0.11465
G1 X120.630 Y110.708 E0.01724
G1 X117.542 Y107.620 E0.13904
G1 X117.001 Y107.620 E0.01724
G1 X121.761 Y112.380 E0.21436
G1 X122.302 Y112.380 E0.01724
G1 X121.042 Y111.120 E0.05675
G1 X121.584 Y111.120 E0.01725
G1 X122.844 Y112.380 E0.05673
G1 X123.385 Y112.379 E0.01724
G1 X122.126 Y111.120 E0.05670
G1 X122.668 Y111.120 E0.01725
G1 X123.927 Y112.379 E0.05668
G1 X124.468 Y112.379 E0.01724
G1 X123.210 Y111.121 E0.05666
G1 X123.752 Y111.121 E0.01725
G1 X125.009 Y112.379 E0.05664
G1 X125.551 Y112.379 E0.01724
G1 X124.293 Y111.121 E0.05661
G1 X124.835 Y111.122 E0.01725
G1 X126.092 Y112.378 E0.05659
G1 X126.633 Y112.378 E0.01724
G1 X125.377 Y111.122 E0.05657
G1 X125.919 Y111.122 E0.01725
G1 X127.175 Y112.378 E0.05655
G1 X127.716 Y112.378 E0.01724
G1 X126.461 Y111.123 E0.05653
G1 X127.003 Y111.123 E0.01725
G1 X128.257 Y112.378 E0.05650
G1 X128.799 Y112.377 E0.01724
G1 X127.545 Y111.123 E0.05648
G1 X128.086 Y111.123 E0.01725
G1 X129.340 Y112.377 E0.05646
G1 X129.882 Y112.377 E0.01724
G1 X128.628 Y111.124 E0.05644
G1 X129.170 Y111.124 E0.01725
G1 X130.423 Y112.377 E0.05641
G1 X130.964 Y112.377 E0.01724
G1 X129.712 Y111.124 E0.05639
G1 X130.254 Y111.125 E0.01725
G1 X131.506 Y112.376 E0.05637
G1 X132.047 Y112.376 E0.01724
G1 X130.796 Y111.125 E0.05635
G1 X131.338 Y111.125 E0.01725
G1 X132.588 Y112.376 E0.05632
G1 X133.130 Y112.376 E0.01724
G1 X131.879 Y111.125 E0.05630
G1 X132.421 Y111.126 E0.01725
G1 X133.671 Y112.376 E0.05628
G1 X134.212 Y112.375 E0.01724
G1 X132.963 Y111.126 E0.05626
G1 X133.505 Y111.126 E0.01725
M73 Q6 S14
G1 X134.754 Y112.375 E0.05623
G1 X135.295 Y112.375 E0.01724
G1 X134.047 Y111.127 E0.05621
G1 X134.589 Y111.127 E0.01725
G1 X135.837 Y112.375 E0.05619
G1 X136.378 Y112.375 E0.01724
G1 X135.131 Y111.127 E0.05617
M73 P6 R14
G1 X135.672 Y111.128 E0.01725
G1 X136.827 Y112.282 E0.05199
G1 X136.935 Y112.200 E0.00431
G1 X137.077 Y111.990 E0.00807
G1 X136.214 Y111.128 E0.03883
G1 X136.569 Y111.128 E0.01129
G1 X136.790 Y111.196 E0.00737
G1 X136.893 Y111.265 E0.00394
G1 X137.292 Y111.664 E0.01795
G1 F8640
G1 X136.893 Y111.265 E-0.13018
G1 X136.790 Y111.196 E-0.02856
G1 X136.569 Y111.128 E-0.05344
G1 X136.214 Y111.128 E-0.08190
G1 X137.077 Y111.990 E-0.28159
G1 X136.935 Y112.200 E-0.05853
G1 X136.827 Y112.282 E-0.03126
G1 X136.538 Y111.993 E-0.09454
G1 E-0.04000 F2100.00000
G1 Z0.800 F10800.000
G1 X120.913 Y96.337
G1 Z0.200
G1 E0.80000 F2100.00000
G1 F1200
G1 X136.521 Y96.339 E0.48938
G1 X136.677 Y96.380 E0.00508
G1 X136.810 Y96.481 E0.00520
G1 X136.891 Y96.626 E0.00521
G1 X136.909 Y96.781 E0.00491
G1 X136.871 Y96.926 E0.00469
G1 X136.790 Y97.040 E0.00439
G1 X136.676 Y97.121 E0.00439
G1 X136.523 Y97.161 E0.00494
G1 X120.913 Y97.163 E0.48946
G1 X120.913 Y101.163 E0.12541
G1 X112.087 Y101.163 E0.27673
G1 X112.087 Y92.337 E0.27673
G1 X120.913 Y92.337 E0.27673
G1 X120.913 Y96.277 E0.12353
G1 X121.290 Y95.960 F10800.000
G1 F1200
G1 X136.552 Y95.962 E0.47854
G1 X136.704 Y95.988 E0.00483
G1 X136.845 Y96.041 E0.00472
G1 X136.986 Y96.129 E0.00523
G1 X137.095 Y96.232 E0.00471
G1 X137.183 Y96.355 E0.00471
G1 X137.251 Y96.507 E0.00523
G1 X137.283 Y96.654 E0.00471
G1 X137.287 Y96.806 E0.00477
G1 X137.266 Y96.940 E0.00425
G1 X137.215 Y97.084 E0.00480
G1 X137.058 Y97.308 E0.00856
G1 X136.834 Y97.465 E0.00856
G1 X136.690 Y97.516 E0.00480
G1 X136.553 Y97.538 E0.00434
G1 X121.290 Y97.540 E0.47857
G1 X121.290 Y101.540 E0.12542
G1 X111.710 Y101.540 E0.30037
G1 X111.710 Y91.960 E0.30037
G1 X121.290 Y91.960 E0.30037
G1 X121.290 Y95.900 E0.12353
G1 X121.443 Y96.330 F10800.000
G1 F8640
