; generated by PrusaSlicer 2.1.1 on 2020-09-20 at 16:23:14 UTC

; 

; external perimeters extrusion width = 0.45mm
; perimeters extrusion width = 0.45mm
; infill extrusion width = 0.45mm
; solid infill extrusion width = 0.45mm
; top infill extrusion width = 0.40mm
; first layer extrusion width = 0.42mm

M73 P0 R100
M73 Q0 S100
M201 X1000 Y1000 Z200 E5000 ; sets maximum accelerations, mm/sec^2
M203 X200 Y200 Z12 E120 ; sets maximum feedrates, mm/sec
M204 P1250 R1250 T1250 ; sets acceleration (P, T) and retract acceleration (R), mm/sec^2
M205 X8.00 Y8.00 Z0.40 E4.50 ; sets the jerk limits, mm/sec
M205 S0 T0 ; sets the minimum extruding and travel feed rate, mm/sec
M107
M862.3 P "MK3S" ; printer model check
M862.1 P0.4 ; nozzle diameter check
M115 U3.9.0 ; tell printer latest fw version
G90 ; use absolute coordinates
M83 ; extruder relative mode
M104 S230 ; set extruder temp
M140 S85 ; set bed temp
M190 S85 ; wait for bed temp
M109 S230 ; wait for extruder temp
G28 W ; home all without mesh bed level
G80 ; mesh bed leveling
G1 Y-3.0 F1000.0 ; go outside print area
G92 E0.0
G1 X60.0 E9.0 F1000.0 ; intro line
M73 Q0 S100
M73 P0 R100
G1 X100.0 E12.5 F1000.0 ; intro line
G92 E0.0
M221 S95
G21 ; set units to millimeters
G90 ; use absolute coordinates
M83 ; use relative distances for extrusion
M900 K0.12 ; Filament gcode LA 1.5
M900 K45 ; Filament gcode LA 1.0
;BEFORE_LAYER_CHANGE
G92 E0.0
;0.2


G1 E-1.40000 F2100.00000
G1 Z0.200 F10800.000
;AFTER_LAYER_CHANGE
;0.2
G1 Z0.400
G1 X83.507 Y83.400
G1 Z0.200
G1 E1.40000 F2100.00000
M204 S1000
G1 F1200
G1 X83.979 Y83.064 E0.01817
G1 X84.470 Y82.877 E0.01646
G1 X84.994 Y82.811 E0.01658
G1 X165.004 Y82.811 E2.50864
G1 X165.830 Y82.975 E0.02642
G1 X166.531 Y83.436 E0.02631
G1 X167.008 Y84.131 E0.02642
G1 X167.188 Y84.950 E0.02631
G1 X167.188 Y125.062 E1.25768
G1 X167.096 Y125.631 E0.01805
G1 X166.859 Y126.155 E0.01805
G1 X166.493 Y126.600 E0.01805
G1 X166.021 Y126.936 E0.01817
G1 X165.530 Y127.123 E0.01646
G1 X165.006 Y127.189 E0.01658
G1 X84.974 Y127.188 E2.50933
G1 X84.394 Y127.103 E0.01839
G1 X83.860 Y126.868 E0.01828
G1 X83.405 Y126.498 E0.01839
G1 X83.064 Y126.021 E0.01839
G1 X82.877 Y125.530 E0.01646
G1 X82.811 Y125.013 E0.01635
G1 X82.812 Y84.952 E1.25607
G1 X82.901 Y84.380 E0.01817
G1 X83.139 Y83.848 E0.01828
G1 X83.469 Y83.446 E0.01629
G1 F8640
G1 X83.979 Y83.064 E-0.14720
G1 X84.470 Y82.877 E-0.12123
G1 X84.994 Y82.811 E-0.12207
G1 X89.063 Y82.811 E-0.93950
G1 E-0.07000 F2100.00000
G1 Z0.400 F10800.000
G1 X85.587 Y85.587
G1 Z0.200
G1 E1.40000 F2100.00000
G1 F1200
G1 X164.413 Y85.587 E2.47153
G1 X164.413 Y124.413 E1.21736
G1 X85.587 Y124.413 E2.47153
G1 X85.587 Y85.647 E1.21548
G1 X85.210 Y85.210 F10800.000
G1 F1200
G1 X164.790 Y85.210 E2.49518
G1 X164.790 Y124.790 E1.24100
G1 X85.210 Y124.790 E2.49518
G1 X85.210 Y85.270 E1.23912
G1 X85.605 Y85.271 F10800.000
G1 F8640
G1 X90.970 Y85.266 E-1.33000
G1 E-0.07000 F2100.00000
G1 Z0.400 F10800.000
G1 X85.700 Y123.534
G1 Z0.200
G1 E1.40000 F2100.00000
G1 F1200
G1 X86.296 Y124.130 E0.02653
G1 X86.832 Y124.130 E0.01686
G1 X85.870 Y123.168 E0.04282
G1 X85.870 Y122.633 E0.01686
G1 X87.367 Y124.130 E0.06667
G1 X87.903 Y124.130 E0.01686
G1 X85.870 Y122.097 E0.09051
G1 X85.870 Y121.562 E0.01686
G1 X88.438 Y124.130 E0.11435
G1 X88.974 Y124.130 E0.01686
G1 X85.870 Y121.026 E0.13820
G1 X85.870 Y120.491 E0.01686
G1 X89.509 Y124.130 E0.16204
G1 X90.045 Y124.130 E0.01686
G1 X85.870 Y119.955 E0.18589
G1 X85.870 Y119.420 E0.01686
G1 X90.580 Y124.130 E0.20973
G1 X91.116 Y124.130 E0.01686
G1 X85.870 Y118.884 E0.23358
G1 X85.870 Y118.349 E0.01686
G1 X91.651 Y124.130 E0.25742
G1 X92.187 Y124.130 E0.01686
G1 X85.870 Y117.813 E0.28126
G1 X85.870 Y117.278 E0.01686
G1 X92.722 Y124.130 E0.30511
G1 X93.258 Y124.130 E0.01686
G1 X85.870 Y116.742 E0.32895
G1 X85.870 Y116.207 E0.01686
G1 X93.793 Y124.130 E0.35280
G1 X94.329 Y124.130 E0.01686
G1 X85.870 Y115.671 E0.37664
G1 X85.870 Y115.136 E0.01686
G1 X94.864 Y124.130 E0.40049
G1 X95.400 Y124.130 E0.01686
G1 X85.870 Y114.600 E0.42433
G1 X85.870 Y114.065 E0.01686
G1 X95.935 Y124.130 E0.44817
G1 X96.471 Y124.130 E0.01686
G1 X85.870 Y113.529 E0.47202
G1 X85.870 Y112.994 E0.01686
G1 X97.006 Y124.130 E0.49586
G1 X97.542 Y124.130 E0.01686
G1 X85.870 Y112.458 E0.51971
G1 X85.870 Y111.923 E0.01686
G1 X98.077 Y124.130 E0.54355
G1 X98.613 Y124.130 E0.01686
G1 X85.870 Y111.387 E0.56740
G1 X85.870 Y110.852 E0.01686
G1 X99.148 Y124.130 E0.59124
G1 X99.684 Y124.130 E0.01686
G1 X85.870 Y110.316 E0.61508
G1 X85.870 Y109.781 E0.01686
G1 X100.219 Y124.130 E0.63893
G1 X100.755 Y124.130 E0.01686
G1 X85.870 Y109.245 E0.66277
G1 X85.870 Y108.710 E0.01686
G1 X101.290 Y124.130 E0.68662
G1 X101.826 Y124.130 E0.01686
G1 X85.870 Y108.174 E0.71046
G1 X85.870 Y107.639 E0.01686
G1 X102.361 Y124.130 E0.73430
M73 Q1 S99
M73 P1 R99
G1 X102.897 Y124.130 E0.01686
G1 X85.870 Y107.103 E0.75815
G1 X85.870 Y106.568 E0.01686
G1 X103.432 Y124.130 E0.78199
G1 X103.968 Y124.130 E0.01686
G1 X85.870 Y106.032 E0.80584
G1 X85.870 Y105.497 E0.01686
G1 X104.503 Y124.130 E0.82968
G1 X105.039 Y124.130 E0.01686
G1 X85.870 Y104.961 E0.85353
G1 X85.870 Y104.426 E0.01686
G1 X105.574 Y124.130 E0.87737
G1 X106.110 Y124.130 E0.01686
G1 X85.870 Y103.890 E0.90121
G1 X85.870 Y103.355 E0.01686
G1 X106.645 Y124.130 E0.92506
G1 X107.181 Y124.130 E0.01686
G1 X85.870 Y102.819 E0.94890
G1 X85.870 Y102.284 E0.01686
G1 X107.716 Y124.130 E0.97275
G1 X108.252 Y124.130 E0.01686
G1 X85.870 Y101.748 E0.99659
G1 X85.870 Y101.213 E0.01686
G1 X108.787 Y124.130 E1.02044
G1 X109.323 Y124.130 E0.01686
G1 X85.870 Y100.677 E1.04428
G1 X85.870 Y100.142 E0.01686
G1 X109.858 Y124.130 E1.06812
G1 X110.394 Y124.130 E0.01686
G1 X85.870 Y99.606 E1.09197
G1 X85.870 Y99.071 E0.01686
G1 X110.929 Y124.130 E1.11581
G1 X111.465 Y124.130 E0.01686
G1 X85.870 Y98.535 E1.13966
G1 X85.870 Y98.000 E0.01686
G1 X112.000 Y124.130 E1.16350
G1 X112.536 Y124.130 E0.01686
G1 X85.870 Y97.464 E1.18735
G1 X85.870 Y96.929 E0.01686
G1 X113.071 Y124.130 E1.21119
G1 X113.607 Y124.130 E0.01686
G1 X85.870 Y96.393 E1.23503
G1 X85.870 Y95.858 E0.01686
G1 X114.142 Y124.130 E1.25888
G1 X114.678 Y124.130 E0.01686
G1 X85.870 Y95.322 E1.28272
G1 X85.870 Y94.787 E0.01686
G1 X115.213 Y124.130 E1.30657
G1 X115.749 Y124.130 E0.01686
G1 X85.870 Y94.251 E1.33041
G1 X85.870 Y93.716 E0.01686
G1 X116.284 Y124.130 E1.35426
G1 X116.820 Y124.130 E0.01686
G1 X85.870 Y93.180 E1.37810
G1 X85.870 Y92.645 E0.01686
G1 X117.355 Y124.130 E1.40194
G1 X117.891 Y124.130 E0.01686
G1 X85.870 Y92.109 E1.42579
G1 X85.870 Y91.574 E0.01686
G1 X118.426 Y124.130 E1.44963
G1 X118.962 Y124.130 E0.01686
G1 X85.870 Y91.038 E1.47348
G1 X85.870 Y90.503 E0.01686
G1 X119.497 Y124.130 E1.49732
G1 X120.033 Y124.130 E0.01686
G1 X85.870 Y89.967 E1.52117
M73 Q2 S98
M73 P2 R98
G1 X85.870 Y89.432 E0.01686
G1 X120.568 Y124.130 E1.54501
G1 X121.104 Y124.130 E0.01686
G1 X85.870 Y88.896 E1.56885
G1 X85.870 Y88.361 E0.01686
G1 X121.639 Y124.130 E1.59270
G1 X122.175 Y124.130 E0.01686
G1 X85.870 Y87.825 E1.61654
G1 X85.870 Y87.290 E0.01686
G1 X122.710 Y124.130 E1.64039
G1 X123.246 Y124.130 E0.01686
G1 X85.870 Y86.754 E1.66423
G1 X85.870 Y86.219 E0.01686
G1 X123.781 Y124.130 E1.68807
G1 X124.317 Y124.130 E0.01686
G1 X86.056 Y85.870 E1.70362
G1 X86.592 Y85.870 E0.01686
G1 X124.852 Y124.130 E1.70362
G1 X125.388 Y124.130 E0.01686
G1 X87.127 Y85.870 E1.70362
G1 X87.663 Y85.870 E0.01686
G1 X125.923 Y124.130 E1.70362
G1 X126.459 Y124.130 E0.01686
G1 X88.198 Y85.870 E1.70362
G1 X88.734 Y85.870 E0.01686
G1 X126.994 Y124.130 E1.70362
G1 X127.530 Y124.130 E0.01686
G1 X89.269 Y85.870 E1.70362
G1 X89.805 Y85.870 E0.01686
G1 X128.065 Y124.130 E1.70362
G1 X128.601 Y124.130 E0.01686
G1 X90.340 Y85.870 E1.70362
G1 X90.876 Y85.870 E0.01686
G1 X129.136 Y124.130 E1.70362
G1 X129.672 Y124.130 E0.01686
G1 X91.411 Y85.870 E1.70362
G1 X91.947 Y85.870 E0.01686
G1 X130.207 Y124.130 E1.70362
G1 X130.743 Y124.130 E0.01686
G1 X92.482 Y85.870 E1.70362
G1 X93.018 Y85.870 E0.01686
G1 X131.278 Y124.130 E1.70362
G1 X131.814 Y124.130 E0.01686
G1 X93.553 Y85.870 E1.70362
G1 X94.089 Y85.870 E0.01686
G1 X132.349 Y124.130 E1.70362
M73 Q3 S97
M73 P3 R97
G1 X132.885 Y124.130 E0.01686
G1 X94.624 Y85.870 E1.70362
G1 X95.160 Y85.870 E0.01686
G1 X133.420 Y124.130 E1.70362
G1 X133.956 Y124.130 E0.01686
G1 X95.695 Y85.870 E1.70362
G1 X96.231 Y85.870 E0.01686
G1 X134.491 Y124.130 E1.70362
G1 X135.027 Y124.130 E0.01686
G1 X96.766 Y85.870 E1.70362
G1 X97.302 Y85.870 E0.01686
G1 X135.562 Y124.130 E1.70362
G1 X136.098 Y124.130 E0.01686
G1 X97.837 Y85.870 E1.70362
G1 X98.373 Y85.870 E0.01686
G1 X136.633 Y124.130 E1.70362
G1 X137.169 Y124.130 E0.01686
G1 X98.908 Y85.870 E1.70362
G1 X99.444 Y85.870 E0.01686
G1 X137.704 Y124.130 E1.70362
G1 X138.240 Y124.130 E0.01686
G1 X99.979 Y85.870 E1.70362
G1 X100.515 Y85.870 E0.01686
G1 X138.775 Y124.130 E1.70362
G1 X139.311 Y124.130 E0.01686
G1 X101.050 Y85.870 E1.70362
G1 X101.586 Y85.870 E0.01686
G1 X139.846 Y124.130 E1.70362
G1 X140.382 Y124.130 E0.01686
G1 X102.121 Y85.870 E1.70362
G1 X102.657 Y85.870 E0.01686
G1 X140.917 Y124.130 E1.70362
G1 X141.453 Y124.130 E0.01686
G1 X103.192 Y85.870 E1.70362
G1 X103.728 Y85.870 E0.01686
G1 X141.988 Y124.130 E1.70362
G1 X142.524 Y124.130 E0.01686
G1 X104.263 Y85.870 E1.70362
G1 X104.799 Y85.870 E0.01686
G1 X143.059 Y124.130 E1.70362
G1 X143.595 Y124.130 E0.01686
G1 X105.334 Y85.870 E1.70362
G1 X105.870 Y85.870 E0.01686
G1 X144.130 Y124.130 E1.70362
M73 Q4 S96
M73 P4 R96
G1 X144.666 Y124.130 E0.01686
G1 X106.405 Y85.870 E1.70362
G1 X106.941 Y85.870 E0.01686
G1 X145.201 Y124.130 E1.70362
G1 X145.737 Y124.130 E0.01686
G1 X107.476 Y85.870 E1.70362
G1 X108.012 Y85.870 E0.01686
G1 X146.272 Y124.130 E1.70362
G1 X146.808 Y124.130 E0.01686
G1 X108.547 Y85.870 E1.70362
G1 X109.083 Y85.870 E0.01686
G1 X147.343 Y124.130 E1.70362
G1 X147.879 Y124.130 E0.01686
G1 X109.618 Y85.870 E1.70362
G1 X110.154 Y85.870 E0.01686
G1 X148.414 Y124.130 E1.70362
G1 X148.950 Y124.130 E0.01686
G1 X110.689 Y85.870 E1.70362
G1 X111.225 Y85.870 E0.01686
G1 X149.485 Y124.130 E1.70362
G1 X150.021 Y124.130 E0.01686
G1 X111.760 Y85.870 E1.70362
G1 X112.296 Y85.870 E0.01686
G1 X150.556 Y124.130 E1.70362
G1 X151.092 Y124.130 E0.01686
G1 X112.831 Y85.870 E1.70362
G1 X113.367 Y85.870 E0.01686
G1 X151.627 Y124.130 E1.70362
G1 X152.163 Y124.130 E0.01686
G1 X113.902 Y85.870 E1.70362
G1 X114.438 Y85.870 E0.01686
G1 X152.698 Y124.130 E1.70362
G1 X153.234 Y124.130 E0.01686
G1 X114.973 Y85.870 E1.70362
G1 X115.509 Y85.870 E0.01686
G1 X153.769 Y124.130 E1.70362
G1 X154.305 Y124.130 E0.01686
G1 X116.044 Y85.870 E1.70362
G1 X116.580 Y85.870 E0.01686
G1 X154.840 Y124.130 E1.70362
G1 X155.376 Y124.130 E0.01686
G1 X117.115 Y85.870 E1.70362
G1 X117.651 Y85.870 E0.01686
G1 X155.911 Y124.130 E1.70362
M73 Q5 S95
M73 P5 R95
G1 X156.447 Y124.130 E0.01686
G1 X118.186 Y85.870 E1.70362
G1 X118.722 Y85.870 E0.01686
G1 X156.982 Y124.130 E1.70362
G1 X157.518 Y124.130 E0.01686
G1 X119.257 Y85.870 E1.70362
G1 X119.793 Y85.870 E0.01686
G1 X158.053 Y124.130 E1.70362
G1 X158.589 Y124.130 E0.01686
G1 X120.328 Y85.870 E1.70362
G1 X120.864 Y85.870 E0.01686
G1 X159.124 Y124.130 E1.70362
G1 X159.660 Y124.130 E0.01686
G1 X121.399 Y85.870 E1.70362
G1 X121.935 Y85.870 E0.01686
G1 X160.195 Y124.130 E1.70362
G1 X160.731 Y124.130 E0.01686
G1 X122.470 Y85.870 E1.70362
G1 X123.006 Y85.870 E0.01686
G1 X161.266 Y124.130 E1.70362
G1 X161.802 Y124.130 E0.01686
G1 X123.541 Y85.870 E1.70362
G1 X124.077 Y85.870 E0.01686
G1 X162.337 Y124.130 E1.70362
G1 X162.873 Y124.130 E0.01686
G1 X124.612 Y85.870 E1.70362
G1 X125.148 Y85.870 E0.01686
G1 X163.408 Y124.130 E1.70362
G1 X163.944 Y124.130 E0.01686
G1 X125.683 Y85.870 E1.70362
G1 X126.219 Y85.870 E0.01686
G1 X164.130 Y123.781 E1.68808
G1 X164.130 Y123.246 E0.01686
G1 X126.754 Y85.870 E1.66423
G1 X127.290 Y85.870 E0.01686
G1 X164.130 Y122.710 E1.64039
G1 X164.130 Y122.175 E0.01686
G1 X127.825 Y85.870 E1.61654
G1 X128.361 Y85.870 E0.01686
G1 X164.130 Y121.639 E1.59270
G1 X164.130 Y121.104 E0.01686
G1 X128.896 Y85.870 E1.56886
G1 X129.432 Y85.870 E0.01686
G1 X164.130 Y120.568 E1.54501
G1 X164.130 Y120.033 E0.01686
G1 X129.967 Y85.870 E1.52117
M73 Q6 S94
M73 P6 R94
G1 X130.503 Y85.870 E0.01686
G1 X164.130 Y119.497 E1.49732
G1 X164.130 Y118.962 E0.01686
G1 X131.038 Y85.870 E1.47348
G1 X131.574 Y85.870 E0.01686
G1 X164.130 Y118.426 E1.44963
G1 X164.130 Y117.891 E0.01686
G1 X132.109 Y85.870 E1.42579
G1 X132.645 Y85.870 E0.01686
G1 X164.130 Y117.355 E1.40195
G1 X164.130 Y116.820 E0.01686
G1 X133.180 Y85.870 E1.37810
G1 X133.716 Y85.870 E0.01686
G1 X164.130 Y116.284 E1.35426
G1 X164.130 Y115.749 E0.01686
G1 X134.251 Y85.870 E1.33041
G1 X134.787 Y85.870 E0.01686
G1 X164.130 Y115.213 E1.30657
G1 X164.130 Y114.678 E0.01686
G1 X135.322 Y85.870 E1.28272
G1 X135.858 Y85.870 E0.01686
G1 X164.130 Y114.142 E1.25888
G1 X164.130 Y113.607 E0.01686
G1 X136.393 Y85.870 E1.23504
G1 X136.929 Y85.870 E0.01686
G1 X164.130 Y113.071 E1.21119
G1 X164.130 Y112.536 E0.01686
G1 X137.464 Y85.870 E1.18735
G1 X138.000 Y85.870 E0.01686
G1 X164.130 Y112.000 E1.16350
G1 X164.130 Y111.465 E0.01686
G1 X138.535 Y85.870 E1.13966
G1 X139.071 Y85.870 E0.01686
G1 X164.130 Y110.929 E1.11582
G1 X164.130 Y110.394 E0.01686
G1 X139.606 Y85.870 E1.09197
G1 X140.142 Y85.870 E0.01686
G1 X164.130 Y109.858 E1.06813
G1 X164.130 Y109.323 E0.01686
G1 X140.677 Y85.870 E1.04428
G1 X141.213 Y85.870 E0.01686
G1 X164.130 Y108.787 E1.02044
G1 X164.130 Y108.252 E0.01686
G1 X141.748 Y85.870 E0.99659
G1 X142.284 Y85.870 E0.01686
G1 X164.130 Y107.716 E0.97275
G1 X164.130 Y107.181 E0.01686
G1 X142.819 Y85.870 E0.94891
G1 X143.355 Y85.870 E0.01686
G1 X164.130 Y106.645 E0.92506
G1 X164.130 Y106.110 E0.01686
G1 X143.890 Y85.870 E0.90122
G1 X144.426 Y85.870 E0.01686
G1 X164.130 Y105.574 E0.87737
G1 X164.130 Y105.039 E0.01686
G1 X144.961 Y85.870 E0.85353
G1 X145.497 Y85.870 E0.01686
G1 X164.130 Y104.503 E0.82968
G1 X164.130 Y103.968 E0.01686
G1 X146.032 Y85.870 E0.80584
G1 X146.568 Y85.870 E0.01686
G1 X164.130 Y103.432 E0.78200
G1 X164.130 Y102.897 E0.01686
G1 X147.103 Y85.870 E0.75815
G1 X147.639 Y85.870 E0.01686
G1 X164.130 Y102.361 E0.73431
G1 X164.130 Y101.826 E0.01686
G1 X148.174 Y85.870 E0.71046
M73 Q7 S93
M73 P7 R93
G1 X148.710 Y85.870 E0.01686
G1 X164.130 Y101.290 E0.68662
G1 X164.130 Y100.755 E0.01686
G1 X149.245 Y85.870 E0.66277
G1 X149.781 Y85.870 E0.01686
G1 X164.130 Y100.219 E0.63893
G1 X164.130 Y99.684 E0.01686
G1 X150.316 Y85.870 E0.61509
G1 X150.852 Y85.870 E0.01686
G1 X164.130 Y99.148 E0.59124
G1 X164.130 Y98.613 E0.01686
G1 X151.387 Y85.870 E0.56740
G1 X151.923 Y85.870 E0.01686
G1 X164.130 Y98.077 E0.54355
G1 X164.130 Y97.542 E0.01686
G1 X152.458 Y85.870 E0.51971
G1 X152.994 Y85.870 E0.01686
G1 X164.130 Y97.006 E0.49586
G1 X164.130 Y96.471 E0.01686
G1 X153.529 Y85.870 E0.47202
G1 X154.065 Y85.870 E0.01686
G1 X164.130 Y95.935 E0.44818
G1 X164.130 Y95.400 E0.01686
G1 X154.600 Y85.870 E0.42433
G1 X155.136 Y85.870 E0.01686
G1 X164.130 Y94.864 E0.40049
G1 X164.130 Y94.329 E0.01686
G1 X155.671 Y85.870 E0.37664
G1 X156.207 Y85.870 E0.01686
G1 X164.130 Y93.793 E0.35280
G1 X164.130 Y93.258 E0.01686
G1 X156.742 Y85.870 E0.32895
G1 X157.278 Y85.870 E0.01686
G1 X164.130 Y92.722 E0.30511
G1 X164.130 Y92.187 E0.01686
G1 X157.813 Y85.870 E0.28127
G1 X158.349 Y85.870 E0.01686
G1 X164.130 Y91.651 E0.25742
G1 X164.130 Y91.116 E0.01686
G1 X158.884 Y85.870 E0.23358
G1 X159.420 Y85.870 E0.01686
G1 X164.130 Y90.580 E0.20973
G1 X164.130 Y90.045 E0.01686
G1 X159.955 Y85.870 E0.18589
G1 X160.491 Y85.870 E0.01686
G1 X164.130 Y89.509 E0.16204
G1 X164.130 Y88.974 E0.01686
G1 X161.026 Y85.870 E0.13820
G1 X161.562 Y85.870 E0.01686
G1 X164.130 Y88.438 E0.11436
G1 X164.130 Y87.903 E0.01686
G1 X162.097 Y85.870 E0.09051
G1 X162.633 Y85.870 E0.01686
G1 X164.130 Y87.367 E0.06667
G1 X164.130 Y86.832 E0.01686
G1 X163.168 Y85.870 E0.04282
G1 X163.704 Y85.870 E0.01686
G1 X164.300 Y86.466 E0.02653
;BEFORE_LAYER_CHANGE
G92 E0.0
;0.35


G1 F8640
G1 X163.704 Y85.870 E-0.19460
G1 X163.168 Y85.870 E-0.12365
G1 X164.130 Y86.832 E-0.31405
G1 X164.130 Y87.367 E-0.12365
