; generated by PrusaSlicer 2.2.0+win64 on 2020-09-20 at 15:59:09 UTC

; 

; external perimeters extrusion width = 0.45mm
; perimeters extrusion width = 0.45mm
; infill extrusion width = 0.45mm
; solid infill extrusion width = 0.45mm
; top infill extrusion width = 0.40mm
; first layer extrusion width = 0.42mm

M73 P0 R54
M73 Q0 S54
M201 X1000 Y1000 Z200 E5000 ; sets maximum accelerations, mm/sec^2
M203 X200 Y200 Z12 E120 ; sets maximum feedrates, mm/sec
M204 P1250 R1250 T1250 ; sets acceleration (P, T) and retract acceleration (R), mm/sec^2
M205 X8.00 Y8.00 Z0.40 E4.50 ; sets the jerk limits, mm/sec
M205 S0 T0 ; sets the minimum extruding and travel feed rate, mm/sec
M107
M862.3 P "MK3S" ; printer model check
M862.1 P0.4 ; nozzle diameter check
M115 U3.9.0 ; tell printer latest fw version
G90 ; use absolute coordinates
M83 ; extruder relative mode
M104 S230 ; set extruder temp
M140 S85 ; set bed temp
M190 S85 ; wait for bed temp
M109 S230 ; wait for extruder temp
G28 W ; home all without mesh bed level
G80 ; mesh bed leveling
G1 Y-3.0 F1000.0 ; go outside print area
G92 E0.0
G1 X60.0 E9.0 F1000.0 ; intro line
M73 Q0 S54
M73 P0 R54
G1 X100.0 E12.5 F1000.0 ; intro line
G92 E0.0
M221 S95

; Don't change E values below. Excessive value can damage the printer.
M907 E430 ; set extruder motor current
G21 ; set units to millimeters
G90 ; use absolute coordinates
M83 ; use relative distances for extrusion
M900 K0.12 ; Filament gcode LA 1.5
M900 K45 ; Filament gcode LA 1.0
;BEFORE_LAYER_CHANGE
G92 E0.0
;0.2


G1 E-1.40000 F2100.00000
G1 Z0.200 F10800.000
;AFTER_LAYER_CHANGE
;0.2
G1 Z0.400
G1 X103.351 Y93.288
G1 Z0.200
G1 E1.40000 F2100.00000
M204 S1000
G1 F1200.000
G1 X103.840 Y92.925 E0.01906
G1 X104.392 Y92.702 E0.01870
G1 X104.984 Y92.623 E0.01870
G1 X145.004 Y92.623 E1.25480
G1 X145.888 Y92.795 E0.02825
G1 X146.642 Y93.281 E0.02813
G1 X147.162 Y94.013 E0.02813
G1 X147.374 Y94.888 E0.02825
G1 X147.374 Y115.129 E0.63464
G1 X147.267 Y115.716 E0.01870
G1 X147.017 Y116.258 E0.01870
G1 X146.640 Y116.720 E0.01870
G1 X146.160 Y117.075 E0.01870
G1 X145.608 Y117.298 E0.01870
G1 X145.016 Y117.377 E0.01870
G1 X104.950 Y117.377 E1.25624
G1 X104.342 Y117.284 E0.01929
G1 X103.778 Y117.039 E0.01929
G1 X103.295 Y116.657 E0.01929
G1 X102.925 Y116.160 E0.01941
G1 X102.704 Y115.615 E0.01846
G1 X102.623 Y115.032 E0.01846
G1 X102.625 Y94.909 E0.63094
G1 X102.724 Y94.313 E0.01894
G1 X102.973 Y93.758 E0.01906
G1 X103.314 Y93.334 E0.01706
G1 F8640.000
G1 X103.840 Y92.925 E-0.15378
G1 X104.392 Y92.702 E-0.13772
G1 X104.984 Y92.623 E-0.13772
G1 X108.885 Y92.623 E-0.90078
G1 E-0.07000 F2100.00000
G1 Z0.400 F10800.000
G1 X105.787 Y95.787
G1 Z0.200
G1 E1.40000 F2100.00000
G1 F1200.000
G1 X144.213 Y95.787 E1.20482
G1 X144.213 Y114.213 E0.57773
G1 X105.787 Y114.213 E1.20482
G1 X105.787 Y95.847 E0.57585
G1 X105.410 Y95.410 F10800.000
G1 F1200.000
G1 X144.590 Y95.410 E1.22846
G1 X144.590 Y114.590 E0.60138
G1 X105.410 Y114.590 E1.22846
G1 X105.410 Y95.470 E0.59949
G1 X105.805 Y95.470 F10800.000
G1 F8640.000
G1 X111.170 Y95.461 E-1.33000
G1 E-0.07000 F2100.00000
G1 Z0.400 F10800.000
G1 X144.100 Y96.669
G1 Z0.200
G1 E1.40000 F2100.00000
G1 F1200.000
G1 X143.500 Y96.070 E0.02681
G1 X142.962 Y96.070 E0.01701
G1 X143.930 Y97.038 E0.04327
G1 X143.930 Y97.575 E0.01701
G1 X142.425 Y96.070 E0.06733
G1 X141.887 Y96.070 E0.01701
G1 X143.930 Y98.113 E0.09138
G1 X143.930 Y98.651 E0.01701
G1 X141.349 Y96.070 E0.11544
G1 X140.811 Y96.070 E0.01701
G1 X143.930 Y99.189 E0.13949
G1 X143.930 Y99.727 E0.01701
G1 X140.273 Y96.070 E0.16355
G1 X139.735 Y96.070 E0.01701
G1 X143.930 Y100.265 E0.18760
G1 X143.930 Y100.802 E0.01701
G1 X139.198 Y96.070 E0.21165
G1 X138.660 Y96.070 E0.01701
G1 X143.930 Y101.340 E0.23571
G1 X143.930 Y101.878 E0.01701
G1 X138.122 Y96.070 E0.25976
G1 X137.584 Y96.070 E0.01701
G1 X143.930 Y102.416 E0.28382
G1 X143.930 Y102.954 E0.01701
G1 X137.046 Y96.070 E0.30787
G1 X136.508 Y96.070 E0.01701
G1 X143.930 Y103.492 E0.33193
G1 X143.930 Y104.030 E0.01701
G1 X135.970 Y96.070 E0.35598
G1 X135.433 Y96.070 E0.01701
G1 X143.930 Y104.567 E0.38003
G1 X143.930 Y105.105 E0.01701
G1 X134.895 Y96.070 E0.40409
G1 X134.357 Y96.070 E0.01701
G1 X143.930 Y105.643 E0.42814
G1 X143.930 Y106.181 E0.01701
G1 X133.819 Y96.070 E0.45220
G1 X133.281 Y96.070 E0.01701
G1 X143.930 Y106.719 E0.47625
G1 X143.930 Y107.257 E0.01701
G1 X132.743 Y96.070 E0.50031
G1 X132.205 Y96.070 E0.01701
G1 X143.930 Y107.795 E0.52436
G1 X143.930 Y108.332 E0.01701
G1 X131.668 Y96.070 E0.54841
G1 X131.130 Y96.070 E0.01701
G1 X143.930 Y108.870 E0.57247
G1 X143.930 Y109.408 E0.01701
G1 X130.592 Y96.070 E0.59652
G1 X130.054 Y96.070 E0.01701
G1 X143.930 Y109.946 E0.62058
G1 X143.930 Y110.484 E0.01701
G1 X129.516 Y96.070 E0.64463
G1 X128.978 Y96.070 E0.01701
G1 X143.930 Y111.022 E0.66869
G1 X143.930 Y111.560 E0.01701
G1 X128.440 Y96.070 E0.69274
G1 X127.903 Y96.070 E0.01701
G1 X143.930 Y112.097 E0.71679
G1 X143.930 Y112.635 E0.01701
G1 X127.365 Y96.070 E0.74085
G1 X126.827 Y96.070 E0.01701
G1 X143.930 Y113.173 E0.76490
G1 X143.930 Y113.711 E0.01701
G1 X126.289 Y96.070 E0.78896
G1 X125.751 Y96.070 E0.01701
G1 X143.611 Y113.930 E0.79876
G1 X143.074 Y113.930 E0.01701
G1 X125.213 Y96.070 E0.79876
G1 X124.675 Y96.070 E0.01701
G1 X142.536 Y113.930 E0.79876
G1 X141.998 Y113.930 E0.01701
G1 X124.138 Y96.070 E0.79876
G1 X123.600 Y96.070 E0.01701
G1 X141.460 Y113.930 E0.79876
G1 X140.922 Y113.930 E0.01701
G1 X123.062 Y96.070 E0.79876
G1 X122.524 Y96.070 E0.01701
G1 X140.384 Y113.930 E0.79876
G1 X139.846 Y113.930 E0.01701
G1 X121.986 Y96.070 E0.79876
G1 X121.448 Y96.070 E0.01701
G1 X139.309 Y113.930 E0.79876
G1 X138.771 Y113.930 E0.01701
G1 X120.910 Y96.070 E0.79876
G1 X120.373 Y96.070 E0.01701
G1 X138.233 Y113.930 E0.79876
G1 X137.695 Y113.930 E0.01701
G1 X119.835 Y96.070 E0.79876
M73 Q1 S53
M73 P1 R53
G1 X119.297 Y96.070 E0.01701
G1 X137.157 Y113.930 E0.79876
G1 X136.619 Y113.930 E0.01701
G1 X118.759 Y96.070 E0.79876
G1 X118.221 Y96.070 E0.01701
G1 X136.081 Y113.930 E0.79876
G1 X135.544 Y113.930 E0.01701
G1 X117.683 Y96.070 E0.79876
G1 X117.146 Y96.070 E0.01701
G1 X135.006 Y113.930 E0.79876
G1 X134.468 Y113.930 E0.01701
G1 X116.608 Y96.070 E0.79876
G1 X116.070 Y96.070 E0.01701
G1 X133.930 Y113.930 E0.79876
G1 X133.392 Y113.930 E0.01701
G1 X115.532 Y96.070 E0.79876
G1 X114.994 Y96.070 E0.01701
G1 X132.854 Y113.930 E0.79876
G1 X132.316 Y113.930 E0.01701
G1 X114.456 Y96.070 E0.79876
G1 X113.918 Y96.070 E0.01701
G1 X131.779 Y113.930 E0.79876
G1 X131.241 Y113.930 E0.01701
G1 X113.381 Y96.070 E0.79876
G1 X112.843 Y96.070 E0.01701
G1 X130.703 Y113.930 E0.79876
G1 X130.165 Y113.930 E0.01701
G1 X112.305 Y96.070 E0.79876
G1 X111.767 Y96.070 E0.01701
G1 X129.627 Y113.930 E0.79876
G1 X129.089 Y113.930 E0.01701
G1 X111.229 Y96.070 E0.79876
G1 X110.691 Y96.070 E0.01701
G1 X128.552 Y113.930 E0.79876
G1 X128.014 Y113.930 E0.01701
G1 X110.153 Y96.070 E0.79876
G1 X109.616 Y96.070 E0.01701
G1 X127.476 Y113.930 E0.79876
G1 X126.938 Y113.930 E0.01701
G1 X109.078 Y96.070 E0.79876
G1 X108.540 Y96.070 E0.01701
G1 X126.400 Y113.930 E0.79876
G1 X125.862 Y113.930 E0.01701
G1 X108.002 Y96.070 E0.79876
G1 X107.464 Y96.070 E0.01701
G1 X125.324 Y113.930 E0.79876
G1 X124.787 Y113.930 E0.01701
G1 X106.926 Y96.070 E0.79876
G1 X106.388 Y96.070 E0.01701
G1 X124.249 Y113.930 E0.79876
G1 X123.711 Y113.930 E0.01701
G1 X106.070 Y96.289 E0.78895
G1 X106.070 Y96.827 E0.01701
G1 X123.173 Y113.930 E0.76490
G1 X122.635 Y113.930 E0.01701
G1 X106.070 Y97.365 E0.74084
G1 X106.070 Y97.903 E0.01701
G1 X122.097 Y113.930 E0.71679
G1 X121.559 Y113.930 E0.01701
G1 X106.070 Y98.441 E0.69273
G1 X106.070 Y98.978 E0.01701
G1 X121.022 Y113.930 E0.66868
G1 X120.484 Y113.930 E0.01701
G1 X106.070 Y99.516 E0.64463
G1 X106.070 Y100.054 E0.01701
G1 X119.946 Y113.930 E0.62057
G1 X119.408 Y113.930 E0.01701
G1 X106.070 Y100.592 E0.59652
G1 X106.070 Y101.130 E0.01701
G1 X118.870 Y113.930 E0.57246
G1 X118.332 Y113.930 E0.01701
G1 X106.070 Y101.668 E0.54841
G1 X106.070 Y102.206 E0.01701
G1 X117.794 Y113.930 E0.52435
G1 X117.257 Y113.930 E0.01701
G1 X106.070 Y102.743 E0.50030
G1 X106.070 Y103.281 E0.01701
G1 X116.719 Y113.930 E0.47625
G1 X116.181 Y113.930 E0.01701
G1 X106.070 Y103.819 E0.45219
G1 X106.070 Y104.357 E0.01701
G1 X115.643 Y113.930 E0.42814
G1 X115.105 Y113.930 E0.01701
G1 X106.070 Y104.895 E0.40408
G1 X106.070 Y105.433 E0.01701
G1 X114.567 Y113.930 E0.38003
G1 X114.029 Y113.930 E0.01701
G1 X106.070 Y105.971 E0.35597
G1 X106.070 Y106.508 E0.01701
G1 X113.492 Y113.930 E0.33192
G1 X112.954 Y113.930 E0.01701
G1 X106.070 Y107.046 E0.30787
G1 X106.070 Y107.584 E0.01701
G1 X112.416 Y113.930 E0.28381
G1 X111.878 Y113.930 E0.01701
G1 X106.070 Y108.122 E0.25976
G1 X106.070 Y108.660 E0.01701
G1 X111.340 Y113.930 E0.23570
G1 X110.802 Y113.930 E0.01701
G1 X106.070 Y109.198 E0.21165
G1 X106.070 Y109.736 E0.01701
G1 X110.264 Y113.930 E0.18759
G1 X109.727 Y113.930 E0.01701
G1 X106.070 Y110.273 E0.16354
G1 X106.070 Y110.811 E0.01701
G1 X109.189 Y113.930 E0.13949
G1 X108.651 Y113.930 E0.01701
G1 X106.070 Y111.349 E0.11543
G1 X106.070 Y111.887 E0.01701
G1 X108.113 Y113.930 E0.09138
G1 X107.575 Y113.930 E0.01701
G1 X106.070 Y112.425 E0.06732
G1 X106.070 Y112.963 E0.01701
G1 X107.037 Y113.930 E0.04327
G1 X106.500 Y113.930 E0.01701
G1 X105.900 Y113.331 E0.02680
;BEFORE_LAYER_CHANGE
G92 E0.0
;0.35


G1 F8640.000
G1 X106.500 Y113.930 E-0.19571
G1 X107.037 Y113.930 E-0.12419
G1 X106.070 Y112.963 E-0.31593
G1 X106.070 Y112.425 E-0.12419
G1 X107.575 Y113.930 E-0.49157
G1 X107.915 Y113.930 E-0.07841
G1 E-0.07000 F2100.00000
G1 Z0.400 F10800.000
;AFTER_LAYER_CHANGE
;0.35
M104 S240 ; set temperature
M140 S90 ; set bed temperature
G1 X147.162 Y94.013
G1 Z0.350
G1 E1.40000 F2100.00000
G1 F3000.000
G1 X147.374 Y94.888 E0.02179
G1 X147.374 Y115.129 E0.48952
G1 X147.267 Y115.716 E0.01442
G1 X147.017 Y116.258 E0.01442
G1 X146.640 Y116.720 E0.01442
G1 X146.160 Y117.075 E0.01442
G1 X145.608 Y117.298 E0.01442
G1 X145.016 Y117.377 E0.01442
G1 X104.950 Y117.377 E0.96899
G1 X104.342 Y117.284 E0.01488
G1 X103.778 Y117.039 E0.01488
G1 X103.295 Y116.657 E0.01488
G1 X102.925 Y116.160 E0.01497
G1 X102.704 Y115.615 E0.01424
G1 X102.623 Y115.032 E0.01424
G1 X102.625 Y94.909 E0.48667
G1 X102.724 Y94.313 E0.01461
G1 X102.973 Y93.758 E0.01470
G1 X103.351 Y93.288 E0.01461
G1 X103.840 Y92.925 E0.01470
G1 X104.392 Y92.702 E0.01442
G1 X104.984 Y92.623 E0.01442
G1 X145.004 Y92.623 E0.96788
G1 X145.888 Y92.795 E0.02179
G1 X146.642 Y93.281 E0.02170
G1 X147.128 Y93.964 E0.02025
G1 F8640.000
G1 X147.374 Y94.888 E-0.22098
G1 X147.374 Y99.691 E-1.10902
G1 E-0.07000 F2100.00000
G1 Z0.550 F10800.000
G1 X144.357 Y95.643
G1 Z0.350
G1 E1.40000 F2100.00000
M204 S800
G1 F2700.000
G1 X144.357 Y114.357 E0.48762
G1 X105.643 Y114.357 E1.00873
M73 Q3 S52
M73 P3 R52
G1 X105.643 Y95.643 E0.48762
G1 X144.297 Y95.643 E1.00717
M204 S1000
G1 X144.775 Y95.225 F10800.000
M204 S800
G1 F1500.000
G1 X144.775 Y114.775 E0.50939
G1 X105.225 Y114.775 E1.03051
G1 X105.225 Y95.225 E0.50939
G1 X144.715 Y95.225 E1.02894
M204 S1000
G1 X144.630 Y95.598 F10800.000
G1 F8640.000
G1 X144.733 Y100.985 E-1.33000
G1 E-0.07000 F2100.00000
G1 Z0.550 F10800.000
G1 X105.768 Y96.617
G1 Z0.350
G1 E1.40000 F2100.00000
G1 F4800.000
G1 X106.429 Y95.956 E0.02448
G1 X107.023 Y95.956 E0.01555
G1 X105.956 Y97.023 E0.03951
G1 X105.956 Y97.617 E0.01555
G1 X107.617 Y95.956 E0.06150
G1 X108.211 Y95.956 E0.01555
G1 X105.956 Y98.211 E0.08350
G1 X105.956 Y98.805 E0.01555
G1 X108.805 Y95.956 E0.10549
G1 X109.398 Y95.956 E0.01555
G1 X105.956 Y99.398 E0.12748
G1 X105.956 Y99.992 E0.01555
G1 X109.992 Y95.956 E0.14948
G1 X110.586 Y95.956 E0.01555
G1 X105.956 Y100.586 E0.17147
G1 X105.956 Y101.180 E0.01555
G1 X111.180 Y95.956 E0.19347
G1 X111.774 Y95.956 E0.01555
G1 X105.956 Y101.774 E0.21546
G1 X105.956 Y102.368 E0.01555
G1 X112.368 Y95.956 E0.23745
G1 X112.962 Y95.956 E0.01555
G1 X105.956 Y102.962 E0.25945
G1 X105.956 Y103.555 E0.01555
G1 X113.555 Y95.956 E0.28144
G1 X114.149 Y95.956 E0.01555
G1 X105.956 Y104.149 E0.30343
G1 X105.956 Y104.743 E0.01555
G1 X114.743 Y95.956 E0.32543
G1 X115.337 Y95.956 E0.01555
G1 X105.956 Y105.337 E0.34742
G1 X105.956 Y105.931 E0.01555
G1 X115.931 Y95.956 E0.36942
G1 X116.525 Y95.956 E0.01555
G1 X105.956 Y106.525 E0.39141
G1 X105.956 Y107.119 E0.01555
G1 X117.119 Y95.956 E0.41340
G1 X117.713 Y95.956 E0.01555
G1 X105.956 Y107.713 E0.43540
G1 X105.956 Y108.306 E0.01555
G1 X118.306 Y95.956 E0.45739
G1 X118.900 Y95.956 E0.01555
G1 X105.956 Y108.900 E0.47938
G1 X105.956 Y109.494 E0.01555
G1 X119.494 Y95.956 E0.50138
G1 X120.088 Y95.956 E0.01555
G1 X105.956 Y110.088 E0.52337
G1 X105.956 Y110.682 E0.01555
G1 X120.682 Y95.956 E0.54537
G1 X121.276 Y95.956 E0.01555
G1 X105.956 Y111.276 E0.56736
G1 X105.956 Y111.870 E0.01555
G1 X121.870 Y95.956 E0.58935
G1 X122.463 Y95.956 E0.01555
G1 X105.956 Y112.463 E0.61135
G1 X105.956 Y113.057 E0.01555
G1 X123.057 Y95.956 E0.63334
G1 X123.651 Y95.956 E0.01555
G1 X105.956 Y113.651 E0.65533
G1 X105.956 Y114.044 E0.01028
G1 X106.157 Y114.044 E0.00527
G1 X124.245 Y95.956 E0.66988
G1 X124.839 Y95.956 E0.01555
G1 X106.751 Y114.044 E0.66988
G1 X107.345 Y114.044 E0.01555
G1 X125.433 Y95.956 E0.66988
G1 X126.027 Y95.956 E0.01555
G1 X107.939 Y114.044 E0.66988
G1 X108.533 Y114.044 E0.01555
G1 X126.620 Y95.956 E0.66988
G1 X127.214 Y95.956 E0.01555
G1 X109.127 Y114.044 E0.66988
G1 X109.721 Y114.044 E0.01555
G1 X127.808 Y95.956 E0.66988
G1 X128.402 Y95.956 E0.01555
G1 X110.314 Y114.044 E0.66988
G1 X110.908 Y114.044 E0.01555
G1 X128.996 Y95.956 E0.66988
G1 X129.590 Y95.956 E0.01555
G1 X111.502 Y114.044 E0.66988
G1 X112.096 Y114.044 E0.01555
G1 X130.184 Y95.956 E0.66988
G1 X130.778 Y95.956 E0.01555
G1 X112.690 Y114.044 E0.66988
G1 X113.284 Y114.044 E0.01555
G1 X131.371 Y95.956 E0.66988
G1 X131.965 Y95.956 E0.01555
G1 X113.878 Y114.044 E0.66988
G1 X114.471 Y114.044 E0.01555
G1 X132.559 Y95.956 E0.66988
G1 X133.153 Y95.956 E0.01555
G1 X115.065 Y114.044 E0.66988
G1 X115.659 Y114.044 E0.01555
G1 X133.747 Y95.956 E0.66988
G1 X134.341 Y95.956 E0.01555
G1 X116.253 Y114.044 E0.66988
G1 X116.847 Y114.044 E0.01555
G1 X134.935 Y95.956 E0.66988
G1 X135.528 Y95.956 E0.01555
G1 X117.441 Y114.044 E0.66988
G1 X118.035 Y114.044 E0.01555
G1 X136.122 Y95.956 E0.66988
G1 X136.716 Y95.956 E0.01555
G1 X118.628 Y114.044 E0.66988
G1 X119.222 Y114.044 E0.01555
G1 X137.310 Y95.956 E0.66988
G1 X137.904 Y95.956 E0.01555
G1 X119.816 Y114.044 E0.66988
G1 X120.410 Y114.044 E0.01555
G1 X138.498 Y95.956 E0.66988
G1 X139.092 Y95.956 E0.01555
G1 X121.004 Y114.044 E0.66988
G1 X121.598 Y114.044 E0.01555
G1 X139.685 Y95.956 E0.66988
G1 X140.279 Y95.956 E0.01555
G1 X122.192 Y114.044 E0.66988
G1 X122.786 Y114.044 E0.01555
G1 X140.873 Y95.956 E0.66988
G1 X141.467 Y95.956 E0.01555
G1 X123.379 Y114.044 E0.66988
G1 X123.973 Y114.044 E0.01555
G1 X142.061 Y95.956 E0.66988
G1 X142.655 Y95.956 E0.01555
G1 X124.567 Y114.044 E0.66988
G1 X125.161 Y114.044 E0.01555
G1 X143.249 Y95.956 E0.66988
G1 X143.843 Y95.956 E0.01555
G1 X125.755 Y114.044 E0.66988
G1 X126.349 Y114.044 E0.01555
G1 X144.044 Y96.349 E0.65534
G1 X144.044 Y96.943 E0.01555
G1 X126.943 Y114.044 E0.63334
G1 X127.536 Y114.044 E0.01555
G1 X144.044 Y97.536 E0.61135
G1 X144.044 Y98.130 E0.01555
G1 X128.130 Y114.044 E0.58936
G1 X128.724 Y114.044 E0.01555
G1 X144.044 Y98.724 E0.56736
G1 X144.044 Y99.318 E0.01555
G1 X129.318 Y114.044 E0.54537
G1 X129.912 Y114.044 E0.01555
G1 X144.044 Y99.912 E0.52338
G1 X144.044 Y100.506 E0.01555
G1 X130.506 Y114.044 E0.50138
G1 X131.100 Y114.044 E0.01555
G1 X144.044 Y101.100 E0.47939
G1 X144.044 Y101.694 E0.01555
G1 X131.694 Y114.044 E0.45739
G1 X132.287 Y114.044 E0.01555
G1 X144.044 Y102.287 E0.43540
G1 X144.044 Y102.881 E0.01555
G1 X132.881 Y114.044 E0.41341
G1 X133.475 Y114.044 E0.01555
G1 X144.044 Y103.475 E0.39141
G1 X144.044 Y104.069 E0.01555
G1 X134.069 Y114.044 E0.36942
G1 X134.663 Y114.044 E0.01555
G1 X144.044 Y104.663 E0.34743
G1 X144.044 Y105.257 E0.01555
G1 X135.257 Y114.044 E0.32543
G1 X135.851 Y114.044 E0.01555
G1 X144.044 Y105.851 E0.30344
G1 X144.044 Y106.444 E0.01555
