; generated by PrusaSlicer 2.1.1 on 2021-03-06 at 16:52:36 UTC

; 

; external perimeters extrusion width = 0.60mm
; perimeters extrusion width = 0.50mm
; infill extrusion width = 0.50mm
; solid infill extrusion width = 0.50mm
; top infill extrusion width = 0.45mm
; support material extrusion width = 0.38mm
; first layer extrusion width = 0.42mm

M73 P0 R276
M73 Q0 S280
M201 X1000 Y1000 Z200 E5000 ; sets maximum accelerations, mm/sec^2
M203 X200 Y200 Z12 E120 ; sets maximum feedrates, mm/sec
M204 P1250 R1250 T1250 ; sets acceleration (P, T) and retract acceleration (R), mm/sec^2
M205 X8.00 Y8.00 Z0.40 E4.50 ; sets the jerk limits, mm/sec
M205 S0 T0 ; sets the minimum extruding and travel feed rate, mm/sec
M107
M862.3 P "MK3S" ; printer model check
M862.1 P0.4 ; nozzle diameter check
M115 U3.9.1 ; tell printer latest fw version
G90 ; use absolute coordinates
M83 ; extruder relative mode
M104 S230 ; set extruder temp
M140 S85 ; set bed temp
M190 S85 ; wait for bed temp
M109 S230 ; wait for extruder temp
G28 W ; home all without mesh bed level
G80 ; mesh bed leveling
G1 Y-3.0 F1000.0 ; go outside print area
G92 E0.0
G1 X60.0 E9.0 F1000.0 ; intro line
M73 Q0 S280
M73 P0 R276
G1 X100.0 E12.5 F1000.0 ; intro line
G92 E0.0
M221 S95
G21 ; set units to millimeters
G90 ; use absolute coordinates
M83 ; use relative distances for extrusion
M900 K0.08 ; Filament gcode LA 1.5
M900 K45 ; Filament gcode LA 1.0
;BEFORE_LAYER_CHANGE
G92 E0.0
;0.2


G1 E-1.40000 F2100.00000
G1 Z0.200 F10800.000
;AFTER_LAYER_CHANGE
;0.2
G1 Z0.400
G1 X45.153 Y52.328
G1 Z0.200
G1 E1.40000 F2100.00000
M204 S1000
G1 F1200
G1 X45.494 Y51.701 E0.02236
G1 X45.838 Y51.349 E0.01544
G1 X46.252 Y51.083 E0.01544
G1 X46.715 Y50.916 E0.01544
G1 X47.200 Y50.857 E0.01532
G1 X129.428 Y50.857 E2.57818
G1 X197.700 Y56.321 E2.14748
G1 X198.172 Y56.417 E0.01510
G1 X198.608 Y56.613 E0.01498
G1 X198.994 Y56.901 E0.01510
G1 X199.305 Y57.263 E0.01498
G1 X199.589 Y57.846 E0.02032
G1 X199.689 Y58.490 E0.02044
G1 X199.689 Y151.500 E2.91626
G1 X199.570 Y152.211 E0.02259
G1 X199.227 Y152.844 E0.02259
G1 X198.543 Y153.424 E0.02810
G1 X197.685 Y153.681 E0.02810
G1 X129.499 Y158.766 E2.14384
G1 X68.320 Y158.768 E1.91825
G1 X47.159 Y158.597 E0.66349
G1 X46.483 Y158.470 E0.02157
G1 X45.877 Y158.137 E0.02168
G1 X45.523 Y157.790 E0.01555
G1 X45.256 Y157.372 E0.01555
G1 X45.090 Y156.909 E0.01544
G1 X45.032 Y156.416 E0.01555
G1 X45.032 Y53.035 E3.24146
G1 X45.143 Y52.387 E0.02059
G1 F8640
G1 X45.494 Y51.701 E-0.17784
G1 X45.838 Y51.349 E-0.11369
G1 X46.252 Y51.083 E-0.11369
G1 X46.715 Y50.916 E-0.11369
G1 X47.200 Y50.857 E-0.11285
G1 X50.224 Y50.857 E-0.69825
G1 E-0.07000 F2100.00000
G1 Z0.400 F10800.000
G1 X47.221 Y53.045
G1 Z0.200
G1 E1.40000 F2100.00000
G1 F1200
G1 X47.221 Y156.410 E3.24091
G1 X47.975 Y156.410 E0.02365
G1 X47.975 Y53.215 E3.23559
G1 X48.729 Y53.215 E0.02365
G1 X48.729 Y156.410 E3.23559
G1 X49.483 Y156.410 E0.02365
G1 X49.483 Y53.215 E3.23559
G1 X50.238 Y53.215 E0.02365
G1 X50.238 Y156.410 E3.23559
G1 X50.992 Y156.410 E0.02365
G1 X50.992 Y53.215 E3.23559
M73 Q0 S279
M73 P0 R275
G1 X51.746 Y53.215 E0.02365
G1 X51.746 Y156.410 E3.23559
G1 X52.500 Y156.410 E0.02365
G1 X52.500 Y53.215 E3.23559
G1 X53.254 Y53.215 E0.02365
G1 X53.254 Y156.410 E3.23559
G1 X54.008 Y156.410 E0.02365
G1 X54.008 Y53.215 E3.23559
G1 X54.762 Y53.215 E0.02365
G1 X54.762 Y156.410 E3.23559
G1 X55.517 Y156.410 E0.02365
G1 X55.517 Y53.215 E3.23559
G1 X56.271 Y53.215 E0.02365
G1 X56.271 Y156.410 E3.23559
G1 X57.025 Y156.410 E0.02365
G1 X57.025 Y53.215 E3.23559
G1 X57.779 Y53.215 E0.02365
G1 X57.779 Y156.410 E3.23559
G1 X58.533 Y156.410 E0.02365
G1 X58.533 Y53.215 E3.23559
G1 X59.287 Y53.215 E0.02365
G1 X59.287 Y156.410 E3.23559
G1 X60.042 Y156.410 E0.02365
G1 X60.042 Y53.215 E3.23559
M73 Q0 S278
M73 P0 R274
G1 X60.796 Y53.215 E0.02365
G1 X60.796 Y156.410 E3.23559
G1 X61.550 Y156.410 E0.02365
G1 X61.550 Y53.215 E3.23559
G1 X62.304 Y53.215 E0.02365
G1 X62.304 Y156.410 E3.23559
G1 X63.058 Y156.410 E0.02365
G1 X63.058 Y53.215 E3.23559
G1 X63.812 Y53.215 E0.02365
G1 X63.812 Y156.410 E3.23559
G1 X64.567 Y156.410 E0.02365
G1 X64.567 Y53.215 E3.23559
G1 X65.321 Y53.215 E0.02365
G1 X65.321 Y156.410 E3.23559
G1 X66.075 Y156.410 E0.02365
G1 X66.075 Y53.215 E3.23559
G1 X66.829 Y53.215 E0.02365
G1 X66.829 Y156.410 E3.23559
G1 X67.583 Y156.410 E0.02365
G1 X67.583 Y53.215 E3.23559
G1 X68.337 Y53.215 E0.02365
G1 X68.337 Y156.579 E3.24091
G1 X129.424 Y156.579 F10800.000
G1 F1200
G1 X129.424 Y151.989 E0.14394
G1 X128.670 Y151.989 E0.02365
G1 X128.670 Y156.410 E0.13862
G1 X127.916 Y156.410 E0.02365
G1 X127.916 Y151.989 E0.13862
G1 X127.162 Y151.989 E0.02365
G1 X127.162 Y156.410 E0.13862
G1 X126.408 Y156.410 E0.02365
G1 X126.408 Y151.989 E0.13862
G1 X125.653 Y151.989 E0.02365
G1 X125.653 Y156.410 E0.13862
G1 X124.899 Y156.410 E0.02365
G1 X124.899 Y151.989 E0.13862
G1 X124.798 Y151.989 E0.00319
G1 X124.511 Y151.702 E0.01269
G1 X124.511 Y145.840 E0.18381
M73 Q1 S277
M73 P1 R273
G1 X124.145 Y145.840 E0.01149
G1 X124.145 Y156.410 E0.33140
G1 X123.391 Y156.410 E0.02365
G1 X123.391 Y145.840 E0.33140
G1 X122.637 Y145.840 E0.02365
G1 X122.637 Y156.410 E0.33140
G1 X121.883 Y156.410 E0.02365
G1 X121.883 Y145.840 E0.33140
G1 X121.128 Y145.840 E0.02365
G1 X121.128 Y156.410 E0.33140
G1 X120.374 Y156.410 E0.02365
G1 X120.374 Y145.840 E0.33140
G1 X119.620 Y145.840 E0.02365
G1 X119.620 Y156.410 E0.33140
G1 X118.866 Y156.410 E0.02365
G1 X118.866 Y145.840 E0.33140
G1 X118.112 Y145.840 E0.02365
G1 X118.112 Y156.410 E0.33140
G1 X117.358 Y156.410 E0.02365
G1 X117.358 Y145.840 E0.33140
G1 X116.604 Y145.840 E0.02365
G1 X116.604 Y156.410 E0.33140
G1 X115.849 Y156.410 E0.02365
G1 X115.849 Y145.840 E0.33140
G1 X115.095 Y145.840 E0.02365
G1 X115.095 Y156.410 E0.33140
G1 X114.341 Y156.410 E0.02365
G1 X114.341 Y145.840 E0.33140
G1 X113.587 Y145.840 E0.02365
G1 X113.587 Y156.410 E0.33140
G1 X112.833 Y156.410 E0.02365
G1 X112.833 Y145.840 E0.33140
G1 X112.079 Y145.840 E0.02365
G1 X112.079 Y156.410 E0.33140
G1 X111.324 Y156.410 E0.02365
G1 X111.324 Y145.840 E0.33140
G1 X110.570 Y145.840 E0.02365
G1 X110.570 Y156.410 E0.33140
G1 X109.816 Y156.410 E0.02365
G1 X109.816 Y145.840 E0.33140
G1 X109.062 Y145.840 E0.02365
G1 X109.062 Y156.410 E0.33140
G1 X108.308 Y156.410 E0.02365
G1 X108.308 Y145.840 E0.33140
G1 X107.554 Y145.840 E0.02365
G1 X107.554 Y156.410 E0.33140
G1 X106.799 Y156.410 E0.02365
G1 X106.799 Y145.840 E0.33140
G1 X106.045 Y145.840 E0.02365
G1 X106.045 Y156.410 E0.33140
G1 X105.291 Y156.410 E0.02365
G1 X105.291 Y145.840 E0.33140
G1 X104.537 Y145.840 E0.02365
G1 X104.537 Y156.410 E0.33140
G1 X103.783 Y156.410 E0.02365
G1 X103.783 Y145.840 E0.33140
G1 X103.029 Y145.840 E0.02365
G1 X103.029 Y156.410 E0.33140
G1 X102.274 Y156.410 E0.02365
G1 X102.274 Y145.840 E0.33140
G1 X101.520 Y145.840 E0.02365
G1 X101.520 Y156.410 E0.33140
G1 X100.766 Y156.410 E0.02365
G1 X100.766 Y145.840 E0.33140
G1 X100.012 Y145.840 E0.02365
G1 X100.012 Y156.410 E0.33140
G1 X99.258 Y156.410 E0.02365
G1 X99.258 Y145.840 E0.33140
G1 X98.504 Y145.840 E0.02365
G1 X98.504 Y156.410 E0.33140
G1 X97.750 Y156.410 E0.02365
G1 X97.750 Y145.840 E0.33140
G1 X96.995 Y145.840 E0.02365
G1 X96.995 Y156.410 E0.33140
G1 X96.241 Y156.410 E0.02365
G1 X96.241 Y145.840 E0.33140
G1 X95.487 Y145.840 E0.02365
G1 X95.487 Y156.410 E0.33140
G1 X94.733 Y156.410 E0.02365
G1 X94.733 Y145.840 E0.33140
G1 X93.979 Y145.840 E0.02365
G1 X93.979 Y156.410 E0.33140
G1 X93.225 Y156.410 E0.02365
G1 X93.225 Y145.840 E0.33140
G1 X92.470 Y145.840 E0.02365
G1 X92.470 Y156.410 E0.33140
G1 X91.716 Y156.410 E0.02365
G1 X91.716 Y145.840 E0.33140
G1 X90.962 Y145.840 E0.02365
G1 X90.962 Y156.410 E0.33140
G1 X90.208 Y156.410 E0.02365
G1 X90.208 Y145.840 E0.33140
G1 X89.454 Y145.840 E0.02365
G1 X89.454 Y156.410 E0.33140
G1 X88.700 Y156.410 E0.02365
G1 X88.700 Y145.840 E0.33140
G1 X87.945 Y145.840 E0.02365
G1 X87.945 Y156.410 E0.33140
G1 X87.191 Y156.410 E0.02365
G1 X87.191 Y145.840 E0.33140
G1 X86.437 Y145.840 E0.02365
G1 X86.437 Y156.410 E0.33140
G1 X85.683 Y156.410 E0.02365
G1 X85.683 Y145.840 E0.33140
G1 X84.929 Y145.840 E0.02365
G1 X84.929 Y156.410 E0.33140
G1 X84.175 Y156.410 E0.02365
G1 X84.175 Y145.840 E0.33140
G1 X83.421 Y145.840 E0.02365
G1 X83.421 Y156.410 E0.33140
G1 X82.666 Y156.410 E0.02365
G1 X82.666 Y145.840 E0.33140
G1 X81.912 Y145.840 E0.02365
G1 X81.912 Y156.410 E0.33140
G1 X81.158 Y156.410 E0.02365
G1 X81.158 Y145.840 E0.33140
G1 X80.404 Y145.840 E0.02365
G1 X80.404 Y156.410 E0.33140
G1 X79.650 Y156.410 E0.02365
G1 X79.650 Y145.840 E0.33140
G1 X78.896 Y145.840 E0.02365
G1 X78.896 Y156.410 E0.33140
G1 X78.141 Y156.410 E0.02365
G1 X78.141 Y145.840 E0.33140
G1 X77.387 Y145.840 E0.02365
G1 X77.387 Y156.410 E0.33140
G1 X76.633 Y156.410 E0.02365
G1 X76.633 Y145.840 E0.33140
G1 X75.879 Y145.840 E0.02365
G1 X75.879 Y156.410 E0.33140
G1 X75.125 Y156.410 E0.02365
G1 X75.125 Y145.840 E0.33140
G1 X74.371 Y145.840 E0.02365
G1 X74.371 Y156.410 E0.33140
G1 X73.616 Y156.410 E0.02365
G1 X73.616 Y145.840 E0.33140
G1 X72.862 Y145.840 E0.02365
G1 X72.862 Y156.410 E0.33140
G1 X72.108 Y156.410 E0.02365
G1 X72.108 Y145.840 E0.33140
G1 X71.354 Y145.840 E0.02365
G1 X71.354 Y156.410 E0.33140
G1 X70.600 Y156.410 E0.02365
G1 X70.600 Y145.840 E0.33140
G1 X69.846 Y145.840 E0.02365
G1 X69.846 Y156.410 E0.33140
G1 X69.091 Y156.410 E0.02365
G1 X69.091 Y53.215 E3.23559
G1 X69.846 Y53.215 E0.02365
G1 X69.846 Y63.785 E0.33140
G1 X70.600 Y63.785 E0.02365
G1 X70.600 Y53.215 E0.33140
G1 X71.354 Y53.215 E0.02365
G1 X71.354 Y63.785 E0.33140
G1 X72.108 Y63.785 E0.02365
G1 X72.108 Y53.215 E0.33140
G1 X72.862 Y53.215 E0.02365
G1 X72.862 Y63.785 E0.33140
G1 X73.616 Y63.785 E0.02365
G1 X73.616 Y53.215 E0.33140
G1 X74.371 Y53.215 E0.02365
G1 X74.371 Y63.785 E0.33140
G1 X75.125 Y63.785 E0.02365
G1 X75.125 Y53.215 E0.33140
G1 X75.879 Y53.215 E0.02365
G1 X75.879 Y63.785 E0.33140
G1 X76.633 Y63.785 E0.02365
G1 X76.633 Y53.215 E0.33140
G1 X77.387 Y53.215 E0.02365
G1 X77.387 Y63.785 E0.33140
G1 X78.141 Y63.785 E0.02365
G1 X78.141 Y53.215 E0.33140
G1 X78.896 Y53.215 E0.02365
G1 X78.896 Y63.785 E0.33140
G1 X79.650 Y63.785 E0.02365
G1 X79.650 Y53.215 E0.33140
G1 X80.404 Y53.215 E0.02365
G1 X80.404 Y63.785 E0.33140
G1 X81.158 Y63.785 E0.02365
G1 X81.158 Y53.215 E0.33140
G1 X81.912 Y53.215 E0.02365
G1 X81.912 Y63.785 E0.33140
G1 X82.666 Y63.785 E0.02365
G1 X82.666 Y53.215 E0.33140
G1 X83.421 Y53.215 E0.02365
G1 X83.421 Y63.785 E0.33140
G1 X84.175 Y63.785 E0.02365
G1 X84.175 Y53.215 E0.33140
G1 X84.929 Y53.215 E0.02365
G1 X84.929 Y63.785 E0.33140
G1 X85.683 Y63.785 E0.02365
G1 X85.683 Y53.215 E0.33140
M73 Q1 S276
M73 P1 R272
G1 X86.437 Y53.215 E0.02365
G1 X86.437 Y63.785 E0.33140
G1 X87.191 Y63.785 E0.02365
G1 X87.191 Y53.215 E0.33140
G1 X87.945 Y53.215 E0.02365
G1 X87.945 Y63.785 E0.33140
G1 X88.700 Y63.785 E0.02365
G1 X88.700 Y53.215 E0.33140
G1 X89.454 Y53.215 E0.02365
G1 X89.454 Y63.785 E0.33140
G1 X90.208 Y63.785 E0.02365
G1 X90.208 Y53.215 E0.33140
G1 X90.962 Y53.215 E0.02365
G1 X90.962 Y63.785 E0.33140
G1 X91.716 Y63.785 E0.02365
G1 X91.716 Y53.215 E0.33140
G1 X92.470 Y53.215 E0.02365
G1 X92.470 Y63.785 E0.33140
G1 X93.225 Y63.785 E0.02365
G1 X93.225 Y53.215 E0.33140
G1 X93.979 Y53.215 E0.02365
G1 X93.979 Y63.785 E0.33140
G1 X94.733 Y63.785 E0.02365
G1 X94.733 Y53.215 E0.33140
G1 X95.487 Y53.215 E0.02365
G1 X95.487 Y63.785 E0.33140
G1 X96.241 Y63.785 E0.02365
G1 X96.241 Y53.215 E0.33140
G1 X96.995 Y53.215 E0.02365
G1 X96.995 Y63.785 E0.33140
G1 X97.750 Y63.785 E0.02365
G1 X97.750 Y53.215 E0.33140
G1 X98.504 Y53.215 E0.02365
G1 X98.504 Y63.785 E0.33140
G1 X99.258 Y63.785 E0.02365
G1 X99.258 Y53.215 E0.33140
G1 X100.012 Y53.215 E0.02365
G1 X100.012 Y63.785 E0.33140
G1 X100.766 Y63.785 E0.02365
G1 X100.766 Y53.215 E0.33140
G1 X101.520 Y53.215 E0.02365
G1 X101.520 Y63.785 E0.33140
G1 X102.274 Y63.785 E0.02365
G1 X102.274 Y53.215 E0.33140
G1 X103.029 Y53.215 E0.02365
G1 X103.029 Y63.785 E0.33140
G1 X103.783 Y63.785 E0.02365
G1 X103.783 Y53.215 E0.33140
G1 X104.537 Y53.215 E0.02365
G1 X104.537 Y63.785 E0.33140
G1 X105.291 Y63.785 E0.02365
G1 X105.291 Y53.215 E0.33140
G1 X106.045 Y53.215 E0.02365
G1 X106.045 Y63.785 E0.33140
G1 X106.799 Y63.785 E0.02365
G1 X106.799 Y53.215 E0.33140
G1 X107.554 Y53.215 E0.02365
G1 X107.554 Y63.785 E0.33140
G1 X108.308 Y63.785 E0.02365
G1 X108.308 Y53.215 E0.33140
G1 X109.062 Y53.215 E0.02365
G1 X109.062 Y63.785 E0.33140
G1 X109.816 Y63.785 E0.02365
G1 X109.816 Y53.215 E0.33140
G1 X110.570 Y53.215 E0.02365
G1 X110.570 Y63.785 E0.33140
G1 X111.324 Y63.785 E0.02365
G1 X111.324 Y53.215 E0.33140
G1 X112.079 Y53.215 E0.02365
G1 X112.079 Y63.785 E0.33140
G1 X112.833 Y63.785 E0.02365
G1 X112.833 Y53.215 E0.33140
G1 X113.587 Y53.215 E0.02365
G1 X113.587 Y63.785 E0.33140
G1 X114.341 Y63.785 E0.02365
G1 X114.341 Y53.215 E0.33140
G1 X115.095 Y53.215 E0.02365
G1 X115.095 Y63.785 E0.33140
G1 X115.849 Y63.785 E0.02365
G1 X115.849 Y53.215 E0.33140
G1 X116.604 Y53.215 E0.02365
G1 X116.604 Y63.785 E0.33140
G1 X117.358 Y63.785 E0.02365
G1 X117.358 Y53.215 E0.33140
G1 X118.112 Y53.215 E0.02365
G1 X118.112 Y63.785 E0.33140
G1 X118.866 Y63.785 E0.02365
G1 X118.866 Y53.215 E0.33140
G1 X119.620 Y53.215 E0.02365
G1 X119.620 Y63.785 E0.33140
G1 X120.374 Y63.785 E0.02365
G1 X120.374 Y53.215 E0.33140
G1 X121.128 Y53.215 E0.02365
G1 X121.128 Y63.785 E0.33140
G1 X121.883 Y63.785 E0.02365
G1 X121.883 Y53.215 E0.33140
G1 X122.637 Y53.215 E0.02365
G1 X122.637 Y63.785 E0.33140
G1 X123.391 Y63.785 E0.02365
G1 X123.391 Y53.215 E0.33140
G1 X124.145 Y53.215 E0.02365
G1 X124.145 Y63.785 E0.33140
G1 X124.511 Y63.785 E0.01149
G1 X124.511 Y58.298 E0.17205
G1 X124.798 Y58.011 E0.01269
G1 X124.899 Y58.011 E0.00319
G1 X124.899 Y53.215 E0.15038
G1 X125.653 Y53.215 E0.02365
G1 X125.653 Y58.011 E0.15038
G1 X126.408 Y58.011 E0.02365
G1 X126.408 Y53.215 E0.15038
G1 X127.162 Y53.215 E0.02365
G1 X127.162 Y58.011 E0.15038
G1 X127.916 Y58.011 E0.02365
G1 X127.916 Y53.215 E0.15038
G1 X128.670 Y53.215 E0.02365
G1 X128.670 Y58.011 E0.15038
G1 X129.424 Y58.011 E0.02365
G1 X129.424 Y53.045 E0.15570
G1 F8640
G1 X129.424 Y58.011 E-1.14666
G1 X128.670 Y58.011 E-0.17414
G1 X128.670 Y57.972 E-0.00920
G1 E-0.07000 F2100.00000
G1 Z0.400 F10800.000
G1 X159.243 Y102.025
G1 Z0.200
G1 E1.40000 F2100.00000
G1 F1200
G1 X159.677 Y101.775 E0.01570
G1 X160.131 Y101.591 E0.01537
G1 X160.392 Y101.516 E0.00850
G1 X160.865 Y101.433 E0.01505
G1 X161.135 Y101.414 E0.00850
G1 X161.625 Y101.431 E0.01537
G1 X162.108 Y101.516 E0.01538
G1 X162.369 Y101.591 E0.00850
G1 X162.814 Y101.771 E0.01505
G1 X163.265 Y102.031 E0.01634
G1 X163.643 Y102.327 E0.01505
G1 X163.838 Y102.515 E0.00849
G1 X164.153 Y102.891 E0.01538
G1 X164.413 Y103.307 E0.01537
G1 X164.532 Y103.550 E0.00849
G1 X164.700 Y104.011 E0.01538
G1 X164.801 Y104.491 E0.01538
G1 X164.830 Y104.760 E0.00849
G1 X164.830 Y105.240 E0.01505
G1 X164.801 Y105.509 E0.00849
G1 X164.702 Y105.979 E0.01505
G1 X164.618 Y106.237 E0.00850
G1 X164.423 Y106.675 E0.01505
G1 X164.292 Y106.901 E0.00817
G1 X164.147 Y107.117 E0.00817
G1 X163.838 Y107.485 E0.01506
G1 X163.643 Y107.673 E0.00849
G1 X163.257 Y107.975 E0.01538
G1 X162.823 Y108.225 E0.01570
G1 X162.369 Y108.409 E0.01537
G1 X162.108 Y108.484 E0.00850
G1 X161.635 Y108.567 E0.01505
G1 X161.365 Y108.586 E0.00850
G1 X160.875 Y108.569 E0.01537
G1 X160.392 Y108.484 E0.01538
G1 X160.131 Y108.409 E0.00850
G1 X159.686 Y108.229 E0.01505
G1 X159.456 Y108.107 E0.00817
G1 X159.235 Y107.969 E0.00817
G1 X158.857 Y107.673 E0.01505
G1 X158.662 Y107.485 E0.00849
G1 X158.347 Y107.109 E0.01538
G1 X158.087 Y106.693 E0.01537
G1 X157.968 Y106.450 E0.00849
G1 X157.800 Y105.989 E0.01538
G1 X157.699 Y105.509 E0.01538
G1 X157.670 Y105.240 E0.00849
G1 X157.670 Y104.760 E0.01505
G1 X157.699 Y104.491 E0.00849
G1 X157.798 Y104.021 E0.01505
G1 X157.882 Y103.763 E0.00850
G1 X158.077 Y103.325 E0.01505
G1 X158.208 Y103.099 E0.00817
G1 X158.353 Y102.883 E0.00817
G1 X158.662 Y102.515 E0.01506
G1 X158.857 Y102.327 E0.00849
G1 X159.196 Y102.062 E0.01349
G1 X159.428 Y102.359 F10800.000
G1 F1200
G1 X159.843 Y102.114 E0.01509
