; generated by PrusaSlicer 2.1.1 on 2021-01-01 at 07:19:54 UTC

; 

; external perimeters extrusion width = 0.60mm
; perimeters extrusion width = 0.50mm
; infill extrusion width = 0.50mm
; solid infill extrusion width = 0.50mm
; top infill extrusion width = 0.45mm
; first layer extrusion width = 0.42mm

M73 P0 R109
M73 Q0 S109
M201 X1000 Y1000 Z200 E5000 ; sets maximum accelerations, mm/sec^2
M203 X200 Y200 Z12 E120 ; sets maximum feedrates, mm/sec
M204 P1250 R1250 T1250 ; sets acceleration (P, T) and retract acceleration (R), mm/sec^2
M205 X8.00 Y8.00 Z0.40 E4.50 ; sets the jerk limits, mm/sec
M205 S0 T0 ; sets the minimum extruding and travel feed rate, mm/sec
M107
M862.3 P "MK3S" ; printer model check
M862.1 P0.4 ; nozzle diameter check
M115 U3.9.1 ; tell printer latest fw version
G90 ; use absolute coordinates
M83 ; extruder relative mode
M104 S220 ; set extruder temp
M140 S50 ; set bed temp
M190 S50 ; wait for bed temp
M109 S220 ; wait for extruder temp
G28 W ; home all without mesh bed level
G80 ; mesh bed leveling
G1 Y-3.0 F1000.0 ; go outside print area
G92 E0.0
G1 X60.0 E9.0 F1000.0 ; intro line
M73 Q0 S109
M73 P0 R109
G1 X100.0 E12.5 F1000.0 ; intro line
G92 E0.0
M221 S95
G21 ; set units to millimeters
G90 ; use absolute coordinates
M83 ; use relative distances for extrusion
M900 K0
;BEFORE_LAYER_CHANGE
G92 E0.0
;0.2


G1 Z0.200 F10800.000
;AFTER_LAYER_CHANGE
;0.2
G1 X74.637 Y109.489
M204 S1000
G1 F954.706
G1 X75.494 Y109.311 E0.03155
G1 X166.733 Y109.311 E3.28983
G1 X167.610 Y109.496 E0.03232
G1 X175.455 Y113.154 E0.31210
G1 X175.968 Y113.501 E0.02233
G1 X176.364 Y113.977 E0.02233
G1 X176.599 Y114.503 E0.02076
G1 X176.688 Y115.075 E0.02089
G1 X176.688 Y124.891 E0.35394
G1 X176.622 Y125.412 E0.01893
G1 X176.214 Y126.238 E0.03322
G1 X157.202 Y149.851 E1.09309
G1 X156.823 Y150.219 E0.01906
G1 X156.363 Y150.487 E0.01919
G1 X155.506 Y150.664 E0.03155
G1 X75.471 Y150.664 E2.88587
G1 X74.849 Y150.565 E0.02272
G1 X74.283 Y150.295 E0.02259
G1 X73.818 Y149.875 E0.02259
G1 X73.489 Y149.338 E0.02272
G1 X73.311 Y148.485 E0.03142
G1 X73.312 Y111.438 E1.33582
G1 X73.417 Y110.828 E0.02233
G1 X73.689 Y110.271 E0.02233
G1 X74.106 Y109.813 E0.02233
G1 X74.586 Y109.520 E0.02030
G1 X76.087 Y132.966 F10800.000
G1 F954.706
G1 X81.997 Y132.966 E0.21308
G1 X80.973 Y133.989 E0.05218
G1 X80.885 Y133.957 E0.00340
G1 X80.566 Y133.912 E0.01162
G1 X80.324 Y133.921 E0.00873
G1 X80.019 Y133.985 E0.01124
G1 X79.794 Y134.076 E0.00874
G1 X79.530 Y134.241 E0.01124
G1 X79.350 Y134.403 E0.00873
G1 X79.151 Y134.657 E0.01161
G1 X79.006 Y134.956 E0.01199
G1 X78.925 Y135.279 E0.01199
G1 X78.914 Y135.611 E0.01199
G1 X78.971 Y135.938 E0.01199
G1 X79.092 Y136.237 E0.01162
G1 X79.220 Y136.442 E0.00873
G1 X79.429 Y136.674 E0.01124
G1 X79.620 Y136.823 E0.00873
G1 X79.895 Y136.970 E0.01125
G1 X80.126 Y137.045 E0.00874
G1 X80.445 Y137.089 E0.01161
G1 X80.766 Y137.067 E0.01161
G1 X80.991 Y137.011 E0.00836
G1 X81.206 Y136.924 E0.00837
G1 X81.470 Y136.759 E0.01124
G1 X81.650 Y136.597 E0.00873
G1 X81.842 Y136.351 E0.01124
G1 X81.983 Y136.054 E0.01185
G1 X85.071 Y132.966 E0.15747
G1 X88.997 Y132.966 E0.14154
G1 X87.973 Y133.989 E0.05218
G1 X87.885 Y133.957 E0.00341
G1 X87.555 Y133.911 E0.01199
G1 X87.234 Y133.933 E0.01161
G1 X86.999 Y133.992 E0.00874
G1 X86.705 Y134.123 E0.01162
G1 X86.436 Y134.318 E0.01198
G1 X86.207 Y134.573 E0.01236
G1 X86.003 Y134.955 E0.01561
G1 X85.911 Y135.389 E0.01599
G1 X85.942 Y135.831 E0.01599
G1 X86.094 Y136.248 E0.01599
G1 X86.354 Y136.607 E0.01599
G1 X86.695 Y136.873 E0.01561
G1 X87.018 Y137.017 E0.01274
G1 X87.434 Y137.090 E0.01524
G1 X87.766 Y137.067 E0.01198
G1 X88.001 Y137.008 E0.00874
G1 X88.295 Y136.877 E0.01162
G1 X88.573 Y136.676 E0.01236
G1 X88.837 Y136.360 E0.01486
G1 X88.983 Y136.054 E0.01223
G1 X92.071 Y132.966 E0.15747
G1 X95.997 Y132.966 E0.14154
G1 X94.973 Y133.989 E0.05218
G1 X94.885 Y133.957 E0.00341
G1 X94.555 Y133.911 E0.01199
G1 X94.234 Y133.933 E0.01161
G1 X93.999 Y133.992 E0.00874
G1 X93.705 Y134.123 E0.01162
G1 X93.436 Y134.318 E0.01198
G1 X93.207 Y134.573 E0.01236
G1 X93.003 Y134.955 E0.01561
G1 X92.911 Y135.389 E0.01599
G1 X92.942 Y135.831 E0.01599
G1 X93.094 Y136.248 E0.01599
G1 X93.354 Y136.607 E0.01599
G1 X93.695 Y136.873 E0.01561
G1 X94.018 Y137.017 E0.01274
G1 X94.434 Y137.090 E0.01524
G1 X94.766 Y137.067 E0.01198
G1 X95.001 Y137.008 E0.00874
G1 X95.295 Y136.877 E0.01162
G1 X95.573 Y136.676 E0.01236
G1 X95.837 Y136.360 E0.01486
G1 X95.983 Y136.054 E0.01223
G1 X99.071 Y132.966 E0.15747
G1 X102.997 Y132.966 E0.14154
G1 X101.973 Y133.989 E0.05218
G1 X101.885 Y133.957 E0.00341
G1 X101.555 Y133.911 E0.01199
G1 X101.234 Y133.933 E0.01161
G1 X100.999 Y133.992 E0.00874
G1 X100.705 Y134.123 E0.01162
G1 X100.436 Y134.318 E0.01198
G1 X100.207 Y134.573 E0.01236
G1 X100.003 Y134.955 E0.01561
G1 X99.911 Y135.389 E0.01599
G1 X99.942 Y135.831 E0.01599
G1 X100.094 Y136.248 E0.01599
G1 X100.354 Y136.607 E0.01599
G1 X100.695 Y136.873 E0.01561
G1 X101.018 Y137.017 E0.01274
G1 X101.434 Y137.090 E0.01524
G1 X101.766 Y137.067 E0.01198
G1 X102.001 Y137.008 E0.00874
G1 X102.295 Y136.877 E0.01162
G1 X102.573 Y136.676 E0.01236
G1 X102.837 Y136.360 E0.01486
G1 X102.983 Y136.054 E0.01223
G1 X106.071 Y132.966 E0.15747
G1 X109.997 Y132.966 E0.14154
G1 X108.973 Y133.989 E0.05218
G1 X108.885 Y133.957 E0.00340
G1 X108.555 Y133.911 E0.01199
G1 X108.234 Y133.933 E0.01161
G1 X107.999 Y133.992 E0.00874
G1 X107.705 Y134.123 E0.01162
G1 X107.436 Y134.318 E0.01198
G1 X107.206 Y134.573 E0.01236
G1 X107.003 Y134.955 E0.01561
G1 X106.911 Y135.389 E0.01598
G1 X106.942 Y135.831 E0.01599
G1 X107.094 Y136.248 E0.01599
G1 X107.354 Y136.607 E0.01599
G1 X107.695 Y136.873 E0.01561
G1 X108.018 Y137.017 E0.01274
G1 X108.434 Y137.090 E0.01524
G1 X108.766 Y137.067 E0.01198
G1 X109.001 Y137.008 E0.00874
G1 X109.295 Y136.877 E0.01162
G1 X109.573 Y136.676 E0.01236
G1 X109.837 Y136.360 E0.01486
G1 X109.983 Y136.054 E0.01223
G1 X113.071 Y132.966 E0.15746
G1 X116.997 Y132.966 E0.14154
G1 X115.973 Y133.989 E0.05218
G1 X115.885 Y133.957 E0.00340
G1 X115.555 Y133.911 E0.01199
G1 X115.234 Y133.933 E0.01161
G1 X114.999 Y133.992 E0.00874
G1 X114.705 Y134.123 E0.01162
G1 X114.436 Y134.318 E0.01198
G1 X114.207 Y134.573 E0.01236
G1 X114.003 Y134.955 E0.01561
G1 X113.911 Y135.389 E0.01598
G1 X113.942 Y135.831 E0.01599
G1 X114.094 Y136.248 E0.01599
G1 X114.354 Y136.607 E0.01599
G1 X114.695 Y136.873 E0.01561
G1 X115.018 Y137.017 E0.01274
G1 X115.434 Y137.090 E0.01524
G1 X115.766 Y137.067 E0.01198
G1 X116.001 Y137.008 E0.00874
G1 X116.295 Y136.877 E0.01162
G1 X116.573 Y136.676 E0.01236
G1 X116.837 Y136.360 E0.01486
G1 X116.983 Y136.054 E0.01223
G1 X120.071 Y132.966 E0.15746
G1 X154.913 Y132.966 E1.25630
G1 X154.913 Y147.034 E0.50726
G1 X120.071 Y147.034 E1.25630
G1 X116.983 Y143.946 E0.15746
G1 X116.837 Y143.640 E0.01222
G1 X116.579 Y143.332 E0.01449
G1 X116.380 Y143.177 E0.00910
G1 X116.105 Y143.030 E0.01124
G1 X115.874 Y142.955 E0.00874
G1 X115.545 Y142.909 E0.01199
G1 X115.115 Y142.954 E0.01561
G1 X114.704 Y143.121 E0.01598
G1 X114.354 Y143.393 E0.01598
G1 X114.094 Y143.752 E0.01599
G1 X113.942 Y144.169 E0.01599
G1 X113.911 Y144.611 E0.01599
G1 X114.003 Y145.045 E0.01598
G1 X114.206 Y145.427 E0.01561
G1 X114.436 Y145.682 E0.01236
G1 X114.705 Y145.877 E0.01198
G1 X114.999 Y146.008 E0.01162
G1 X115.234 Y146.067 E0.00874
G1 X115.555 Y146.089 E0.01161
G1 X115.885 Y146.043 E0.01199
G1 X115.973 Y146.011 E0.00340
G1 X116.997 Y147.034 E0.05218
G1 X113.071 Y147.034 E0.14154
G1 X109.983 Y143.946 E0.15746
G1 X109.837 Y143.640 E0.01223
G1 X109.579 Y143.332 E0.01449
G1 X109.380 Y143.177 E0.00910
G1 X109.105 Y143.030 E0.01124
G1 X108.874 Y142.955 E0.00874
G1 X108.545 Y142.909 E0.01199
G1 X108.115 Y142.954 E0.01561
G1 X107.704 Y143.121 E0.01598
G1 X107.354 Y143.393 E0.01598
G1 X107.094 Y143.752 E0.01599
G1 X106.942 Y144.169 E0.01599
G1 X106.911 Y144.611 E0.01599
G1 X107.003 Y145.045 E0.01598
G1 X107.206 Y145.427 E0.01561
G1 X107.436 Y145.682 E0.01236
G1 X107.705 Y145.877 E0.01198
G1 X107.999 Y146.008 E0.01162
G1 X108.234 Y146.067 E0.00874
G1 X108.555 Y146.089 E0.01161
G1 X108.885 Y146.043 E0.01199
G1 X108.973 Y146.011 E0.00340
G1 X109.997 Y147.034 E0.05218
G1 X106.071 Y147.034 E0.14154
G1 X102.983 Y143.946 E0.15747
G1 X102.837 Y143.640 E0.01222
G1 X102.579 Y143.332 E0.01449
G1 X102.380 Y143.177 E0.00910
G1 X102.105 Y143.030 E0.01125
G1 X101.874 Y142.955 E0.00874
G1 X101.545 Y142.909 E0.01199
G1 X101.115 Y142.954 E0.01561
G1 X100.704 Y143.121 E0.01599
G1 X100.354 Y143.393 E0.01598
G1 X100.094 Y143.752 E0.01599
G1 X99.942 Y144.169 E0.01598
G1 X99.911 Y144.611 E0.01599
G1 X100.003 Y145.045 E0.01599
G1 X100.207 Y145.427 E0.01561
G1 X100.436 Y145.682 E0.01236
G1 X100.705 Y145.877 E0.01198
G1 X100.999 Y146.008 E0.01162
G1 X101.234 Y146.067 E0.00874
G1 X101.555 Y146.089 E0.01161
G1 X101.885 Y146.043 E0.01199
G1 X101.973 Y146.011 E0.00341
G1 X102.997 Y147.034 E0.05218
G1 X99.071 Y147.034 E0.14154
G1 X95.983 Y143.946 E0.15747
G1 X95.837 Y143.640 E0.01222
G1 X95.579 Y143.332 E0.01449
G1 X95.380 Y143.177 E0.00910
G1 X95.105 Y143.030 E0.01125
G1 X94.874 Y142.955 E0.00874
G1 X94.545 Y142.909 E0.01199
G1 X94.115 Y142.954 E0.01561
G1 X93.704 Y143.121 E0.01599
G1 X93.354 Y143.393 E0.01598
G1 X93.094 Y143.752 E0.01599
G1 X92.942 Y144.169 E0.01598
G1 X92.911 Y144.611 E0.01599
G1 X93.003 Y145.045 E0.01599
G1 X93.207 Y145.427 E0.01561
G1 X93.436 Y145.682 E0.01236
G1 X93.705 Y145.877 E0.01198
G1 X93.999 Y146.008 E0.01162
G1 X94.234 Y146.067 E0.00874
G1 X94.555 Y146.089 E0.01161
G1 X94.885 Y146.043 E0.01199
G1 X94.973 Y146.011 E0.00341
G1 X95.997 Y147.034 E0.05218
G1 X92.071 Y147.034 E0.14154
G1 X88.983 Y143.946 E0.15747
G1 X88.837 Y143.640 E0.01222
G1 X88.579 Y143.332 E0.01449
G1 X88.380 Y143.177 E0.00910
G1 X88.105 Y143.030 E0.01125
G1 X87.874 Y142.955 E0.00874
G1 X87.545 Y142.909 E0.01199
G1 X87.115 Y142.954 E0.01561
G1 X86.704 Y143.121 E0.01599
G1 X86.354 Y143.393 E0.01598
G1 X86.094 Y143.752 E0.01599
G1 X85.942 Y144.169 E0.01598
G1 X85.911 Y144.611 E0.01599
G1 X86.003 Y145.045 E0.01599
G1 X86.207 Y145.427 E0.01561
G1 X86.436 Y145.682 E0.01236
G1 X86.705 Y145.877 E0.01198
G1 X86.999 Y146.008 E0.01162
G1 X87.234 Y146.067 E0.00874
G1 X87.555 Y146.089 E0.01161
G1 X87.885 Y146.043 E0.01199
G1 X87.973 Y146.011 E0.00341
G1 X88.997 Y147.034 E0.05218
G1 X85.071 Y147.034 E0.14154
G1 X81.983 Y143.946 E0.15747
G1 X81.837 Y143.640 E0.01222
G1 X81.579 Y143.332 E0.01449
G1 X81.380 Y143.177 E0.00910
G1 X81.105 Y143.030 E0.01125
G1 X80.874 Y142.955 E0.00874
G1 X80.545 Y142.909 E0.01199
G1 X80.115 Y142.954 E0.01561
G1 X79.704 Y143.121 E0.01599
G1 X79.354 Y143.393 E0.01598
G1 X79.094 Y143.752 E0.01599
G1 X78.942 Y144.169 E0.01598
G1 X78.911 Y144.611 E0.01599
G1 X79.003 Y145.045 E0.01599
G1 X79.207 Y145.427 E0.01561
G1 X79.436 Y145.682 E0.01236
G1 X79.705 Y145.877 E0.01198
G1 X79.999 Y146.008 E0.01162
G1 X80.234 Y146.067 E0.00874
G1 X80.555 Y146.089 E0.01161
G1 X80.885 Y146.043 E0.01199
G1 X80.973 Y146.011 E0.00341
G1 X81.997 Y147.034 E0.05218
G1 X76.087 Y147.034 E0.21308
G1 X76.087 Y133.026 E0.50509
G1 X75.710 Y132.589 F10800.000
G1 F954.706
G1 X82.907 Y132.589 E0.25951
G1 X81.064 Y134.432 E0.09398
G1 X80.793 Y134.325 E0.01051
G1 X80.546 Y134.290 E0.00900
G1 X80.370 Y134.296 E0.00635
G1 X80.129 Y134.347 E0.00886
G1 X79.966 Y134.413 E0.00636
G1 X79.757 Y134.544 E0.00886
G1 X79.627 Y134.662 E0.00635
G1 X79.473 Y134.858 E0.00899
G1 X79.362 Y135.086 E0.00913
G1 X79.301 Y135.331 E0.00913
G1 X79.292 Y135.585 E0.00913
G1 X79.336 Y135.834 E0.00913
G1 X79.429 Y136.065 E0.00900
G1 X79.523 Y136.215 E0.00635
G1 X79.687 Y136.397 E0.00886
G1 X79.826 Y136.506 E0.00635
G1 X80.043 Y136.621 E0.00887
G1 X80.211 Y136.676 E0.00636
G1 X80.458 Y136.710 E0.00900
G1 X80.707 Y136.693 E0.00899
G1 X81.034 Y136.587 E0.01242
G1 X81.243 Y136.456 E0.00886
G1 X81.373 Y136.338 E0.00635
G1 X81.525 Y136.145 E0.00886
G1 X81.607 Y135.990 E0.00631
G1 X81.654 Y135.850 E0.00535
G1 X84.915 Y132.589 E0.16628
G1 X89.907 Y132.589 E0.17999
G1 X88.064 Y134.432 E0.09398
G1 X87.793 Y134.325 E0.01051
G1 X87.542 Y134.290 E0.00913
G1 X87.293 Y134.307 E0.00899
G1 X87.122 Y134.350 E0.00636
G1 X86.894 Y134.451 E0.00900
G1 X86.690 Y134.600 E0.00913
G1 X86.518 Y134.791 E0.00926
G1 X86.361 Y135.085 E0.01203
G1 X86.291 Y135.415 E0.01216
G1 X86.314 Y135.752 E0.01216
G1 X86.430 Y136.069 E0.01217
G1 X86.628 Y136.342 E0.01217
G1 X86.891 Y136.547 E0.01203
G1 X87.129 Y136.653 E0.00940
G1 X87.454 Y136.711 E0.01190
G1 X87.707 Y136.693 E0.00913
G1 X87.878 Y136.650 E0.00636
G1 X88.106 Y136.549 E0.00900
G1 X88.313 Y136.398 E0.00926
G1 X88.523 Y136.148 E0.01176
G1 X88.607 Y135.990 E0.00644
G1 X88.654 Y135.850 E0.00535
G1 X91.915 Y132.589 E0.16628
G1 X96.907 Y132.589 E0.17999
G1 X95.064 Y134.432 E0.09398
G1 X94.793 Y134.325 E0.01051
G1 X94.542 Y134.290 E0.00913
G1 X94.293 Y134.307 E0.00899
G1 X94.122 Y134.350 E0.00636
G1 X93.894 Y134.451 E0.00900
G1 X93.690 Y134.600 E0.00913
G1 X93.518 Y134.791 E0.00926
G1 X93.361 Y135.085 E0.01203
G1 X93.291 Y135.415 E0.01216
G1 X93.314 Y135.752 E0.01216
G1 X93.430 Y136.069 E0.01217
G1 X93.628 Y136.342 E0.01217
G1 X93.891 Y136.547 E0.01203
G1 X94.129 Y136.653 E0.00940
G1 X94.454 Y136.711 E0.01190
G1 X94.707 Y136.693 E0.00913
G1 X94.878 Y136.650 E0.00636
G1 X95.106 Y136.549 E0.00900
G1 X95.313 Y136.398 E0.00926
G1 X95.523 Y136.148 E0.01176
G1 X95.607 Y135.990 E0.00645
G1 X95.654 Y135.850 E0.00534
G1 X98.915 Y132.589 E0.16628
G1 X103.907 Y132.589 E0.17999
G1 X102.064 Y134.432 E0.09398
G1 X101.793 Y134.325 E0.01051
G1 X101.542 Y134.290 E0.00913
G1 X101.293 Y134.307 E0.00899
G1 X101.122 Y134.350 E0.00636
G1 X100.894 Y134.451 E0.00900
G1 X100.690 Y134.600 E0.00913
G1 X100.518 Y134.791 E0.00926
G1 X100.361 Y135.085 E0.01203
G1 X100.291 Y135.415 E0.01216
G1 X100.314 Y135.752 E0.01216
G1 X100.430 Y136.069 E0.01217
G1 X100.628 Y136.342 E0.01217
G1 X100.891 Y136.547 E0.01203
G1 X101.129 Y136.653 E0.00940
G1 X101.454 Y136.711 E0.01190
G1 X101.707 Y136.693 E0.00913
G1 X101.878 Y136.650 E0.00636
G1 X102.106 Y136.549 E0.00900
G1 X102.313 Y136.398 E0.00926
G1 X102.523 Y136.148 E0.01176
G1 X102.607 Y135.990 E0.00645
G1 X102.654 Y135.850 E0.00534
G1 X105.915 Y132.589 E0.16628
G1 X110.907 Y132.589 E0.17999
G1 X109.064 Y134.432 E0.09398
G1 X108.793 Y134.325 E0.01051
G1 X108.542 Y134.290 E0.00913
G1 X108.293 Y134.307 E0.00899
G1 X108.122 Y134.350 E0.00636
G1 X107.894 Y134.451 E0.00900
G1 X107.690 Y134.600 E0.00913
G1 X107.518 Y134.791 E0.00926
G1 X107.361 Y135.085 E0.01203
G1 X107.291 Y135.415 E0.01216
G1 X107.314 Y135.752 E0.01217
G1 X107.430 Y136.069 E0.01217
G1 X107.628 Y136.342 E0.01217
G1 X107.891 Y136.547 E0.01203
G1 X108.129 Y136.653 E0.00940
G1 X108.454 Y136.711 E0.01190
G1 X108.707 Y136.693 E0.00913
G1 X108.878 Y136.650 E0.00636
G1 X109.106 Y136.549 E0.00900
G1 X109.313 Y136.398 E0.00926
G1 X109.523 Y136.148 E0.01176
G1 X109.607 Y135.990 E0.00645
G1 X109.654 Y135.850 E0.00534
G1 X112.915 Y132.589 E0.16628
G1 X117.907 Y132.589 E0.17999
G1 X116.064 Y134.432 E0.09398
G1 X115.793 Y134.325 E0.01051
G1 X115.542 Y134.290 E0.00913
G1 X115.293 Y134.307 E0.00899
G1 X115.122 Y134.350 E0.00636
G1 X114.894 Y134.451 E0.00900
G1 X114.690 Y134.600 E0.00913
G1 X114.518 Y134.791 E0.00926
G1 X114.361 Y135.085 E0.01203
G1 X114.291 Y135.415 E0.01216
G1 X114.314 Y135.752 E0.01217
G1 X114.430 Y136.069 E0.01217
G1 X114.628 Y136.342 E0.01217
G1 X114.891 Y136.547 E0.01203
G1 X115.129 Y136.653 E0.00940
G1 X115.454 Y136.711 E0.01190
G1 X115.707 Y136.693 E0.00913
G1 X115.878 Y136.650 E0.00636
G1 X116.106 Y136.549 E0.00900
G1 X116.313 Y136.398 E0.00926
G1 X116.523 Y136.148 E0.01176
G1 X116.607 Y135.990 E0.00645
G1 X116.654 Y135.850 E0.00534
G1 X119.915 Y132.589 E0.16628
G1 X155.290 Y132.589 E1.27553
G1 X155.290 Y147.411 E0.53445
G1 X119.915 Y147.411 E1.27553
G1 X116.654 Y144.150 E0.16628
G1 X116.607 Y144.010 E0.00534
G1 X116.523 Y143.852 E0.00645
G1 X116.316 Y143.605 E0.01163
G1 X116.174 Y143.494 E0.00649
G1 X115.957 Y143.379 E0.00886
G1 X115.789 Y143.324 E0.00636
G1 X115.539 Y143.289 E0.00913
G1 X115.207 Y143.324 E0.01203
G1 X114.894 Y143.450 E0.01216
