; generated by PrusaSlicer 2.1.1 on 2020-07-30 at 08:46:09 UTC

; 

; external perimeters extrusion width = 0.45mm
; perimeters extrusion width = 0.45mm
; infill extrusion width = 0.45mm
; solid infill extrusion width = 0.45mm
; top infill extrusion width = 0.40mm
; first layer extrusion width = 0.42mm

M73 P0 R117
M73 Q0 S117
M201 X1000 Y1000 Z200 E5000 ; sets maximum accelerations, mm/sec^2
M203 X200 Y200 Z12 E120 ; sets maximum feedrates, mm/sec
M204 P1250 R1250 T1250 ; sets acceleration (P, T) and retract acceleration (R), mm/sec^2
M205 X8.00 Y8.00 Z0.40 E4.50 ; sets the jerk limits, mm/sec
M205 S0 T0 ; sets the minimum extruding and travel feed rate, mm/sec
M107
M862.3 P "MK3S" ; printer model check
M862.1 P0.4 ; nozzle diameter check
M115 U3.9.0 ; tell printer latest fw version
G90 ; use absolute coordinates
M83 ; extruder relative mode
M104 S215 ; set extruder temp
M140 S60 ; set bed temp
M190 S60 ; wait for bed temp
M109 S215 ; wait for extruder temp
G28 W ; home all without mesh bed level
G80 ; mesh bed leveling
G1 Y-3.0 F1000.0 ; go outside print area
G92 E0.0
G1 X60.0 E9.0 F1000.0 ; intro line
M73 Q0 S117
M73 P0 R117
G1 X100.0 E12.5 F1000.0 ; intro line
G92 E0.0
M221 S95
G21 ; set units to millimeters
G90 ; use absolute coordinates
M83 ; use relative distances for extrusion
M900 K0.06 ; Filament gcode LA 1.5
M900 K30 ; Filament gcode LA 1.0
;BEFORE_LAYER_CHANGE
G92 E0.0
;0.2


G1 E-0.80000 F2100.00000
G1 Z0.600 F10800.000
;AFTER_LAYER_CHANGE
;0.2
G1 X24.154 Y2.982
G1 Z0.200
G1 E0.80000 F2100.00000
M204 S1000
G1 F1200
G1 X24.994 Y2.811 E0.02687
G1 X225.004 Y2.811 E6.27116
G1 X225.817 Y2.970 E0.02597
G1 X226.513 Y3.418 E0.02597
G1 X226.992 Y4.094 E0.02597
G1 X227.186 Y4.899 E0.02597
G1 X227.188 Y35.044 E0.94517
G1 X227.017 Y35.850 E0.02586
G1 X226.556 Y36.539 E0.02597
G1 X56.405 Y206.678 E7.54453
G1 X55.763 Y207.051 E0.02326
G1 X55.034 Y207.188 E0.02326
G1 X24.993 Y207.189 E0.94192
G1 X24.163 Y207.022 E0.02653
G1 X23.461 Y206.556 E0.02642
G1 X22.980 Y205.842 E0.02698
G1 X22.811 Y205.000 E0.02694
G1 X22.811 Y4.993 E6.27109
G1 X22.978 Y4.163 E0.02653
G1 X23.444 Y3.461 E0.02642
G1 X24.104 Y3.015 E0.02499
G1 F8640
G1 X24.994 Y2.811 E-0.21074
G1 X27.373 Y2.811 E-0.54926
G1 E-0.04000 F2100.00000
G1 Z0.800 F10800.000
G1 X25.587 Y5.587
G1 Z0.200
G1 E0.80000 F2100.00000
G1 F1200
G1 X224.413 Y5.587 E6.23404
G1 X224.413 Y34.413 E0.90381
G1 X57.003 Y34.413 E5.24901
G1 X56.908 Y34.151 E0.00876
G1 X56.771 Y33.893 E0.00913
G1 X56.600 Y33.657 E0.00914
G1 X56.397 Y33.448 E0.00913
G1 X56.168 Y33.269 E0.00914
G1 X55.916 Y33.123 E0.00914
G1 X55.645 Y33.014 E0.00914
G1 X55.363 Y32.943 E0.00913
G1 X55.073 Y32.913 E0.00914
G1 X54.771 Y32.923 E0.00946
G1 X54.364 Y33.010 E0.01305
G1 X54.084 Y33.123 E0.00946
G1 X53.832 Y33.269 E0.00914
G1 X53.603 Y33.448 E0.00914
G1 X53.400 Y33.657 E0.00913
G1 X53.229 Y33.893 E0.00914
G1 X53.092 Y34.151 E0.00913
G1 X52.992 Y34.424 E0.00913
G1 X52.932 Y34.709 E0.00914
G1 X52.911 Y35.000 E0.00914
G1 X52.933 Y35.301 E0.00946
G1 X53.036 Y35.715 E0.01337
G1 X53.223 Y36.098 E0.01338
G1 X53.400 Y36.343 E0.00946
G1 X53.603 Y36.552 E0.00913
G1 X53.832 Y36.731 E0.00914
G1 X54.084 Y36.877 E0.00914
G1 X54.413 Y37.001 E0.01100
G1 X54.413 Y204.413 E5.24909
M73 Q1 S116
M73 P1 R116
G1 X25.587 Y204.413 E0.90381
G1 X25.587 Y5.647 E6.23216
G1 X25.210 Y5.210 F10800.000
G1 F1200
G1 X224.790 Y5.210 E6.25769
G1 X224.790 Y34.790 E0.92746
G1 X56.696 Y34.790 E5.27047
G1 X56.644 Y34.528 E0.00836
G1 X56.563 Y34.304 E0.00748
G1 X56.451 Y34.094 E0.00748
G1 X56.310 Y33.900 E0.00748
G1 X56.145 Y33.729 E0.00748
G1 X55.957 Y33.582 E0.00748
G1 X55.750 Y33.463 E0.00748
G1 X55.529 Y33.373 E0.00748
G1 X55.297 Y33.315 E0.00748
G1 X55.060 Y33.291 E0.00748
G1 X54.818 Y33.299 E0.00760
G1 X54.475 Y33.372 E0.01098
G1 X54.250 Y33.463 E0.00760
G1 X54.043 Y33.582 E0.00748
G1 X53.855 Y33.729 E0.00748
G1 X53.690 Y33.900 E0.00748
G1 X53.549 Y34.094 E0.00748
G1 X53.437 Y34.304 E0.00748
G1 X53.356 Y34.528 E0.00748
G1 X53.306 Y34.762 E0.00748
G1 X53.289 Y35.000 E0.00748
G1 X53.306 Y35.242 E0.00760
G1 X53.392 Y35.585 E0.01110
G1 X53.547 Y35.903 E0.01110
G1 X53.690 Y36.100 E0.00760
G1 X53.855 Y36.271 E0.00748
G1 X54.043 Y36.418 E0.00748
G1 X54.250 Y36.537 E0.00748
G1 X54.471 Y36.627 E0.00748
G1 X54.790 Y36.692 E0.01020
G1 X54.790 Y204.790 E5.27059
G1 X25.210 Y204.790 E0.92746
G1 X25.210 Y5.270 E6.25581
G1 X25.566 Y5.393 F10800.000
G1 F8640
G1 X28.501 Y5.269 E-0.76000
G1 E-0.04000 F2100.00000
G1 Z0.800 F10800.000
G1 X26.464 Y204.300
G1 Z0.200
G1 E0.80000 F2100.00000
G1 F1200
G1 X25.870 Y203.706 E0.02639
G1 X25.870 Y203.172 E0.01676
G1 X26.828 Y204.130 E0.04256
G1 X27.362 Y204.130 E0.01676
G1 X25.870 Y202.638 E0.06627
G1 X25.870 Y202.104 E0.01676
G1 X27.896 Y204.130 E0.08998
G1 X28.430 Y204.130 E0.01676
G1 X25.870 Y201.570 E0.11369
G1 X25.870 Y201.036 E0.01676
G1 X28.964 Y204.130 E0.13739
G1 X29.498 Y204.130 E0.01676
G1 X25.870 Y200.502 E0.16110
G1 X25.870 Y199.968 E0.01676
G1 X30.032 Y204.130 E0.18481
G1 X30.566 Y204.130 E0.01676
G1 X25.870 Y199.434 E0.20852
G1 X25.870 Y198.900 E0.01676
G1 X31.100 Y204.130 E0.23223
G1 X31.634 Y204.130 E0.01676
G1 X25.870 Y198.366 E0.25593
G1 X25.870 Y197.832 E0.01676
G1 X32.168 Y204.130 E0.27964
G1 X32.702 Y204.130 E0.01676
G1 X25.870 Y197.298 E0.30335
G1 X25.870 Y196.764 E0.01676
G1 X33.236 Y204.130 E0.32706
G1 X33.770 Y204.130 E0.01676
G1 X25.870 Y196.230 E0.35077
G1 X25.870 Y195.696 E0.01676
G1 X34.304 Y204.130 E0.37448
G1 X34.838 Y204.130 E0.01676
G1 X25.870 Y195.162 E0.39818
M73 Q1 S115
G1 X25.870 Y194.628 E0.01676
G1 X35.372 Y204.130 E0.42189
M73 P1 R115
G1 X35.906 Y204.130 E0.01676
G1 X25.870 Y194.094 E0.44560
G1 X25.870 Y193.560 E0.01676
G1 X36.440 Y204.130 E0.46931
G1 X36.974 Y204.130 E0.01676
G1 X25.870 Y193.026 E0.49302
G1 X25.870 Y192.492 E0.01676
G1 X37.508 Y204.130 E0.51672
G1 X38.042 Y204.130 E0.01676
G1 X25.870 Y191.958 E0.54043
G1 X25.870 Y191.424 E0.01676
G1 X38.576 Y204.130 E0.56414
G1 X39.110 Y204.130 E0.01676
G1 X25.870 Y190.890 E0.58785
G1 X25.870 Y190.356 E0.01676
G1 X39.644 Y204.130 E0.61156
G1 X40.178 Y204.130 E0.01676
G1 X25.870 Y189.822 E0.63527
G1 X25.870 Y189.288 E0.01676
G1 X40.712 Y204.130 E0.65897
G1 X41.246 Y204.130 E0.01676
G1 X25.870 Y188.754 E0.68268
G1 X25.870 Y188.220 E0.01676
G1 X41.780 Y204.130 E0.70639
G1 X42.314 Y204.130 E0.01676
G1 X25.870 Y187.686 E0.73010
G1 X25.870 Y187.152 E0.01676
G1 X42.848 Y204.130 E0.75381
G1 X43.382 Y204.130 E0.01676
G1 X25.870 Y186.618 E0.77751
G1 X25.870 Y186.084 E0.01676
G1 X43.916 Y204.130 E0.80122
G1 X44.449 Y204.130 E0.01676
G1 X25.870 Y185.551 E0.82493
G1 X25.870 Y185.017 E0.01676
G1 X44.983 Y204.130 E0.84864
G1 X45.517 Y204.130 E0.01676
G1 X25.870 Y184.483 E0.87235
G1 X25.870 Y183.949 E0.01676
G1 X46.051 Y204.130 E0.89606
G1 X46.585 Y204.130 E0.01676
G1 X25.870 Y183.415 E0.91976
G1 X25.870 Y182.881 E0.01676
G1 X47.119 Y204.130 E0.94347
G1 X47.653 Y204.130 E0.01676
G1 X25.870 Y182.347 E0.96718
G1 X25.870 Y181.813 E0.01676
G1 X48.187 Y204.130 E0.99089
G1 X48.721 Y204.130 E0.01676
G1 X25.870 Y181.279 E1.01460
G1 X25.870 Y180.745 E0.01676
G1 X49.255 Y204.130 E1.03830
G1 X49.789 Y204.130 E0.01676
G1 X25.870 Y180.211 E1.06201
G1 X25.870 Y179.677 E0.01676
G1 X50.323 Y204.130 E1.08572
G1 X50.857 Y204.130 E0.01676
G1 X25.870 Y179.143 E1.10943
G1 X25.870 Y178.609 E0.01676
G1 X51.391 Y204.130 E1.13314
G1 X51.925 Y204.130 E0.01676
G1 X25.870 Y178.075 E1.15685
G1 X25.870 Y177.541 E0.01676
G1 X52.459 Y204.130 E1.18055
G1 X52.993 Y204.130 E0.01676
G1 X25.870 Y177.007 E1.20426
G1 X25.870 Y176.473 E0.01676
G1 X53.527 Y204.130 E1.22797
G1 X54.061 Y204.130 E0.01676
G1 X25.870 Y175.939 E1.25168
G1 X25.870 Y175.405 E0.01676
G1 X54.130 Y203.665 E1.25475
G1 X54.130 Y203.131 E0.01676
G1 X25.870 Y174.871 E1.25475
G1 X25.870 Y174.337 E0.01676
G1 X54.130 Y202.597 E1.25475
G1 X54.130 Y202.063 E0.01676
G1 X25.870 Y173.803 E1.25475
G1 X25.870 Y173.269 E0.01676
G1 X54.130 Y201.529 E1.25475
G1 X54.130 Y200.996 E0.01676
G1 X25.870 Y172.735 E1.25475
M73 Q2 S114
M73 P2 R114
G1 X25.870 Y172.201 E0.01676
G1 X54.130 Y200.462 E1.25475
G1 X54.130 Y199.928 E0.01676
G1 X25.870 Y171.667 E1.25475
G1 X25.870 Y171.133 E0.01676
G1 X54.130 Y199.394 E1.25475
G1 X54.130 Y198.860 E0.01676
G1 X25.870 Y170.599 E1.25475
G1 X25.870 Y170.065 E0.01676
G1 X54.130 Y198.326 E1.25475
G1 X54.130 Y197.792 E0.01676
G1 X25.870 Y169.531 E1.25475
G1 X25.870 Y168.997 E0.01676
G1 X54.130 Y197.258 E1.25475
G1 X54.130 Y196.724 E0.01676
G1 X25.870 Y168.463 E1.25475
G1 X25.870 Y167.930 E0.01676
G1 X54.130 Y196.190 E1.25475
G1 X54.130 Y195.656 E0.01676
G1 X25.870 Y167.396 E1.25475
G1 X25.870 Y166.862 E0.01676
G1 X54.130 Y195.122 E1.25475
G1 X54.130 Y194.588 E0.01676
G1 X25.870 Y166.328 E1.25475
G1 X25.870 Y165.794 E0.01676
G1 X54.130 Y194.054 E1.25475
G1 X54.130 Y193.520 E0.01676
G1 X25.870 Y165.260 E1.25475
G1 X25.870 Y164.726 E0.01676
G1 X54.130 Y192.986 E1.25475
G1 X54.130 Y192.452 E0.01676
G1 X25.870 Y164.192 E1.25475
G1 X25.870 Y163.658 E0.01676
G1 X54.130 Y191.918 E1.25475
G1 X54.130 Y191.384 E0.01676
G1 X25.870 Y163.124 E1.25475
G1 X25.870 Y162.590 E0.01676
G1 X54.130 Y190.850 E1.25475
G1 X54.130 Y190.316 E0.01676
G1 X25.870 Y162.056 E1.25475
G1 X25.870 Y161.522 E0.01676
G1 X54.130 Y189.782 E1.25475
G1 X54.130 Y189.248 E0.01676
G1 X25.870 Y160.988 E1.25475
G1 X25.870 Y160.454 E0.01676
G1 X54.130 Y188.714 E1.25475
G1 X54.130 Y188.180 E0.01676
G1 X25.870 Y159.920 E1.25475
G1 X25.870 Y159.386 E0.01676
G1 X54.130 Y187.646 E1.25475
G1 X54.130 Y187.112 E0.01676
G1 X25.870 Y158.852 E1.25475
G1 X25.870 Y158.318 E0.01676
G1 X54.130 Y186.578 E1.25475
G1 X54.130 Y186.044 E0.01676
G1 X25.870 Y157.784 E1.25475
G1 X25.870 Y157.250 E0.01676
G1 X54.130 Y185.510 E1.25475
G1 X54.130 Y184.976 E0.01676
G1 X25.870 Y156.716 E1.25475
M73 Q3 S113
M73 P3 R113
G1 X25.870 Y156.182 E0.01676
G1 X54.130 Y184.442 E1.25475
G1 X54.130 Y183.908 E0.01676
G1 X25.870 Y155.648 E1.25475
G1 X25.870 Y155.114 E0.01676
G1 X54.130 Y183.374 E1.25475
G1 X54.130 Y182.841 E0.01676
G1 X25.870 Y154.580 E1.25475
G1 X25.870 Y154.046 E0.01676
G1 X54.130 Y182.307 E1.25475
G1 X54.130 Y181.773 E0.01676
G1 X25.870 Y153.512 E1.25475
G1 X25.870 Y152.978 E0.01676
G1 X54.130 Y181.239 E1.25475
G1 X54.130 Y180.705 E0.01676
G1 X25.870 Y152.444 E1.25475
G1 X25.870 Y151.910 E0.01676
G1 X54.130 Y180.171 E1.25475
G1 X54.130 Y179.637 E0.01676
G1 X25.870 Y151.376 E1.25475
G1 X25.870 Y150.842 E0.01676
G1 X54.130 Y179.103 E1.25475
G1 X54.130 Y178.569 E0.01676
G1 X25.870 Y150.308 E1.25475
G1 X25.870 Y149.775 E0.01676
G1 X54.130 Y178.035 E1.25475
G1 X54.130 Y177.501 E0.01676
G1 X25.870 Y149.241 E1.25475
G1 X25.870 Y148.707 E0.01676
G1 X54.130 Y176.967 E1.25475
G1 X54.130 Y176.433 E0.01676
G1 X25.870 Y148.173 E1.25475
G1 X25.870 Y147.639 E0.01676
G1 X54.130 Y175.899 E1.25475
G1 X54.130 Y175.365 E0.01676
G1 X25.870 Y147.105 E1.25475
G1 X25.870 Y146.571 E0.01676
G1 X54.130 Y174.831 E1.25475
G1 X54.130 Y174.297 E0.01676
G1 X25.870 Y146.037 E1.25475
G1 X25.870 Y145.503 E0.01676
G1 X54.130 Y173.763 E1.25475
G1 X54.130 Y173.229 E0.01676
G1 X25.870 Y144.969 E1.25475
G1 X25.870 Y144.435 E0.01676
G1 X54.130 Y172.695 E1.25475
G1 X54.130 Y172.161 E0.01676
G1 X25.870 Y143.901 E1.25475
G1 X25.870 Y143.367 E0.01676
G1 X54.130 Y171.627 E1.25475
G1 X54.130 Y171.093 E0.01676
G1 X25.870 Y142.833 E1.25475
G1 X25.870 Y142.299 E0.01676
G1 X54.130 Y170.559 E1.25475
G1 X54.130 Y170.025 E0.01676
G1 X25.870 Y141.765 E1.25475
G1 X25.870 Y141.231 E0.01676
G1 X54.130 Y169.491 E1.25475
G1 X54.130 Y168.957 E0.01676
G1 X25.870 Y140.697 E1.25475
M73 Q4 S112
M73 P4 R112
G1 X25.870 Y140.163 E0.01676
G1 X54.130 Y168.423 E1.25475
G1 X54.130 Y167.889 E0.01676
G1 X25.870 Y139.629 E1.25475
G1 X25.870 Y139.095 E0.01676
G1 X54.130 Y167.355 E1.25475
G1 X54.130 Y166.821 E0.01676
G1 X25.870 Y138.561 E1.25475
G1 X25.870 Y138.027 E0.01676
G1 X54.130 Y166.287 E1.25475
G1 X54.130 Y165.753 E0.01676
G1 X25.870 Y137.493 E1.25475
G1 X25.870 Y136.959 E0.01676
G1 X54.130 Y165.220 E1.25475
G1 X54.130 Y164.686 E0.01676
G1 X25.870 Y136.425 E1.25475
G1 X25.870 Y135.891 E0.01676
G1 X54.130 Y164.152 E1.25475
G1 X54.130 Y163.618 E0.01676
G1 X25.870 Y135.357 E1.25475
G1 X25.870 Y134.823 E0.01676
G1 X54.130 Y163.084 E1.25475
G1 X54.130 Y162.550 E0.01676
G1 X25.870 Y134.289 E1.25475
G1 X25.870 Y133.755 E0.01676
G1 X54.130 Y162.016 E1.25475
G1 X54.130 Y161.482 E0.01676
G1 X25.870 Y133.221 E1.25475
G1 X25.870 Y132.687 E0.01676
G1 X54.130 Y160.948 E1.25475
G1 X54.130 Y160.414 E0.01676
G1 X25.870 Y132.154 E1.25475
G1 X25.870 Y131.620 E0.01676
G1 X54.130 Y159.880 E1.25475
G1 X54.130 Y159.346 E0.01676
G1 X25.870 Y131.086 E1.25475
G1 X25.870 Y130.552 E0.01676
G1 X54.130 Y158.812 E1.25475
G1 X54.130 Y158.278 E0.01676
G1 X25.870 Y130.018 E1.25475
G1 X25.870 Y129.484 E0.01676
G1 X54.130 Y157.744 E1.25475
G1 X54.130 Y157.210 E0.01676
G1 X25.870 Y128.950 E1.25475
G1 X25.870 Y128.416 E0.01676
G1 X54.130 Y156.676 E1.25475
G1 X54.130 Y156.142 E0.01676
G1 X25.870 Y127.882 E1.25475
G1 X25.870 Y127.348 E0.01676
G1 X54.130 Y155.608 E1.25475
G1 X54.130 Y155.074 E0.01676
G1 X25.870 Y126.814 E1.25475
G1 X25.870 Y126.280 E0.01676
G1 X54.130 Y154.540 E1.25475
G1 X54.130 Y154.006 E0.01676
G1 X25.870 Y125.746 E1.25475
G1 X25.870 Y125.212 E0.01676
G1 X54.130 Y153.472 E1.25475
G1 X54.130 Y152.938 E0.01676
G1 X25.870 Y124.678 E1.25475
M73 Q5 S111
M73 P5 R111
G1 X25.870 Y124.144 E0.01676
G1 X54.130 Y152.404 E1.25475
G1 X54.130 Y151.870 E0.01676
G1 X25.870 Y123.610 E1.25475
G1 X25.870 Y123.076 E0.01676
G1 X54.130 Y151.336 E1.25475
G1 X54.130 Y150.802 E0.01676
G1 X25.870 Y122.542 E1.25475
G1 X25.870 Y122.008 E0.01676
G1 X54.130 Y150.268 E1.25475
G1 X54.130 Y149.734 E0.01676
G1 X25.870 Y121.474 E1.25475
G1 X25.870 Y120.940 E0.01676
G1 X54.130 Y149.200 E1.25475
G1 X54.130 Y148.666 E0.01676
G1 X25.870 Y120.406 E1.25475
G1 X25.870 Y119.872 E0.01676
G1 X54.130 Y148.132 E1.25475
G1 X54.130 Y147.598 E0.01676
G1 X25.870 Y119.338 E1.25475
G1 X25.870 Y118.804 E0.01676
G1 X54.130 Y147.065 E1.25475
G1 X54.130 Y146.531 E0.01676
G1 X25.870 Y118.270 E1.25475
G1 X25.870 Y117.736 E0.01676
G1 X54.130 Y145.997 E1.25475
G1 X54.130 Y145.463 E0.01676
G1 X25.870 Y117.202 E1.25475
G1 X25.870 Y116.668 E0.01676
G1 X54.130 Y144.929 E1.25475
G1 X54.130 Y144.395 E0.01676
G1 X25.870 Y116.134 E1.25475
G1 X25.870 Y115.600 E0.01676
G1 X54.130 Y143.861 E1.25475
G1 X54.130 Y143.327 E0.01676
G1 X25.870 Y115.066 E1.25475
G1 X25.870 Y114.532 E0.01676
G1 X54.130 Y142.793 E1.25475
G1 X54.130 Y142.259 E0.01676
G1 X25.870 Y113.999 E1.25475
G1 X25.870 Y113.465 E0.01676
G1 X54.130 Y141.725 E1.25475
G1 X54.130 Y141.191 E0.01676
G1 X25.870 Y112.931 E1.25475
G1 X25.870 Y112.397 E0.01676
G1 X54.130 Y140.657 E1.25475
G1 X54.130 Y140.123 E0.01676
G1 X25.870 Y111.863 E1.25475
G1 X25.870 Y111.329 E0.01676
G1 X54.130 Y139.589 E1.25475
G1 X54.130 Y139.055 E0.01676
G1 X25.870 Y110.795 E1.25475
G1 X25.870 Y110.261 E0.01676
G1 X54.130 Y138.521 E1.25475
G1 X54.130 Y137.987 E0.01676
G1 X25.870 Y109.727 E1.25475
G1 X25.870 Y109.193 E0.01676
G1 X54.130 Y137.453 E1.25475
G1 X54.130 Y136.919 E0.01676
G1 X25.870 Y108.659 E1.25475
M73 Q6 S110
M73 P6 R110
G1 X25.870 Y108.125 E0.01676
G1 X54.130 Y136.385 E1.25475
G1 X54.130 Y135.851 E0.01676
G1 X25.870 Y107.591 E1.25475
G1 X25.870 Y107.057 E0.01676
G1 X54.130 Y135.317 E1.25475
G1 X54.130 Y134.783 E0.01676
G1 X25.870 Y106.523 E1.25475
G1 X25.870 Y105.989 E0.01676
G1 X54.130 Y134.249 E1.25475
G1 X54.130 Y133.715 E0.01676
G1 X25.870 Y105.455 E1.25475
G1 X25.870 Y104.921 E0.01676
G1 X54.130 Y133.181 E1.25475
G1 X54.130 Y132.647 E0.01676
G1 X25.870 Y104.387 E1.25475
G1 X25.870 Y103.853 E0.01676
G1 X54.130 Y132.113 E1.25475
G1 X54.130 Y131.579 E0.01676
G1 X25.870 Y103.319 E1.25475
G1 X25.870 Y102.785 E0.01676
G1 X54.130 Y131.045 E1.25475
G1 X54.130 Y130.511 E0.01676
G1 X25.870 Y102.251 E1.25475
G1 X25.870 Y101.717 E0.01676
G1 X54.130 Y129.977 E1.25475
G1 X54.130 Y129.443 E0.01676
G1 X25.870 Y101.183 E1.25475
G1 X25.870 Y100.649 E0.01676
G1 X54.130 Y128.910 E1.25475
G1 X54.130 Y128.376 E0.01676
G1 X25.870 Y100.115 E1.25475
G1 X25.870 Y99.581 E0.01676
