; generated by PrusaSlicer 2.2.0+win64 on 2020-07-26 at 12:32:44 UTC

; 

; external perimeters extrusion width = 0.45mm
; perimeters extrusion width = 0.45mm
; infill extrusion width = 0.45mm
; solid infill extrusion width = 0.45mm
; top infill extrusion width = 0.40mm
; first layer extrusion width = 0.42mm

M73 P0 R114
M73 Q0 S115
M201 X1000 Y1000 Z200 E5000 ; sets maximum accelerations, mm/sec^2
M203 X200 Y200 Z12 E120 ; sets maximum feedrates, mm/sec
M204 P1250 R1250 T1250 ; sets acceleration (P, T) and retract acceleration (R), mm/sec^2
M205 X8.00 Y8.00 Z0.40 E4.50 ; sets the jerk limits, mm/sec
M205 S0 T0 ; sets the minimum extruding and travel feed rate, mm/sec
M107
M862.3 P "MK3S" ; printer model check
M862.1 P0.4 ; nozzle diameter check
M115 U3.9.0 ; tell printer latest fw version
G90 ; use absolute coordinates
M83 ; extruder relative mode
M104 S215 ; set extruder temp
M140 S60 ; set bed temp
M190 S60 ; wait for bed temp
M109 S215 ; wait for extruder temp
G28 W ; home all without mesh bed level
G80 ; mesh bed leveling
G1 Y-3.0 F1000.0 ; go outside print area
G92 E0.0
G1 X60.0 E9.0 F1000.0 ; intro line
M73 Q0 S115
M73 P0 R114
G1 X100.0 E12.5 F1000.0 ; intro line
G92 E0.0
M221 S95
G21 ; set units to millimeters
G90 ; use absolute coordinates
M83 ; use relative distances for extrusion
M900 K0.06 ; Filament gcode LA 1.5
M900 K30 ; Filament gcode LA 1.0
;BEFORE_LAYER_CHANGE
G92 E0.0
;0.2


G1 E-0.80000 F2100.00000
G1 Z0.600 F10800.000
;AFTER_LAYER_CHANGE
;0.2
G1 X76.993 Y87.611
G1 Z0.200
G1 E0.80000 F2100.00000
M204 S1000
G1 F1200.000
G1 X77.625 Y87.287 E0.02225
G1 X78.377 Y87.163 E0.02390
G1 X175.186 Y87.163 E3.03537
G1 X176.084 Y87.341 E0.02872
G1 X176.846 Y87.843 E0.02860
G1 X177.363 Y88.595 E0.02860
G1 X177.558 Y89.490 E0.02872
G1 X177.556 Y119.858 E0.95219
G1 X177.417 Y120.550 E0.02213
G1 X177.078 Y121.174 E0.02225
G1 X176.570 Y121.670 E0.02225
G1 X175.939 Y121.994 E0.02225
G1 X175.187 Y122.117 E0.02390
G1 X78.348 Y122.117 E3.03632
G1 X77.629 Y121.995 E0.02284
G1 X76.982 Y121.661 E0.02284
G1 X76.466 Y121.147 E0.02284
G1 X76.129 Y120.497 E0.02296
G1 X76.005 Y119.749 E0.02378
G1 X76.007 Y89.434 E0.95052
G1 X76.144 Y88.737 E0.02225
G1 X76.483 Y88.110 E0.02237
G1 X76.950 Y87.653 E0.02049
G1 F8640.000
G1 X77.625 Y87.287 E-0.17713
G1 X78.377 Y87.163 E-0.17602
G1 X80.139 Y87.163 E-0.40685
G1 E-0.04000 F2100.00000
G1 Z0.800 F10800.000
G1 X95.095 Y103.553
G1 Z0.200
G1 E0.80000 F2100.00000
G1 F1200.000
G1 X166.269 Y103.553 E2.23162
G1 X166.269 Y112.527 E0.28138
G1 X95.095 Y112.527 E2.23162
G1 X95.095 Y103.613 E0.27950
G1 X95.472 Y103.930 F10800.000
G1 F1200.000
G1 X165.892 Y103.930 E2.20797
G1 X165.892 Y112.150 E0.25773
G1 X95.472 Y112.150 E2.20797
G1 X95.472 Y103.990 E0.25585
G1 X95.285 Y103.576 F10800.000
G1 F8640.000
G1 X98.763 Y103.987 E-0.76000
G1 E-0.04000 F2100.00000
G1 Z0.800 F10800.000
G1 X79.169 Y90.327
G1 Z0.200
G1 E0.80000 F2100.00000
G1 F1200.000
G1 X174.395 Y90.327 E2.98574
G1 X174.395 Y118.953 E0.89754
G1 X79.169 Y118.953 E2.98574
G1 X79.169 Y90.387 E0.89566
G1 X78.792 Y89.950 F10800.000
G1 F1200.000
G1 X174.772 Y89.950 E3.00939
G1 X174.772 Y119.330 E0.92119
G1 X78.792 Y119.330 E3.00939
G1 X78.792 Y90.010 E0.91931
G1 X79.190 Y89.990 F10800.000
G1 F8640.000
G1 X82.083 Y90.008 E-0.76000
G1 E-0.04000 F2100.00000
G1 Z0.800 F10800.000
G1 X95.227 Y112.640
G1 Z0.200
G1 E0.80000 F2100.00000
M73 Q0 S114
G1 F1200.000
G1 X101.257 Y118.670 E0.26800
M73 P0 R113
G1 X101.792 Y118.670 E0.01680
G1 X95.932 Y112.810 E0.26046
G1 X96.466 Y112.810 E0.01680
G1 X102.326 Y118.670 E0.26046
G1 X102.861 Y118.670 E0.01680
G1 X97.001 Y112.810 E0.26046
G1 X97.535 Y112.810 E0.01680
G1 X103.395 Y118.670 E0.26046
G1 X103.930 Y118.670 E0.01680
G1 X98.070 Y112.810 E0.26046
G1 X98.604 Y112.810 E0.01680
G1 X104.464 Y118.670 E0.26046
G1 X104.999 Y118.670 E0.01680
G1 X99.139 Y112.810 E0.26046
G1 X99.673 Y112.810 E0.01680
G1 X105.533 Y118.670 E0.26046
G1 X106.068 Y118.670 E0.01680
G1 X100.208 Y112.810 E0.26046
G1 X100.742 Y112.810 E0.01680
G1 X106.603 Y118.670 E0.26046
G1 X107.137 Y118.670 E0.01680
G1 X101.277 Y112.810 E0.26046
G1 X101.811 Y112.810 E0.01680
G1 X107.672 Y118.670 E0.26046
G1 X108.206 Y118.670 E0.01680
G1 X102.346 Y112.810 E0.26046
G1 X102.880 Y112.810 E0.01680
G1 X108.741 Y118.670 E0.26046
G1 X109.275 Y118.670 E0.01680
G1 X103.415 Y112.810 E0.26046
G1 X103.949 Y112.810 E0.01680
G1 X109.810 Y118.670 E0.26046
G1 X110.344 Y118.670 E0.01680
G1 X104.484 Y112.810 E0.26046
G1 X105.018 Y112.810 E0.01680
G1 X110.879 Y118.670 E0.26046
G1 X111.413 Y118.670 E0.01680
G1 X105.553 Y112.810 E0.26046
G1 X106.087 Y112.810 E0.01680
G1 X111.948 Y118.670 E0.26046
G1 X112.482 Y118.670 E0.01680
G1 X106.622 Y112.810 E0.26046
G1 X107.157 Y112.810 E0.01680
G1 X113.017 Y118.670 E0.26046
G1 X113.551 Y118.670 E0.01680
G1 X107.691 Y112.810 E0.26046
G1 X108.226 Y112.810 E0.01680
G1 X114.086 Y118.670 E0.26046
G1 X114.620 Y118.670 E0.01680
G1 X108.760 Y112.810 E0.26046
G1 X109.295 Y112.810 E0.01680
G1 X115.155 Y118.670 E0.26046
G1 X115.689 Y118.670 E0.01680
G1 X109.829 Y112.810 E0.26046
G1 X110.364 Y112.810 E0.01680
G1 X116.224 Y118.670 E0.26046
G1 X116.758 Y118.670 E0.01680
G1 X110.898 Y112.810 E0.26046
G1 X111.433 Y112.810 E0.01680
G1 X117.293 Y118.670 E0.26046
G1 X117.827 Y118.670 E0.01680
G1 X111.967 Y112.810 E0.26046
G1 X112.502 Y112.810 E0.01680
G1 X118.362 Y118.670 E0.26046
G1 X118.897 Y118.670 E0.01680
G1 X113.036 Y112.810 E0.26046
G1 X113.571 Y112.810 E0.01680
G1 X119.431 Y118.670 E0.26046
G1 X119.966 Y118.670 E0.01680
G1 X114.105 Y112.810 E0.26046
G1 X114.640 Y112.810 E0.01680
G1 X120.500 Y118.670 E0.26046
G1 X121.035 Y118.670 E0.01680
G1 X115.174 Y112.810 E0.26046
G1 X115.709 Y112.810 E0.01680
G1 X121.569 Y118.670 E0.26046
G1 X122.104 Y118.670 E0.01680
G1 X116.243 Y112.810 E0.26046
G1 X116.778 Y112.810 E0.01680
G1 X122.638 Y118.670 E0.26046
G1 X123.173 Y118.670 E0.01680
G1 X117.312 Y112.810 E0.26046
G1 X117.847 Y112.810 E0.01680
G1 X123.707 Y118.670 E0.26046
G1 X124.242 Y118.670 E0.01680
G1 X118.381 Y112.810 E0.26046
G1 X118.916 Y112.810 E0.01680
G1 X124.776 Y118.670 E0.26046
G1 X125.311 Y118.670 E0.01680
G1 X119.451 Y112.810 E0.26046
G1 X119.985 Y112.810 E0.01680
G1 X125.845 Y118.670 E0.26046
G1 X126.380 Y118.670 E0.01680
G1 X120.520 Y112.810 E0.26046
G1 X121.054 Y112.810 E0.01680
G1 X126.914 Y118.670 E0.26046
G1 X127.449 Y118.670 E0.01680
G1 X121.589 Y112.810 E0.26046
G1 X122.123 Y112.810 E0.01680
G1 X127.983 Y118.670 E0.26046
G1 X128.518 Y118.670 E0.01680
G1 X122.658 Y112.810 E0.26046
G1 X123.192 Y112.810 E0.01680
G1 X129.052 Y118.670 E0.26046
G1 X129.587 Y118.670 E0.01680
G1 X123.727 Y112.810 E0.26046
G1 X124.261 Y112.810 E0.01680
G1 X130.121 Y118.670 E0.26046
G1 X130.656 Y118.670 E0.01680
G1 X124.796 Y112.810 E0.26046
G1 X125.330 Y112.810 E0.01680
G1 X131.191 Y118.670 E0.26046
G1 X131.725 Y118.670 E0.01680
G1 X125.865 Y112.810 E0.26046
G1 X126.399 Y112.810 E0.01680
G1 X132.260 Y118.670 E0.26046
G1 X132.794 Y118.670 E0.01680
G1 X126.934 Y112.810 E0.26046
G1 X127.468 Y112.810 E0.01680
G1 X133.329 Y118.670 E0.26046
G1 X133.863 Y118.670 E0.01680
G1 X128.003 Y112.810 E0.26046
G1 X128.537 Y112.810 E0.01680
G1 X134.398 Y118.670 E0.26046
G1 X134.932 Y118.670 E0.01680
G1 X129.072 Y112.810 E0.26046
G1 X129.606 Y112.810 E0.01680
G1 X135.467 Y118.670 E0.26046
G1 X136.001 Y118.670 E0.01680
G1 X130.141 Y112.810 E0.26046
G1 X130.675 Y112.810 E0.01680
G1 X136.536 Y118.670 E0.26046
G1 X137.070 Y118.670 E0.01680
G1 X131.210 Y112.810 E0.26046
G1 X131.745 Y112.810 E0.01680
G1 X137.605 Y118.670 E0.26046
G1 X138.139 Y118.670 E0.01680
G1 X132.279 Y112.810 E0.26046
G1 X132.814 Y112.810 E0.01680
G1 X138.674 Y118.670 E0.26046
G1 X139.208 Y118.670 E0.01680
G1 X133.348 Y112.810 E0.26046
G1 X133.883 Y112.810 E0.01680
G1 X139.743 Y118.670 E0.26046
G1 X140.277 Y118.670 E0.01680
G1 X134.417 Y112.810 E0.26046
G1 X134.952 Y112.810 E0.01680
G1 X140.812 Y118.670 E0.26046
G1 X141.346 Y118.670 E0.01680
G1 X135.486 Y112.810 E0.26046
G1 X136.021 Y112.810 E0.01680
G1 X141.881 Y118.670 E0.26046
G1 X142.415 Y118.670 E0.01680
G1 X136.555 Y112.810 E0.26046
G1 X137.090 Y112.810 E0.01680
G1 X142.950 Y118.670 E0.26046
G1 X143.485 Y118.670 E0.01680
G1 X137.624 Y112.810 E0.26046
G1 X138.159 Y112.810 E0.01680
G1 X144.019 Y118.670 E0.26046
G1 X144.554 Y118.670 E0.01680
G1 X138.693 Y112.810 E0.26046
G1 X139.228 Y112.810 E0.01680
G1 X145.088 Y118.670 E0.26046
G1 X145.623 Y118.670 E0.01680
G1 X139.762 Y112.810 E0.26046
G1 X140.297 Y112.810 E0.01680
G1 X146.157 Y118.670 E0.26046
G1 X146.692 Y118.670 E0.01680
G1 X140.831 Y112.810 E0.26046
G1 X141.366 Y112.810 E0.01680
G1 X147.226 Y118.670 E0.26046
G1 X147.761 Y118.670 E0.01680
G1 X141.900 Y112.810 E0.26046
G1 X142.435 Y112.810 E0.01680
G1 X148.295 Y118.670 E0.26046
G1 X148.830 Y118.670 E0.01680
G1 X142.969 Y112.810 E0.26046
G1 X143.504 Y112.810 E0.01680
G1 X149.364 Y118.670 E0.26046
G1 X149.899 Y118.670 E0.01680
G1 X144.039 Y112.810 E0.26046
G1 X144.573 Y112.810 E0.01680
G1 X150.433 Y118.670 E0.26046
G1 X150.968 Y118.670 E0.01680
G1 X145.108 Y112.810 E0.26046
G1 X145.642 Y112.810 E0.01680
G1 X151.502 Y118.670 E0.26046
G1 X152.037 Y118.670 E0.01680
G1 X146.177 Y112.810 E0.26046
G1 X146.711 Y112.810 E0.01680
G1 X152.571 Y118.670 E0.26046
G1 X153.106 Y118.670 E0.01680
G1 X147.246 Y112.810 E0.26046
G1 X147.780 Y112.810 E0.01680
G1 X153.640 Y118.670 E0.26046
G1 X154.175 Y118.670 E0.01680
G1 X148.315 Y112.810 E0.26046
G1 X148.849 Y112.810 E0.01680
G1 X154.709 Y118.670 E0.26046
G1 X155.244 Y118.670 E0.01680
G1 X149.384 Y112.810 E0.26046
G1 X149.918 Y112.810 E0.01680
G1 X155.779 Y118.670 E0.26046
G1 X156.313 Y118.670 E0.01680
G1 X150.453 Y112.810 E0.26046
G1 X150.987 Y112.810 E0.01680
G1 X156.848 Y118.670 E0.26046
G1 X157.382 Y118.670 E0.01680
G1 X151.522 Y112.810 E0.26046
G1 X152.056 Y112.810 E0.01680
G1 X157.917 Y118.670 E0.26046
G1 X158.451 Y118.670 E0.01680
G1 X152.591 Y112.810 E0.26046
G1 X153.125 Y112.810 E0.01680
G1 X158.986 Y118.670 E0.26046
G1 X159.520 Y118.670 E0.01680
G1 X153.660 Y112.810 E0.26046
G1 X154.194 Y112.810 E0.01680
G1 X160.055 Y118.670 E0.26046
G1 X160.589 Y118.670 E0.01680
G1 X154.729 Y112.810 E0.26046
G1 X155.263 Y112.810 E0.01680
G1 X161.124 Y118.670 E0.26046
G1 X161.658 Y118.670 E0.01680
G1 X155.798 Y112.810 E0.26046
G1 X156.333 Y112.810 E0.01680
G1 X162.193 Y118.670 E0.26046
G1 X162.727 Y118.670 E0.01680
G1 X156.867 Y112.810 E0.26046
G1 X157.402 Y112.810 E0.01680
G1 X163.262 Y118.670 E0.26046
G1 X163.796 Y118.670 E0.01680
G1 X157.936 Y112.810 E0.26046
G1 X158.471 Y112.810 E0.01680
G1 X164.331 Y118.670 E0.26046
G1 X164.865 Y118.670 E0.01680
G1 X159.005 Y112.810 E0.26046
G1 X159.540 Y112.810 E0.01680
G1 X165.400 Y118.670 E0.26046
G1 X165.934 Y118.670 E0.01680
G1 X160.074 Y112.810 E0.26046
G1 X160.609 Y112.810 E0.01680
G1 X166.469 Y118.670 E0.26046
G1 X167.003 Y118.670 E0.01680
G1 X161.143 Y112.810 E0.26046
G1 X161.678 Y112.810 E0.01680
G1 X167.538 Y118.670 E0.26046
G1 X168.073 Y118.670 E0.01680
G1 X162.212 Y112.810 E0.26046
G1 X162.747 Y112.810 E0.01680
G1 X168.607 Y118.670 E0.26046
G1 X169.142 Y118.670 E0.01680
G1 X163.281 Y112.810 E0.26046
G1 X163.816 Y112.810 E0.01680
G1 X169.676 Y118.670 E0.26046
G1 X170.211 Y118.670 E0.01680
G1 X164.350 Y112.810 E0.26046
G1 X164.885 Y112.810 E0.01680
G1 X170.745 Y118.670 E0.26046
G1 X171.280 Y118.670 E0.01680
G1 X165.419 Y112.810 E0.26046
G1 X165.954 Y112.810 E0.01680
G1 X171.814 Y118.670 E0.26046
M73 Q1 S113
G1 X172.349 Y118.670 E0.01680
G1 X166.488 Y112.810 E0.26046
M73 P1 R112
G1 X166.552 Y112.810 E0.00199
G1 X166.552 Y112.339 E0.01481
G1 X172.883 Y118.670 E0.28141
G1 X173.418 Y118.670 E0.01680
G1 X166.552 Y111.804 E0.30517
G1 X166.552 Y111.270 E0.01680
G1 X173.952 Y118.670 E0.32892
G1 X174.112 Y118.670 E0.00502
G1 X174.112 Y118.296 E0.01178
G1 X166.552 Y110.735 E0.33602
G1 X166.552 Y110.201 E0.01680
G1 X174.112 Y117.761 E0.33602
G1 X174.112 Y117.226 E0.01680
G1 X166.552 Y109.666 E0.33602
G1 X166.552 Y109.132 E0.01680
G1 X174.112 Y116.692 E0.33602
G1 X174.112 Y116.157 E0.01680
G1 X166.552 Y108.597 E0.33602
G1 X166.552 Y108.063 E0.01680
G1 X174.112 Y115.623 E0.33602
G1 X174.112 Y115.088 E0.01680
G1 X166.552 Y107.528 E0.33602
G1 X166.552 Y106.994 E0.01680
G1 X174.112 Y114.554 E0.33602
G1 X174.112 Y114.019 E0.01680
G1 X166.552 Y106.459 E0.33602
G1 X166.552 Y105.925 E0.01680
G1 X174.112 Y113.485 E0.33602
G1 X174.112 Y112.950 E0.01680
G1 X166.552 Y105.390 E0.33602
G1 X166.552 Y104.856 E0.01680
G1 X174.112 Y112.416 E0.33602
G1 X174.112 Y111.881 E0.01680
G1 X166.552 Y104.321 E0.33602
G1 X166.552 Y103.786 E0.01680
G1 X174.112 Y111.347 E0.33602
G1 X174.112 Y110.812 E0.01680
G1 X153.910 Y90.610 E0.89790
G1 X154.444 Y90.610 E0.01680
G1 X174.112 Y110.278 E0.87414
G1 X174.112 Y109.743 E0.01680
G1 X154.979 Y90.610 E0.85038
G1 X155.513 Y90.610 E0.01680
G1 X174.112 Y109.209 E0.82662
G1 X174.112 Y108.674 E0.01680
G1 X156.048 Y90.610 E0.80287
G1 X156.582 Y90.610 E0.01680
G1 X174.112 Y108.140 E0.77911
G1 X174.112 Y107.605 E0.01680
G1 X157.117 Y90.610 E0.75535
G1 X157.651 Y90.610 E0.01680
G1 X174.112 Y107.071 E0.73159
G1 X174.112 Y106.536 E0.01680
G1 X158.186 Y90.610 E0.70784
G1 X158.721 Y90.610 E0.01680
G1 X174.112 Y106.002 E0.68408
G1 X174.112 Y105.467 E0.01680
G1 X159.255 Y90.610 E0.66032
G1 X159.790 Y90.610 E0.01680
G1 X174.112 Y104.932 E0.63657
G1 X174.112 Y104.398 E0.01680
G1 X160.324 Y90.610 E0.61281
G1 X160.859 Y90.610 E0.01680
G1 X174.112 Y103.863 E0.58905
G1 X174.112 Y103.329 E0.01680
G1 X161.393 Y90.610 E0.56529
G1 X161.928 Y90.610 E0.01680
G1 X174.112 Y102.794 E0.54154
G1 X174.112 Y102.260 E0.01680
G1 X162.462 Y90.610 E0.51778
G1 X162.997 Y90.610 E0.01680
G1 X174.112 Y101.725 E0.49402
G1 X174.112 Y101.191 E0.01680
G1 X163.531 Y90.610 E0.47027
G1 X164.066 Y90.610 E0.01680
G1 X174.112 Y100.656 E0.44651
G1 X174.112 Y100.122 E0.01680
G1 X164.600 Y90.610 E0.42275
G1 X165.135 Y90.610 E0.01680
G1 X174.112 Y99.587 E0.39899
G1 X174.112 Y99.053 E0.01680
G1 X165.669 Y90.610 E0.37524
G1 X166.204 Y90.610 E0.01680
G1 X174.112 Y98.518 E0.35148
G1 X174.112 Y97.984 E0.01680
G1 X166.738 Y90.610 E0.32772
G1 X167.273 Y90.610 E0.01680
G1 X174.112 Y97.449 E0.30397
G1 X174.112 Y96.915 E0.01680
G1 X167.807 Y90.610 E0.28021
G1 X168.342 Y90.610 E0.01680
G1 X174.112 Y96.380 E0.25645
G1 X174.112 Y95.846 E0.01680
G1 X168.876 Y90.610 E0.23269
G1 X169.411 Y90.610 E0.01680
G1 X174.112 Y95.311 E0.20894
G1 X174.112 Y94.777 E0.01680
G1 X169.945 Y90.610 E0.18518
G1 X170.480 Y90.610 E0.01680
G1 X174.112 Y94.242 E0.16142
G1 X174.112 Y93.708 E0.01680
G1 X171.015 Y90.610 E0.13767
G1 X171.549 Y90.610 E0.01680
G1 X174.112 Y93.173 E0.11391
G1 X174.112 Y92.638 E0.01680
G1 X172.084 Y90.610 E0.09015
G1 X172.618 Y90.610 E0.01680
G1 X174.112 Y92.104 E0.06639
G1 X174.112 Y91.569 E0.01680
G1 X173.153 Y90.610 E0.04264
G1 X173.687 Y90.610 E0.01680
G1 X174.282 Y91.205 E0.02642
G1 F8640.000
G1 X173.687 Y90.610 E-0.19412
G1 X173.153 Y90.610 E-0.12342
G1 X174.112 Y91.569 E-0.31325
G1 X174.112 Y92.104 E-0.12342
G1 X174.094 Y92.086 E-0.00578
G1 E-0.04000 F2100.00000
G1 Z0.800 F10800.000
G1 X166.205 Y103.440
G1 Z0.200
G1 E0.80000 F2100.00000
G1 F1200.000
G1 X153.375 Y90.610 E0.57023
G1 X152.841 Y90.610 E0.01680
G1 X165.501 Y103.270 E0.56269
G1 X164.967 Y103.270 E0.01680
G1 X152.306 Y90.610 E0.56269
G1 X151.772 Y90.610 E0.01680
G1 X164.432 Y103.270 E0.56269
G1 X163.897 Y103.270 E0.01680
G1 X151.237 Y90.610 E0.56269
G1 X150.703 Y90.610 E0.01680
G1 X163.363 Y103.270 E0.56269
G1 X162.828 Y103.270 E0.01680
G1 X150.168 Y90.610 E0.56269
G1 X149.634 Y90.610 E0.01680
G1 X162.294 Y103.270 E0.56269
G1 X161.759 Y103.270 E0.01680
G1 X149.099 Y90.610 E0.56269
G1 X148.565 Y90.610 E0.01680
G1 X161.225 Y103.270 E0.56269
G1 X160.690 Y103.270 E0.01680
G1 X148.030 Y90.610 E0.56269
G1 X147.496 Y90.610 E0.01680
G1 X160.156 Y103.270 E0.56269
G1 X159.621 Y103.270 E0.01680
G1 X146.961 Y90.610 E0.56269
G1 X146.427 Y90.610 E0.01680
G1 X159.087 Y103.270 E0.56269
G1 X158.552 Y103.270 E0.01680
G1 X145.892 Y90.610 E0.56269
G1 X145.357 Y90.610 E0.01680
G1 X158.018 Y103.270 E0.56269
G1 X157.483 Y103.270 E0.01680
G1 X144.823 Y90.610 E0.56269
