; generated by PrusaSlicer 2.1.1 on 2020-08-10 at 17:30:52 UTC

; 

; external perimeters extrusion width = 0.45mm
; perimeters extrusion width = 0.45mm
; infill extrusion width = 0.45mm
; solid infill extrusion width = 0.45mm
; top infill extrusion width = 0.40mm
; first layer extrusion width = 0.42mm

M73 P0 R23
M73 Q0 S23
M201 X1000 Y1000 Z200 E5000 ; sets maximum accelerations, mm/sec^2
M203 X200 Y200 Z12 E120 ; sets maximum feedrates, mm/sec
M204 P1250 R1250 T1250 ; sets acceleration (P, T) and retract acceleration (R), mm/sec^2
M205 X8.00 Y8.00 Z0.40 E4.50 ; sets the jerk limits, mm/sec
M205 S0 T0 ; sets the minimum extruding and travel feed rate, mm/sec
M107
M862.3 P "MK3S" ; printer model check
M862.1 P0.4 ; nozzle diameter check
M115 U3.9.0 ; tell printer latest fw version
G90 ; use absolute coordinates
M83 ; extruder relative mode
M104 S215 ; set extruder temp
M140 S60 ; set bed temp
M190 S60 ; wait for bed temp
M109 S215 ; wait for extruder temp
G28 W ; home all without mesh bed level
G80 ; mesh bed leveling
G1 Y-3.0 F1000.0 ; go outside print area
G92 E0.0
G1 X60.0 E9.0 F1000.0 ; intro line
M73 Q0 S23
M73 P0 R23
G1 X100.0 E12.5 F1000.0 ; intro line
G92 E0.0
M221 S95
G21 ; set units to millimeters
G90 ; use absolute coordinates
M83 ; use relative distances for extrusion
M900 K0.06 ; Filament gcode LA 1.5
M900 K30 ; Filament gcode LA 1.0
;BEFORE_LAYER_CHANGE
G92 E0.0
;0.2


G1 E-0.80000 F2100.00000
G1 Z0.600 F10800.000
;AFTER_LAYER_CHANGE
;0.2
G1 X118.443 Y93.516
G1 Z0.200
G1 E0.80000 F2100.00000
M204 S1000
G1 F1200
G1 X118.702 Y92.788 E0.02423
G1 X119.168 Y92.167 E0.02435
G1 X119.795 Y91.716 E0.02423
G1 X120.528 Y91.471 E0.02423
G1 X130.504 Y91.434 E0.31278
G1 X131.454 Y91.618 E0.03034
G1 X132.268 Y92.141 E0.03034
G1 X132.831 Y92.928 E0.03034
G1 X133.062 Y93.872 E0.03046
G1 X133.020 Y141.484 E1.49284
G1 X132.758 Y142.219 E0.02447
G1 X132.287 Y142.841 E0.02447
G1 X131.650 Y143.293 E0.02447
G1 X130.911 Y143.532 E0.02435
G1 X120.479 Y143.520 E0.32709
G1 X119.678 Y143.221 E0.02680
G1 X119.020 Y142.676 E0.02680
G1 X118.576 Y141.941 E0.02692
G1 X118.400 Y141.105 E0.02680
G1 X118.443 Y93.576 E1.49022
G1 X118.815 Y93.582 F10800.000
G1 F1200
G1 X119.042 Y92.952 E0.02100
G1 X119.449 Y92.420 E0.02100
G1 X119.998 Y92.036 E0.02100
G1 X120.637 Y91.836 E0.02100
G1 X130.504 Y91.811 E0.30937
G1 X131.320 Y91.971 E0.02608
G1 X132.015 Y92.421 E0.02597
G1 X132.494 Y93.097 E0.02597
G1 X132.687 Y93.906 E0.02608
G1 X132.648 Y141.418 E1.48968
G1 X132.420 Y142.051 E0.02112
G1 X132.009 Y142.585 E0.02112
G1 X131.456 Y142.969 E0.02112
G1 X130.808 Y143.167 E0.02123
G1 X120.545 Y143.148 E0.32178
G1 X119.858 Y142.889 E0.02304
G1 X119.297 Y142.419 E0.02293
G1 X118.923 Y141.792 E0.02293
G1 X118.776 Y141.075 E0.02293
G1 X118.815 Y93.642 E1.48723
G1 F8640
G1 X119.042 Y92.952 E-0.16777
G1 X119.449 Y92.420 E-0.15467
G1 X119.998 Y92.036 E-0.15467
G1 X120.637 Y91.836 E-0.15467
G1 X121.192 Y91.835 E-0.12822
G1 E-0.04000 F2100.00000
G1 Z0.800 F10800.000
G1 X127.150 Y111.862
G1 Z0.200
G1 E0.80000 F2100.00000
G1 F1200
G1 X127.486 Y111.740 E0.01122
G1 X127.840 Y111.690 E0.01122
G1 X128.197 Y111.715 E0.01122
G1 X128.541 Y111.813 E0.01122
G1 X128.854 Y111.980 E0.01110
G1 X129.047 Y112.131 E0.00771
G1 X129.284 Y112.394 E0.01110
G1 X129.461 Y112.701 E0.01110
G1 X129.546 Y112.932 E0.00771
G1 X129.607 Y113.281 E0.01110
G1 X129.595 Y113.634 E0.01110
G1 X129.543 Y113.875 E0.00771
G1 X129.411 Y114.203 E0.01110
G1 X129.211 Y114.500 E0.01122
G1 X128.953 Y114.748 E0.01122
G1 X128.650 Y114.938 E0.01122
G1 X128.314 Y115.060 E0.01122
G1 X127.960 Y115.110 E0.01122
G1 X127.603 Y115.085 E0.01122
G1 X127.259 Y114.987 E0.01122
G1 X126.946 Y114.820 E0.01110
G1 X126.753 Y114.669 E0.00771
G1 X126.516 Y114.406 E0.01110
G1 X126.339 Y114.099 E0.01110
G1 X126.254 Y113.868 E0.00771
G1 X126.193 Y113.519 E0.01110
G1 X126.205 Y113.166 E0.01110
G1 X126.257 Y112.925 E0.00771
G1 X126.389 Y112.597 E0.01110
G1 X126.589 Y112.300 E0.01122
G1 X126.847 Y112.052 E0.01122
G1 X127.099 Y111.894 E0.00934
G1 X127.175 Y111.505 F10800.000
G1 F8640
G1 X127.486 Y111.740 E-0.09619
G1 X127.840 Y111.690 E-0.08260
G1 X128.197 Y111.715 E-0.08260
G1 X128.541 Y111.813 E-0.08260
G1 X128.854 Y111.980 E-0.08175
G1 X129.047 Y112.131 E-0.05681
G1 X129.284 Y112.394 E-0.08173
G1 X129.461 Y112.701 E-0.08175
G1 X129.546 Y112.932 E-0.05679
G1 X129.588 Y113.176 E-0.05717
G1 E-0.04000 F2100.00000
G1 Z0.800 F10800.000
G1 X129.913 Y113.951
G1 Z0.200
G1 E0.80000 F2100.00000
G1 F1200
G1 X129.913 Y115.413 E0.04585
G1 X128.448 Y115.413 E0.04594
G1 X128.816 Y115.279 E0.01230
G1 X129.187 Y115.047 E0.01370
G1 X129.501 Y114.744 E0.01370
G1 X129.746 Y114.381 E0.01370
G1 X129.896 Y114.008 E0.01262
G1 F8640
G1 X129.913 Y115.413 E-0.32439
G1 X128.448 Y115.413 E-0.33835
G1 X128.816 Y115.279 E-0.09060
G1 X128.841 Y115.263 E-0.00667
G1 E-0.04000 F2100.00000
G1 Z0.800 F10800.000
G1 X129.913 Y96.044
G1 Z0.200
G1 E0.80000 F2100.00000
G1 F1200
G1 X129.746 Y95.619 E0.01434
G1 X129.507 Y95.265 E0.01338
G1 X129.297 Y95.048 E0.00946
G1 X129.060 Y94.862 E0.00946
G1 X128.683 Y94.662 E0.01338
G1 X128.422 Y94.587 E0.00851
G1 X129.913 Y94.587 E0.04674
G1 X129.913 Y95.984 E0.04381
G1 X129.545 Y96.128 F10800.000
G1 F1200
G1 X129.607 Y96.481 E0.01122
G1 X129.595 Y96.838 E0.01122
G1 X129.508 Y97.185 E0.01122
G1 X129.351 Y97.507 E0.01122
G1 X129.131 Y97.789 E0.01122
G1 X128.857 Y98.019 E0.01122
G1 X128.541 Y98.187 E0.01122
G1 X128.201 Y98.284 E0.01110
G1 X127.956 Y98.310 E0.00771
G1 X127.603 Y98.285 E0.01110
G1 X127.259 Y98.187 E0.01122
G1 X126.946 Y98.020 E0.01110
G1 X126.755 Y97.871 E0.00760
G1 X126.587 Y97.697 E0.00760
G1 X126.389 Y97.403 E0.01110
G1 X126.255 Y97.072 E0.01122
G1 X126.193 Y96.719 E0.01122
G1 X126.206 Y96.362 E0.01122
G1 X126.292 Y96.015 E0.01122
G1 X126.449 Y95.693 E0.01122
G1 X126.669 Y95.411 E0.01122
G1 X126.943 Y95.181 E0.01122
G1 X127.259 Y95.013 E0.01122
G1 X127.599 Y94.916 E0.01110
G1 X127.844 Y94.890 E0.00771
G1 X128.197 Y94.915 E0.01110
G1 X128.541 Y95.013 E0.01122
G1 X128.854 Y95.180 E0.01110
G1 X129.045 Y95.329 E0.00760
G1 X129.213 Y95.503 E0.00760
G1 X129.411 Y95.797 E0.01110
G1 X129.522 Y96.073 E0.00933
G1 X129.892 Y96.215 F10800.000
G1 F8640
G1 X129.607 Y96.481 E-0.09620
G1 X129.595 Y96.838 E-0.08260
G1 X129.508 Y97.185 E-0.08260
G1 X129.351 Y97.507 E-0.08260
G1 X129.131 Y97.789 E-0.08260
G1 X128.857 Y98.019 E-0.08260
G1 X128.541 Y98.187 E-0.08260
G1 X128.201 Y98.284 E-0.08175
G1 X127.956 Y98.310 E-0.05680
G1 X127.828 Y98.301 E-0.02965
G1 E-0.04000 F2100.00000
G1 Z0.800 F10800.000
G1 X129.913 Y97.120
G1 Z0.200
G1 E0.80000 F2100.00000
G1 F1200
G1 X129.913 Y112.844 E0.49303
G1 X129.804 Y112.541 E0.01010
G1 X129.591 Y112.171 E0.01338
G1 X129.306 Y111.854 E0.01337
G1 X129.060 Y111.662 E0.00978
G1 X128.683 Y111.462 E0.01338
G1 X128.263 Y111.341 E0.01370
G1 X127.827 Y111.311 E0.01370
G1 X127.394 Y111.372 E0.01370
G1 X126.984 Y111.521 E0.01370
G1 X126.613 Y111.753 E0.01370
G1 X126.299 Y112.056 E0.01370
G1 X126.054 Y112.419 E0.01370
G1 X125.895 Y112.814 E0.01338
G1 X125.830 Y113.119 E0.00978
G1 X125.815 Y113.546 E0.01338
G1 X125.889 Y113.966 E0.01338
G1 X125.996 Y114.259 E0.00978
G1 X126.209 Y114.629 E0.01338
G1 X126.494 Y114.946 E0.01337
G1 X126.740 Y115.138 E0.00978
G1 X127.117 Y115.338 E0.01338
G1 X127.378 Y115.413 E0.00851
G1 X122.323 Y115.413 E0.15848
G1 X122.323 Y94.587 E0.65298
G1 X127.378 Y94.587 E0.15848
G1 X127.117 Y94.662 E0.00851
G1 X126.731 Y94.867 E0.01370
G1 X126.396 Y95.148 E0.01370
G1 X126.127 Y95.492 E0.01370
G1 X125.936 Y95.885 E0.01370
G1 X125.830 Y96.309 E0.01370
G1 X125.815 Y96.746 E0.01370
G1 X125.891 Y97.176 E0.01370
G1 X126.054 Y97.581 E0.01370
G1 X126.293 Y97.935 E0.01338
G1 X126.503 Y98.152 E0.00946
G1 X126.740 Y98.338 E0.00946
G1 X127.117 Y98.538 E0.01338
G1 X127.537 Y98.659 E0.01370
G1 X127.963 Y98.688 E0.01338
G1 X128.273 Y98.656 E0.00978
G1 X128.683 Y98.538 E0.01338
G1 X129.069 Y98.333 E0.01370
G1 X129.404 Y98.052 E0.01370
G1 X129.673 Y97.708 E0.01370
G1 X129.864 Y97.315 E0.01370
G1 X129.898 Y97.178 E0.00443
G1 F8640
G1 X129.901 Y100.469 E-0.76000
G1 E-0.04000 F2100.00000
G1 Z0.800 F10800.000
G1 X130.290 Y94.210
G1 Z0.200
G1 E0.80000 F2100.00000
G1 F1200
G1 X130.290 Y115.790 E0.67663
G1 X121.946 Y115.790 E0.26161
G1 X121.946 Y94.210 E0.67663
G1 X130.230 Y94.210 E0.25973
G1 X130.241 Y94.607 F10800.000
G1 X129.562 Y94.776
G1 F1200
G1 X129.707 Y95.192 E0.00281
G1 X129.724 Y94.947 F10800.000
G1 F1200
G1 X129.307 Y94.787 E0.00579
G1 F8640
G1 X129.724 Y94.947 E-0.10336
G1 E-0.69664 F2100.00000
G1 Z0.800 F10800.000
G1 X128.235 Y94.563
G1 Z0.200
G1 E0.80000 F2100.00000
G1 F1200
G1 X127.851 Y94.550 E0.01017
G1 X127.565 Y94.564 E0.00722
G1 F8640
G1 X127.851 Y94.550 E-0.06617
G1 E-0.73383 F2100.00000
G1 Z0.800 F10800.000
G1 X126.349 Y95.040
G1 Z0.200
G1 E0.80000 F2100.00000
G1 F1200
G1 X126.178 Y94.870 E0.00771
G1 X125.634 Y94.870 E0.01740
G1 X125.983 Y95.218 E0.01576
G1 X125.886 Y95.342 E0.00501
G1 X125.780 Y95.560 E0.00776
G1 X125.090 Y94.870 E0.03120
G1 X124.546 Y94.870 E0.01740
G1 X125.628 Y95.952 E0.04893
G1 X125.548 Y96.270 E0.01048
G1 X125.544 Y96.411 E0.00454
G1 X124.002 Y94.870 E0.06973
G1 X123.458 Y94.870 E0.01740
G1 X125.778 Y97.190 E0.10496
G1 F8640
G1 X123.458 Y94.870 E-0.75766
G1 X123.468 Y94.870 E-0.00234
G1 E-0.04000 F2100.00000
G1 Z0.800 F10800.000
G1 X129.941 Y96.933
G1 Z0.200
G1 E0.80000 F2100.00000
G1 F1200
G1 X129.949 Y96.473 E0.01210
G1 X129.929 Y96.232 E0.00618
G1 F8640
G1 X129.949 Y96.473 E-0.05577
G1 E-0.74423 F2100.00000
G1 Z0.800 F10800.000
G1 X129.800 Y98.491
G1 Z0.200
G1 E0.80000 F2100.00000
G1 F1200
G1 X129.581 Y98.273 E0.00991
G1 X129.285 Y98.521 E0.01235
G1 X129.630 Y98.866 E0.01561
G1 X129.630 Y99.410 E0.01740
G1 X128.941 Y98.721 E0.03116
G1 X128.790 Y98.802 E0.00550
G1 X128.547 Y98.871 E0.00806
G1 X129.630 Y99.954 E0.04898
G1 X129.630 Y100.498 E0.01740
G1 X128.091 Y98.959 E0.06961
G1 X127.968 Y98.972 E0.00398
G1 X127.530 Y98.942 E0.01404
G1 X129.630 Y101.042 E0.09502
G1 X129.630 Y101.586 E0.01740
G1 X122.914 Y94.870 E0.30381
G1 X122.606 Y94.870 E0.00985
G1 X122.606 Y95.106 E0.00755
G1 X129.630 Y102.130 E0.31774
G1 X129.630 Y102.674 E0.01740
G1 X122.606 Y95.650 E0.31774
G1 X122.606 Y96.194 E0.01740
G1 X129.630 Y103.218 E0.31774
G1 X129.630 Y103.762 E0.01740
G1 X122.606 Y96.738 E0.31774
G1 X122.606 Y97.282 E0.01740
G1 X129.630 Y104.306 E0.31774
G1 X129.630 Y104.850 E0.01740
G1 X122.606 Y97.826 E0.31774
G1 X122.606 Y98.370 E0.01740
G1 X129.630 Y105.394 E0.31774
G1 X129.630 Y105.938 E0.01740
G1 X122.606 Y98.914 E0.31774
G1 X122.606 Y99.458 E0.01740
G1 X129.630 Y106.482 E0.31774
G1 X129.630 Y107.026 E0.01740
G1 X122.606 Y100.002 E0.31774
G1 X122.606 Y100.546 E0.01740
G1 X129.630 Y107.570 E0.31774
G1 X129.630 Y108.114 E0.01740
G1 X122.606 Y101.090 E0.31774
G1 X122.606 Y101.634 E0.01740
G1 X129.630 Y108.658 E0.31774
G1 X129.630 Y109.202 E0.01740
G1 X122.606 Y102.178 E0.31774
G1 X122.606 Y102.722 E0.01740
G1 X129.630 Y109.746 E0.31774
G1 X129.630 Y110.291 E0.01740
G1 X122.606 Y103.267 E0.31774
G1 X122.606 Y103.811 E0.01740
G1 X129.630 Y110.835 E0.31774
G1 X129.630 Y111.379 E0.01740
G1 X122.606 Y104.355 E0.31774
G1 X122.606 Y104.899 E0.01740
G1 X129.038 Y111.330 E0.29094
G1 X128.789 Y111.198 E0.00899
G1 X128.312 Y111.061 E0.01588
G1 X128.218 Y111.055 E0.00301
G1 X122.606 Y105.443 E0.25388
G1 X122.606 Y105.987 E0.01740
G1 X127.667 Y111.048 E0.22895
G1 X127.326 Y111.096 E0.01104
G1 X127.212 Y111.137 E0.00385
G1 X122.606 Y106.531 E0.20838
G1 X122.606 Y107.075 E0.01740
G1 X126.821 Y111.289 E0.19066
G1 X126.486 Y111.499 E0.01263
G1 X122.606 Y107.619 E0.17552
G1 X122.606 Y108.163 E0.01740
G1 X126.201 Y111.758 E0.16262
G1 X126.081 Y111.874 E0.00534
G1 X125.957 Y112.058 E0.00710
G1 X122.606 Y108.707 E0.15157
G1 X122.606 Y109.251 E0.01740
G1 X125.756 Y112.401 E0.14251
G1 X125.609 Y112.798 E0.01353
G1 X122.606 Y109.795 E0.13584
G1 X122.606 Y110.339 E0.01740
G1 X125.541 Y113.274 E0.13278
G1 X125.531 Y113.566 E0.00933
G1 X125.583 Y113.860 E0.00956
G1 X122.606 Y110.883 E0.13466
G1 X122.606 Y111.427 E0.01740
G1 X126.014 Y114.835 E0.15417
G1 X126.280 Y115.130 E0.01270
G1 X125.765 Y115.130 E0.01646
G1 X122.606 Y111.971 E0.14291
G1 X122.606 Y112.515 E0.01740
G1 X125.221 Y115.130 E0.11830
G1 X124.677 Y115.130 E0.01740
G1 X122.606 Y113.059 E0.09369
G1 X122.606 Y113.603 E0.01740
G1 X124.133 Y115.130 E0.06908
G1 X123.589 Y115.130 E0.01740
G1 X122.606 Y114.147 E0.04447
G1 X122.606 Y114.691 E0.01740
G1 X123.215 Y115.300 E0.02753
G1 F8640
G1 X122.606 Y114.691 E-0.19875
G1 X122.606 Y114.147 E-0.12562
G1 X123.589 Y115.130 E-0.32099
G1 X124.086 Y115.130 E-0.11465
G1 E-0.04000 F2100.00000
G1 Z0.800 F10800.000
G1 X127.565 Y115.437
G1 Z0.200
G1 E0.80000 F2100.00000
G1 F1200
G1 X127.987 Y115.450 E0.01066
G1 X128.259 Y115.431 E0.00723
G1 F8640
G1 X127.987 Y115.450 E-0.06291
G1 E-0.73709 F2100.00000
G1 Z0.800 F10800.000
G1 X129.559 Y115.224
G1 Z0.200
G1 E0.80000 F2100.00000
G1 F1200
G1 X129.711 Y114.810 E0.00337
G1 F8640
G1 X129.559 Y115.224 E-0.10194
G1 E-0.69806 F2100.00000
G1 Z0.800 F10800.000
G1 X129.940 Y113.764
G1 Z0.200
G1 E0.80000 F2100.00000
G1 F1200
G1 X129.949 Y113.273 E0.01295
G1 X129.929 Y113.032 E0.00618
G1 F8640
G1 X129.949 Y113.273 E-0.05579
G1 E-0.74421 F2100.00000
G1 Z0.800 F10800.000
G1 X129.724 Y111.986
G1 Z0.200
G1 E0.80000 F2100.00000
G1 F1200
G1 X129.628 Y111.896 E0.00067
G1 F8640
G1 X129.724 Y111.986 E-0.03039
G1 E-0.76961 F2100.00000
G1 Z0.800 F10800.000
G1 X127.840 Y136.690
G1 Z0.200
G1 E0.80000 F2100.00000
G1 F1200
G1 X128.197 Y136.715 E0.01122
G1 X128.541 Y136.813 E0.01122
G1 X128.854 Y136.980 E0.01110
G1 X129.047 Y137.131 E0.00771
G1 X129.284 Y137.394 E0.01110
G1 X129.461 Y137.701 E0.01110
G1 X129.546 Y137.932 E0.00771
G1 X129.607 Y138.281 E0.01110
G1 X129.595 Y138.634 E0.01110
G1 X129.543 Y138.875 E0.00771
G1 X129.411 Y139.203 E0.01110
G1 X129.211 Y139.500 E0.01122
G1 X128.953 Y139.748 E0.01122
G1 X128.650 Y139.938 E0.01122
G1 X128.314 Y140.060 E0.01122
G1 X127.960 Y140.110 E0.01122
G1 X127.603 Y140.085 E0.01122
G1 X127.259 Y139.987 E0.01122
G1 X126.946 Y139.820 E0.01110
G1 X126.753 Y139.669 E0.00771
G1 X126.516 Y139.406 E0.01110
G1 X126.339 Y139.099 E0.01110
G1 X126.254 Y138.868 E0.00771
G1 X126.193 Y138.519 E0.01110
G1 X126.205 Y138.166 E0.01110
G1 X126.257 Y137.925 E0.00771
G1 X126.389 Y137.597 E0.01110
G1 X126.589 Y137.300 E0.01122
G1 X126.847 Y137.052 E0.01122
G1 X127.150 Y136.862 E0.01122
G1 X127.486 Y136.740 E0.01122
G1 X127.781 Y136.698 E0.00933
G1 X128.008 Y136.374 F10800.000
G1 F8640
G1 X128.197 Y136.715 E-0.09620
G1 X128.541 Y136.813 E-0.08260
G1 X128.854 Y136.980 E-0.08175
G1 X129.047 Y137.131 E-0.05681
G1 X129.284 Y137.394 E-0.08173
G1 X129.461 Y137.701 E-0.08175
G1 X129.546 Y137.932 E-0.05679
G1 X129.607 Y138.281 E-0.08177
G1 X129.595 Y138.634 E-0.08175
G1 X129.543 Y138.875 E-0.05681
G1 X129.540 Y138.883 E-0.00204
G1 E-0.04000 F2100.00000
G1 Z0.800 F10800.000
G1 X129.913 Y138.951
G1 Z0.200
G1 E0.80000 F2100.00000
G1 F1200
G1 X129.913 Y140.413 E0.04585
G1 X128.448 Y140.413 E0.04594
G1 X128.816 Y140.279 E0.01230
G1 X129.187 Y140.047 E0.01370
G1 X129.501 Y139.744 E0.01370
G1 X129.746 Y139.381 E0.01370
G1 X129.896 Y139.008 E0.01262
G1 F8640
G1 X129.913 Y140.413 E-0.32439
G1 X128.448 Y140.413 E-0.33835
G1 X128.816 Y140.279 E-0.09060
G1 X128.841 Y140.263 E-0.00667
G1 E-0.04000 F2100.00000
G1 Z0.800 F10800.000
G1 X129.913 Y121.044
G1 Z0.200
G1 E0.80000 F2100.00000
G1 F1200
G1 X129.746 Y120.619 E0.01434
G1 X129.507 Y120.265 E0.01338
G1 X129.297 Y120.048 E0.00946
G1 X129.060 Y119.862 E0.00946
G1 X128.683 Y119.662 E0.01338
G1 X128.422 Y119.587 E0.00851
G1 X129.913 Y119.587 E0.04674
G1 X129.913 Y120.984 E0.04381
G1 X129.545 Y121.128 F10800.000
G1 F1200
G1 X129.607 Y121.481 E0.01122
G1 X129.595 Y121.838 E0.01122
G1 X129.508 Y122.185 E0.01122
G1 X129.351 Y122.507 E0.01122
G1 X129.131 Y122.789 E0.01122
G1 X128.857 Y123.019 E0.01122
G1 X128.541 Y123.187 E0.01122
G1 X128.201 Y123.284 E0.01110
G1 X127.956 Y123.310 E0.00771
G1 X127.603 Y123.285 E0.01110
G1 X127.259 Y123.187 E0.01122
G1 X126.946 Y123.020 E0.01110
G1 X126.755 Y122.871 E0.00760
