; generated by PrusaSlicer 2.2.0+win64 on 2020-07-18 at 12:11:10 UTC

; 

; external perimeters extrusion width = 0.45mm
; perimeters extrusion width = 0.45mm
; infill extrusion width = 0.45mm
; solid infill extrusion width = 0.45mm
; top infill extrusion width = 0.40mm
; first layer extrusion width = 0.42mm

M73 P0 R21
M73 Q0 S21
M201 X1000 Y1000 Z200 E5000 ; sets maximum accelerations, mm/sec^2
M203 X200 Y200 Z12 E120 ; sets maximum feedrates, mm/sec
M204 P1250 R1250 T1250 ; sets acceleration (P, T) and retract acceleration (R), mm/sec^2
M205 X8.00 Y8.00 Z0.40 E4.50 ; sets the jerk limits, mm/sec
M205 S0 T0 ; sets the minimum extruding and travel feed rate, mm/sec
M107
M862.3 P "MK3S" ; printer model check
M862.1 P0.4 ; nozzle diameter check
M115 U3.9.0 ; tell printer latest fw version
G90 ; use absolute coordinates
M83 ; extruder relative mode
M104 S215 ; set extruder temp
M140 S60 ; set bed temp
M190 S60 ; wait for bed temp
M109 S215 ; wait for extruder temp
G28 W ; home all without mesh bed level
G80 ; mesh bed leveling
G1 Y-3.0 F1000.0 ; go outside print area
G92 E0.0
G1 X60.0 E9.0 F1000.0 ; intro line
M73 Q0 S21
M73 P0 R21
G1 X100.0 E12.5 F1000.0 ; intro line
G92 E0.0
M221 S100
G21 ; set units to millimeters
G90 ; use absolute coordinates
M83 ; use relative distances for extrusion
M900 K0.06 ; Filament gcode LA 1.5
M900 K30 ; Filament gcode LA 1.0
;BEFORE_LAYER_CHANGE
G92 E0.0
;0.2


G1 E-0.80000 F2100.00000
G1 Z0.600 F10800.000
;AFTER_LAYER_CHANGE
;0.2
G1 X124.446 Y98.538
G1 Z0.200
G1 E0.80000 F2100.00000
M204 S500
G1 F900
G1 X125.204 Y98.010 E0.02895
G1 X126.082 Y97.726 E0.02895
G1 X129.601 Y97.684 E0.11032
G1 X130.464 Y97.806 E0.02733
G1 X131.263 Y98.164 E0.02746
G1 X131.932 Y98.729 E0.02746
G1 X132.418 Y99.458 E0.02746
G1 X134.302 Y105.724 E0.20515
G1 X134.448 Y106.635 E0.02893
G1 X134.436 Y107.732 E0.03441
G1 X134.195 Y108.883 E0.03687
G1 X133.808 Y109.820 E0.03180
G1 X133.175 Y110.791 E0.03633
G1 X132.325 Y111.651 E0.03792
G1 X131.318 Y112.318 E0.03787
G1 X130.239 Y112.752 E0.03646
G1 X129.246 Y112.950 E0.03176
G1 X128.057 Y112.962 E0.03729
G1 X126.986 Y112.761 E0.03417
G1 X126.096 Y112.428 E0.02980
G1 X121.343 Y109.749 E0.17105
G1 X120.757 Y109.110 E0.02719
G1 X120.370 Y108.339 E0.02705
G1 X120.212 Y107.544 E0.02542
G1 X120.248 Y106.519 E0.03214
G1 X120.365 Y105.933 E0.01875
G1 X120.591 Y105.379 E0.01875
G1 X123.869 Y99.276 E0.21721
G1 X124.409 Y98.586 E0.02748
M204 S1000
G1 X124.703 Y98.815 F10800.000
M204 S500
G1 F900
G1 X125.388 Y98.340 E0.02612
G1 X126.179 Y98.092 E0.02600
G1 X129.600 Y98.061 E0.10728
G1 X130.373 Y98.172 E0.02447
G1 X131.083 Y98.496 E0.02447
G1 X131.674 Y99.006 E0.02447
G1 X132.096 Y99.658 E0.02434
G1 X133.935 Y105.811 E0.20136
G1 X134.072 Y106.664 E0.02708
G1 X134.060 Y107.703 E0.03258
G1 X133.833 Y108.780 E0.03450
G1 X133.474 Y109.645 E0.02938
G1 X132.880 Y110.557 E0.03412
G1 X132.081 Y111.364 E0.03561
G1 X131.141 Y111.985 E0.03531
G1 X130.128 Y112.392 E0.03424
G1 X129.206 Y112.575 E0.02948
G1 X128.085 Y112.586 E0.03515
G1 X127.083 Y112.397 E0.03196
G1 X126.258 Y112.087 E0.02763
G1 X121.605 Y109.476 E0.16730
G1 X121.073 Y108.905 E0.02447
G1 X120.725 Y108.211 E0.02434
G1 X120.587 Y107.500 E0.02269
G1 X120.624 Y106.549 E0.02986
G1 X120.927 Y105.550 E0.03271
G1 X124.194 Y99.469 E0.21645
G1 X124.666 Y98.862 E0.02412
M204 S1000
G1 X124.961 Y99.091 F10800.000
M204 S500
G1 F900
G1 X125.566 Y98.673 E0.02308
G1 X126.267 Y98.461 E0.02296
G1 X129.600 Y98.438 E0.10451
G1 X130.273 Y98.536 E0.02130
G1 X130.893 Y98.822 E0.02142
G1 X131.406 Y99.273 E0.02142
G1 X131.770 Y99.852 E0.02142
G1 X133.568 Y105.900 E0.19783
G1 X133.696 Y106.690 E0.02510
G1 X133.684 Y107.673 E0.03083
G1 X133.459 Y108.712 E0.03332
G1 X133.048 Y109.638 E0.03178
G1 X132.560 Y110.352 E0.02712
G1 X131.840 Y111.074 E0.03198
G1 X130.965 Y111.652 E0.03289
G1 X130.017 Y112.031 E0.03201
G1 X129.168 Y112.200 E0.02713
G1 X128.117 Y112.210 E0.03294
G1 X127.181 Y112.033 E0.02990
G1 X126.416 Y111.745 E0.02560
G1 X121.862 Y109.199 E0.16361
G1 X121.388 Y108.696 E0.02166
G1 X121.079 Y108.079 E0.02166
G1 X120.963 Y107.459 E0.01977
G1 X121.000 Y106.582 E0.02751
G1 X121.262 Y105.724 E0.02813
G1 X124.520 Y99.657 E0.21594
G1 X124.924 Y99.138 E0.02060
M204 S1000
G1 F8640.000
G1 X125.566 Y98.673 E-0.18320
G1 X126.267 Y98.461 E-0.16907
G1 X128.033 Y98.448 E-0.40773
G1 E-0.04000 F2100.00000
G1 Z0.800 F10800.000
G1 X126.961 Y101.175
G1 Z0.200
G1 E0.80000 F2100.00000
M204 S500
G1 F900
G1 X127.604 Y101.126 E0.02024
G1 X128.586 Y101.126 E0.03079
G1 X129.236 Y101.181 E0.02046
G1 X129.284 Y101.761 E0.01825
G1 X129.297 Y103.638 E0.05882
G1 X129.398 Y104.700 E0.03346
G1 X129.944 Y104.973 E0.01915
G1 X130.228 Y105.181 E0.01103
G1 X130.483 Y105.428 E0.01111
G1 X130.792 Y105.855 E0.01654
G1 X130.947 Y106.178 E0.01123
G1 X131.056 Y106.519 E0.01123
G1 X131.126 Y107.042 E0.01654
G1 X131.111 Y107.396 E0.01111
G1 X131.047 Y107.745 E0.01111
G1 X130.864 Y108.239 E0.01654
G1 X130.576 Y108.692 E0.01681
G1 X130.205 Y109.068 E0.01658
G1 X129.915 Y109.275 E0.01115
G1 X129.597 Y109.439 E0.01123
G1 X129.270 Y109.554 E0.01088
G1 X128.915 Y109.626 E0.01135
G1 X128.389 Y109.637 E0.01650
G1 X128.037 Y109.583 E0.01115
G1 X127.694 Y109.480 E0.01123
G1 X127.224 Y109.241 E0.01654
G1 X126.810 Y108.908 E0.01665
G1 X126.476 Y108.495 E0.01665
G1 X126.303 Y108.186 E0.01111
G1 X126.177 Y107.856 E0.01106
G1 X126.052 Y107.271 E0.01878
G1 X123.802 Y107.150 E0.07066
G1 X123.689 Y107.110 E0.00373
G1 X123.877 Y107.073 E0.00599
G1 X126.152 Y107.194 E0.07142
G1 X126.154 Y107.330 E0.00428
G1 X126.251 Y107.832 E0.01602
G1 X126.451 Y108.302 E0.01602
G1 X126.642 Y108.596 E0.01100
G1 X126.989 Y108.966 E0.01591
G1 X127.267 Y109.175 E0.01088
G1 X127.571 Y109.342 E0.01088
G1 X128.051 Y109.505 E0.01591
G1 X128.394 Y109.558 E0.01088
G1 X128.738 Y109.562 E0.01077
G1 X129.078 Y109.519 E0.01077
G1 X129.413 Y109.427 E0.01088
G1 X129.871 Y109.209 E0.01591
G1 X130.154 Y109.008 E0.01088
G1 X130.403 Y108.772 E0.01077
G1 X130.617 Y108.503 E0.01077
G1 X130.793 Y108.204 E0.01088
G1 X130.971 Y107.725 E0.01602
G1 X131.046 Y107.220 E0.01602
G1 X131.036 Y106.873 E0.01088
G1 X130.978 Y106.531 E0.01088
G1 X130.806 Y106.053 E0.01590
G1 X130.634 Y105.752 E0.01088
G1 X130.424 Y105.480 E0.01077
G1 X130.177 Y105.241 E0.01077
G1 X129.900 Y105.039 E0.01077
G1 X129.597 Y104.877 E0.01077
G1 X129.275 Y104.759 E0.01077
G1 X128.894 Y104.667 E0.01229
G1 X128.908 Y101.498 E0.09938
G1 X127.293 Y101.544 E0.05065
G1 X127.384 Y102.305 E0.02405
G1 X127.092 Y102.013 E0.01295
G1 X126.903 Y101.740 E0.01040
G1 X126.958 Y101.234 E0.01595
M204 S1000
G1 X127.326 Y101.338 F10800.000
G1 F8640.000
G1 X127.604 Y101.126 E-0.15135
G1 X128.586 Y101.126 E-0.22674
G1 X129.236 Y101.181 E-0.15065
G1 X129.284 Y101.761 E-0.13438
G1 X129.287 Y102.181 E-0.09689
G1 E-0.04000 F2100.00000
G1 Z0.800 F10800.000
G1 X129.141 Y104.538
G1 Z0.200
G1 E0.80000 F2100.00000
M204 S500
G1 F900
G1 X129.118 Y104.003 E0.00429
M204 S1000
M106 S255
;BEFORE_LAYER_CHANGE
G92 E0.0
;0.25


G1 F8640.000
G1 X129.141 Y104.538 E-0.12355
G1 E-0.67645 F2100.00000
G1 Z0.800 F10800.000
;AFTER_LAYER_CHANGE
;0.25
G1 X132.418 Y99.458
G1 Z0.250
G1 E0.80000 F2100.00000
G1 F900
G1 X134.302 Y105.724 E0.05567
G1 X134.448 Y106.635 E0.00785
G1 X134.436 Y107.732 E0.00934
G1 X134.195 Y108.883 E0.01000
G1 X133.808 Y109.820 E0.00863
G1 X133.175 Y110.791 E0.00986
G1 X132.325 Y111.651 E0.01029
G1 X131.318 Y112.318 E0.01027
G1 X130.239 Y112.752 E0.00989
G1 X129.246 Y112.950 E0.00862
G1 X128.057 Y112.962 E0.01012
G1 X126.986 Y112.761 E0.00927
G1 X126.096 Y112.428 E0.00809
G1 X121.343 Y109.749 E0.04641
G1 X120.757 Y109.110 E0.00738
G1 X120.370 Y108.339 E0.00734
G1 X120.212 Y107.544 E0.00690
G1 X120.248 Y106.519 E0.00872
G1 X120.365 Y105.933 E0.00509
G1 X120.591 Y105.379 E0.00509
G1 X123.869 Y99.276 E0.05894
G1 X124.446 Y98.538 E0.00797
G1 X125.204 Y98.010 E0.00786
G1 X126.082 Y97.726 E0.00786
G1 X129.601 Y97.684 E0.02994
G1 X130.464 Y97.806 E0.00741
G1 X131.263 Y98.164 E0.00745
G1 X131.932 Y98.729 E0.00745
G1 X132.385 Y99.408 E0.00694
G1 X132.067 Y99.614 F10800.000
G1 F900
G1 X132.096 Y99.658 E0.00045
G1 X133.935 Y105.811 E0.05464
G1 X134.072 Y106.664 E0.00735
G1 X134.060 Y107.703 E0.00884
G1 X133.833 Y108.780 E0.00936
G1 X133.474 Y109.645 E0.00797
G1 X132.880 Y110.557 E0.00926
G1 X132.081 Y111.364 E0.00966
G1 X131.141 Y111.985 E0.00958
G1 X130.128 Y112.392 E0.00929
G1 X129.206 Y112.575 E0.00800
G1 X128.085 Y112.586 E0.00954
G1 X127.083 Y112.397 E0.00867
G1 X126.258 Y112.087 E0.00750
G1 X121.605 Y109.476 E0.04540
G1 X121.073 Y108.905 E0.00664
G1 X120.725 Y108.211 E0.00661
G1 X120.587 Y107.500 E0.00616
G1 X120.624 Y106.549 E0.00810
G1 X120.927 Y105.550 E0.00888
G1 X124.194 Y99.469 E0.05873
G1 X124.703 Y98.815 E0.00705
G1 X125.388 Y98.340 E0.00709
G1 X126.179 Y98.092 E0.00705
G1 X129.600 Y98.061 E0.02911
G1 X130.373 Y98.172 E0.00664
G1 X131.083 Y98.496 E0.00664
G1 X131.674 Y99.006 E0.00664
G1 X132.034 Y99.563 E0.00565
G1 X131.406 Y99.273 F10800.000
G1 F900
G1 X131.770 Y99.852 E0.00581
G1 X133.568 Y105.900 E0.05368
G1 X133.696 Y106.690 E0.00681
G1 X133.684 Y107.673 E0.00836
G1 X133.459 Y108.712 E0.00904
G1 X133.048 Y109.638 E0.00862
G1 X132.560 Y110.352 E0.00736
G1 X131.840 Y111.074 E0.00868
G1 X130.965 Y111.652 E0.00892
G1 X130.017 Y112.031 E0.00869
G1 X129.168 Y112.200 E0.00736
G1 X128.117 Y112.210 E0.00894
G1 X127.181 Y112.033 E0.00811
G1 X126.416 Y111.745 E0.00695
G1 X121.862 Y109.199 E0.04439
G1 X121.388 Y108.696 E0.00588
G1 X121.079 Y108.079 E0.00588
G1 X120.963 Y107.459 E0.00536
G1 X121.000 Y106.582 E0.00746
G1 X121.262 Y105.724 E0.00763
G1 X124.520 Y99.657 E0.05859
G1 X124.963 Y99.088 E0.00613
G1 X125.566 Y98.673 E0.00623
G1 X126.267 Y98.461 E0.00623
G1 X129.600 Y98.438 E0.02836
G1 X130.273 Y98.536 E0.00578
G1 X130.893 Y98.822 E0.00581
G1 X131.361 Y99.234 E0.00530
G1 F8640.000
G1 X131.770 Y99.852 E-0.17109
G1 X132.497 Y102.297 E-0.58891
G1 E-0.04000 F2100.00000
G1 Z0.850 F10800.000
G1 X129.371 Y101.040
G1 Z0.250
G1 E0.80000 F2100.00000
M204 S300
G1 F900
G1 X129.371 Y104.703 E0.03345
G1 X129.937 Y104.986 E0.00577
G1 X130.219 Y105.192 E0.00319
G1 X130.471 Y105.438 E0.00322
G1 X130.687 Y105.716 E0.00322
G1 X130.862 Y106.022 E0.00322
G1 X130.993 Y106.349 E0.00322
G1 X131.076 Y106.692 E0.00322
G1 X131.111 Y107.042 E0.00322
G1 X131.096 Y107.394 E0.00322
G1 X131.033 Y107.741 E0.00322
G1 X130.921 Y108.075 E0.00322
G1 X130.764 Y108.391 E0.00322
G1 X130.563 Y108.684 E0.00325
G1 X130.197 Y109.056 E0.00476
G1 X129.907 Y109.262 E0.00324
G1 X129.595 Y109.424 E0.00322
G1 X129.258 Y109.542 E0.00325
G1 X128.741 Y109.626 E0.00479
G1 X128.214 Y109.602 E0.00482
G1 X127.703 Y109.467 E0.00482
G1 X127.383 Y109.319 E0.00322
G1 X127.087 Y109.128 E0.00322
G1 X126.821 Y108.897 E0.00322
G1 X126.589 Y108.631 E0.00322
G1 X126.397 Y108.336 E0.00322
G1 X126.248 Y108.017 E0.00322
G1 X126.145 Y107.678 E0.00323
G1 X126.071 Y107.257 E0.00391
G1 X123.573 Y107.122 E0.02284
G1 X123.576 Y107.072 E0.00046
G1 X126.144 Y107.208 E0.02349
G1 X126.159 Y107.496 E0.00263
G1 X126.239 Y107.842 E0.00325
G1 X126.439 Y108.313 E0.00467
G1 X126.737 Y108.737 E0.00473
G1 X127.112 Y109.085 E0.00467
G1 X127.410 Y109.278 E0.00325
G1 X127.884 Y109.477 E0.00469
G1 X128.389 Y109.573 E0.00469
G1 X128.738 Y109.577 E0.00319
G1 X129.081 Y109.533 E0.00315
G1 X129.414 Y109.442 E0.00315
G1 X129.735 Y109.303 E0.00319
G1 X130.159 Y109.024 E0.00463
G1 X130.414 Y108.782 E0.00321
G1 X130.629 Y108.512 E0.00316
G1 X130.805 Y108.214 E0.00315
G1 X130.937 Y107.895 E0.00315
G1 X131.024 Y107.556 E0.00319
G1 X131.062 Y107.048 E0.00466
G1 X131.028 Y106.700 E0.00319
G1 X130.945 Y106.360 E0.00319
G1 X130.739 Y105.892 E0.00468
G1 X130.546 Y105.603 E0.00317
G1 X130.315 Y105.346 E0.00315
G1 X130.051 Y105.123 E0.00315
G1 X129.755 Y104.937 E0.00319
G1 X129.283 Y104.745 E0.00466
G1 X128.821 Y104.664 E0.00428
G1 X128.821 Y101.590 E0.02807
G1 X127.371 Y101.590 E0.01324
G1 X127.371 Y102.272 E0.00623
G1 X126.821 Y101.722 E0.00710
G1 X126.821 Y101.040 E0.00623
G1 X129.311 Y101.040 E0.02274
M204 S1000
G1 X129.202 Y101.402 F10800.000
G1 F8640.000
G1 X129.365 Y104.331 E-0.76000
G1 E-0.04000 F2100.00000
G1 Z0.850 F10800.000
G1 X129.096 Y104.481
G1 Z0.250
G1 E0.80000 F2100.00000
G1 F900
G1 X129.087 Y101.324 E0.00727
G1 X127.152 Y101.315 E0.00445
G1 X127.106 Y101.324 E0.00011
G1 X127.096 Y101.370 E0.00011
G1 X127.096 Y101.686 E0.00073
;BEFORE_LAYER_CHANGE
G92 E0.0
;0.3


G1 F8640.000
G1 X127.096 Y101.370 E-0.07293
G1 X127.106 Y101.324 E-0.01082
G1 X127.152 Y101.315 E-0.01082
G1 X129.087 Y101.324 E-0.44683
G1 X129.090 Y102.271 E-0.21861
G1 E-0.04000 F2100.00000
G1 Z0.850 F10800.000
;AFTER_LAYER_CHANGE
;0.3
G1 X132.418 Y99.458
G1 Z0.300
G1 E0.80000 F2100.00000
G1 F900
G1 X134.302 Y105.724 E0.05567
G1 X134.448 Y106.635 E0.00785
G1 X134.436 Y107.732 E0.00934
G1 X134.195 Y108.883 E0.01000
G1 X133.808 Y109.820 E0.00863
G1 X133.175 Y110.791 E0.00986
G1 X132.325 Y111.651 E0.01029
G1 X131.318 Y112.318 E0.01027
G1 X130.239 Y112.752 E0.00989
G1 X129.246 Y112.950 E0.00862
G1 X128.057 Y112.962 E0.01012
G1 X126.986 Y112.761 E0.00927
G1 X126.096 Y112.428 E0.00809
G1 X121.343 Y109.749 E0.04641
G1 X120.757 Y109.110 E0.00738
G1 X120.370 Y108.339 E0.00734
G1 X120.212 Y107.544 E0.00690
G1 X120.248 Y106.519 E0.00872
G1 X120.365 Y105.933 E0.00509
G1 X120.591 Y105.379 E0.00509
G1 X123.869 Y99.276 E0.05894
G1 X124.446 Y98.538 E0.00797
G1 X125.204 Y98.010 E0.00786
G1 X126.082 Y97.726 E0.00786
G1 X129.601 Y97.684 E0.02994
G1 X130.464 Y97.806 E0.00741
G1 X131.263 Y98.164 E0.00745
G1 X131.932 Y98.729 E0.00745
G1 X132.385 Y99.408 E0.00694
G1 X132.067 Y99.614 F10800.000
G1 F900
G1 X132.096 Y99.658 E0.00045
G1 X133.935 Y105.811 E0.05464
G1 X134.072 Y106.664 E0.00735
G1 X134.060 Y107.703 E0.00884
G1 X133.833 Y108.780 E0.00936
G1 X133.474 Y109.645 E0.00797
G1 X132.880 Y110.557 E0.00926
G1 X132.081 Y111.364 E0.00966
G1 X131.141 Y111.985 E0.00958
G1 X130.128 Y112.392 E0.00929
G1 X129.206 Y112.575 E0.00800
G1 X128.085 Y112.586 E0.00954
G1 X127.083 Y112.397 E0.00867
G1 X126.258 Y112.087 E0.00750
G1 X121.605 Y109.476 E0.04540
G1 X121.073 Y108.905 E0.00664
G1 X120.725 Y108.211 E0.00661
G1 X120.587 Y107.500 E0.00616
G1 X120.624 Y106.549 E0.00810
G1 X120.927 Y105.550 E0.00888
G1 X124.194 Y99.469 E0.05873
G1 X124.703 Y98.815 E0.00705
G1 X125.388 Y98.340 E0.00709
G1 X126.179 Y98.092 E0.00705
G1 X129.600 Y98.061 E0.02911
G1 X130.373 Y98.172 E0.00664
G1 X131.083 Y98.496 E0.00664
G1 X131.674 Y99.006 E0.00664
G1 X132.034 Y99.563 E0.00565
G1 X131.406 Y99.273 F10800.000
G1 F900
G1 X131.770 Y99.852 E0.00581
G1 X133.568 Y105.900 E0.05368
G1 X133.696 Y106.690 E0.00681
G1 X133.684 Y107.673 E0.00836
G1 X133.459 Y108.712 E0.00904
G1 X133.048 Y109.638 E0.00862
G1 X132.560 Y110.352 E0.00736
G1 X131.840 Y111.074 E0.00868
G1 X130.965 Y111.652 E0.00892
G1 X130.017 Y112.031 E0.00869
G1 X129.168 Y112.200 E0.00736
G1 X128.117 Y112.210 E0.00894
G1 X127.181 Y112.033 E0.00811
G1 X126.416 Y111.745 E0.00695
G1 X121.862 Y109.199 E0.04439
G1 X121.388 Y108.696 E0.00588
G1 X121.079 Y108.079 E0.00588
G1 X120.963 Y107.459 E0.00536
G1 X121.000 Y106.582 E0.00746
G1 X121.262 Y105.724 E0.00763
G1 X124.520 Y99.657 E0.05859
G1 X124.963 Y99.088 E0.00613
G1 X125.566 Y98.673 E0.00623
G1 X126.267 Y98.461 E0.00623
G1 X129.600 Y98.438 E0.02836
G1 X130.273 Y98.536 E0.00578
G1 X130.893 Y98.822 E0.00581
G1 X131.361 Y99.234 E0.00530
G1 F8640.000
G1 X131.770 Y99.852 E-0.17109
G1 X132.497 Y102.297 E-0.58891
G1 E-0.04000 F2100.00000
G1 Z0.900 F10800.000
G1 X129.371 Y101.040
G1 Z0.300
G1 E0.80000 F2100.00000
M204 S300
G1 F900
G1 X129.371 Y104.703 E0.03345
G1 X129.937 Y104.986 E0.00577
G1 X130.219 Y105.192 E0.00319
G1 X130.471 Y105.438 E0.00322
G1 X130.687 Y105.716 E0.00322
G1 X130.862 Y106.022 E0.00322
G1 X130.993 Y106.349 E0.00322
G1 X131.076 Y106.692 E0.00322
G1 X131.111 Y107.042 E0.00322
G1 X131.096 Y107.394 E0.00322
G1 X131.033 Y107.741 E0.00322
G1 X130.921 Y108.075 E0.00322
G1 X130.763 Y108.394 E0.00325
G1 X130.453 Y108.812 E0.00475
G1 X130.195 Y109.057 E0.00325
G1 X129.907 Y109.262 E0.00322
G1 X129.595 Y109.424 E0.00322
G1 X129.258 Y109.542 E0.00325
