; generated by PrusaSlicer 2.2.0+win64 on 2020-07-26 at 08:12:38 UTC

; 

; external perimeters extrusion width = 0.45mm
; perimeters extrusion width = 0.45mm
; infill extrusion width = 0.45mm
; solid infill extrusion width = 0.45mm
; top infill extrusion width = 0.40mm
; first layer extrusion width = 0.42mm

M73 P0 R4
M73 Q0 S4
M201 X1000 Y1000 Z200 E5000 ; sets maximum accelerations, mm/sec^2
M203 X200 Y200 Z12 E120 ; sets maximum feedrates, mm/sec
M204 P1250 R1250 T1250 ; sets acceleration (P, T) and retract acceleration (R), mm/sec^2
M205 X8.00 Y8.00 Z0.40 E4.50 ; sets the jerk limits, mm/sec
M205 S0 T0 ; sets the minimum extruding and travel feed rate, mm/sec
M107
M862.3 P "MK3S" ; printer model check
M862.1 P0.4 ; nozzle diameter check
M115 U3.9.0 ; tell printer latest fw version
G90 ; use absolute coordinates
M83 ; extruder relative mode
M104 S215 ; set extruder temp
M140 S60 ; set bed temp
M190 S60 ; wait for bed temp
M109 S215 ; wait for extruder temp
G28 W ; home all without mesh bed level
G80 ; mesh bed leveling
G1 Y-3.0 F1000.0 ; go outside print area
G92 E0.0
G1 X60.0 E9.0 F1000.0 ; intro line
M73 Q1 S4
M73 P1 R4
G1 X100.0 E12.5 F1000.0 ; intro line
G92 E0.0
M221 S95
G21 ; set units to millimeters
G90 ; use absolute coordinates
M83 ; use relative distances for extrusion
M900 K0.06 ; Filament gcode LA 1.5
M900 K30 ; Filament gcode LA 1.0
;BEFORE_LAYER_CHANGE
G92 E0.0
;0.2


G1 E-0.80000 F2100.00000
G1 Z0.600 F10800.000
;AFTER_LAYER_CHANGE
;0.2
G1 X111.588 Y99.901
G1 Z0.200
G1 E0.80000 F2100.00000
M204 S1000
G1 F1200.000
G1 X112.440 Y99.747 E0.02714
G1 X137.504 Y99.746 E0.78588
G1 X138.030 Y99.797 E0.01656
G1 X138.532 Y99.946 E0.01643
G1 X139.000 Y100.190 E0.01656
G1 X139.411 Y100.516 E0.01643
G1 X139.754 Y100.917 E0.01656
G1 X140.015 Y101.377 E0.01656
G1 X140.183 Y101.877 E0.01656
G1 X140.252 Y102.397 E0.01643
G1 X140.251 Y107.635 E0.16425
G1 X139.389 Y119.805 E0.38252
G1 X139.277 Y120.354 E0.01758
G1 X139.055 Y120.869 E0.01758
G1 X138.734 Y121.329 E0.01758
G1 X138.323 Y121.716 E0.01771
G1 X137.557 Y122.129 E0.02727
G1 X136.705 Y122.282 E0.02714
G1 X111.600 Y122.282 E0.78717
G1 X110.987 Y122.202 E0.01937
G1 X110.408 Y121.987 E0.01937
G1 X109.891 Y121.649 E0.01937
G1 X109.463 Y121.204 E0.01937
G1 X109.079 Y120.519 E0.02460
G1 X108.904 Y119.755 E0.02460
G1 X108.901 Y114.348 E0.16951
G1 X109.771 Y102.126 E0.38419
G1 X109.895 Y101.605 E0.01681
G1 X110.118 Y101.117 E0.01681
G1 X110.434 Y100.678 E0.01694
G1 X110.826 Y100.313 E0.01681
G1 X111.535 Y99.930 E0.02526
G1 F8640.000
G1 X112.440 Y99.747 E-0.21308
G1 X114.808 Y99.746 E-0.54692
G1 E-0.04000 F2100.00000
G1 Z0.800 F10800.000
G1 X110.448 Y101.301
G1 Z0.200
G1 E0.80000 F2100.00000
G1 F1200.000
G1 X111.072 Y100.600 E0.02942
G1 X111.729 Y100.252 E0.02331
G1 X112.457 Y100.123 E0.02319
G1 X137.504 Y100.123 E0.78532
G1 X138.395 Y100.298 E0.02849
G1 X139.159 Y100.797 E0.02860
G1 X139.678 Y101.548 E0.02860
G1 X139.876 Y102.434 E0.02849
G1 X139.874 Y107.618 E0.16254
G1 X139.015 Y119.753 E0.38144
G1 X138.918 Y120.238 E0.01550
G1 X138.724 Y120.688 E0.01538
G1 X138.439 Y121.092 E0.01550
G1 X138.077 Y121.429 E0.01550
G1 X137.420 Y121.777 E0.02331
G1 X136.692 Y121.905 E0.02319
G1 X111.611 Y121.905 E0.78639
G1 X111.076 Y121.836 E0.01692
G1 X110.570 Y121.647 E0.01692
G1 X110.120 Y121.349 E0.01692
G1 X109.749 Y120.957 E0.01692
G1 X109.423 Y120.361 E0.02130
G1 X109.278 Y119.697 E0.02130
G1 X109.277 Y114.373 E0.16695
G1 X110.143 Y102.192 E0.38288
G1 X110.428 Y101.357 E0.02766
G1 F8640.000
G1 X111.072 Y100.600 E-0.22952
G1 X111.729 Y100.252 E-0.17168
G1 X112.457 Y100.123 E-0.17081
G1 X113.271 Y100.123 E-0.18800
G1 E-0.04000 F2100.00000
G1 Z0.800 F10800.000
G1 X122.652 Y114.819
G1 Z0.200
G1 E0.80000 F2100.00000
G1 F1200.000
G1 X123.532 Y114.819 E0.02757
G1 X123.544 Y114.972 E0.00481
G1 X123.629 Y114.903 E0.00344
G1 X123.937 Y114.789 E0.01030
G1 X124.277 Y114.754 E0.01072
G1 X124.587 Y114.781 E0.00976
G1 X124.775 Y114.832 E0.00612
G1 X124.945 Y114.910 E0.00585
G1 X125.096 Y115.016 E0.00578
G1 X125.232 Y115.153 E0.00606
G1 X125.419 Y115.473 E0.01162
G1 X125.534 Y115.877 E0.01316
G1 X125.581 Y116.356 E0.01512
G1 X125.551 Y116.989 E0.01987
G1 X125.451 Y117.419 E0.01385
G1 X125.279 Y117.764 E0.01208
G1 X125.154 Y117.915 E0.00613
G1 X125.014 Y118.036 E0.00581
G1 X124.855 Y118.130 E0.00580
G1 X124.679 Y118.196 E0.00588
G1 X124.483 Y118.236 E0.00627
G1 X124.058 Y118.233 E0.01333
G1 X123.881 Y118.197 E0.00567
G1 X123.672 Y118.120 E0.00697
G1 X123.580 Y118.055 E0.00354
G1 X123.585 Y119.271 E0.03813
G1 X122.675 Y119.271 E0.02853
G1 X122.675 Y115.563 E0.11623
G1 X122.654 Y114.879 E0.02148
G1 X122.652 Y114.419 F10800.000
G1 F8640.000
G1 X123.532 Y114.819 E-0.20308
G1 X123.544 Y114.972 E-0.03544
G1 X123.629 Y114.903 E-0.02537
G1 X123.937 Y114.789 E-0.07584
G1 X124.277 Y114.754 E-0.07895
G1 X124.587 Y114.781 E-0.07185
G1 X124.775 Y114.832 E-0.04504
G1 X124.945 Y114.910 E-0.04305
G1 X125.096 Y115.016 E-0.04259
G1 X125.232 Y115.153 E-0.04461
G1 X125.419 Y115.473 E-0.08555
G1 X125.430 Y115.509 E-0.00864
G1 E-0.04000 F2100.00000
G1 Z0.800 F10800.000
G1 X125.647 Y115.116
G1 Z0.200
G1 E0.80000 F2100.00000
G1 F1200.000
G1 X127.053 Y115.116 E0.04408
G1 X126.939 Y115.280 E0.00627
G1 X126.789 Y115.656 E0.01269
G1 X126.706 Y116.064 E0.01304
G1 X126.680 Y116.502 E0.01378
G1 X126.704 Y116.941 E0.01379
G1 X126.781 Y117.346 E0.01289
G1 X126.921 Y117.718 E0.01247
G1 X127.137 Y118.048 E0.01236
G1 X127.431 Y118.313 E0.01240
G1 X127.782 Y118.495 E0.01241
G1 X128.167 Y118.595 E0.01248
G1 X128.588 Y118.626 E0.01321
G1 X129.099 Y118.572 E0.01613
G1 X129.369 Y118.489 E0.00885
G1 X129.608 Y118.375 E0.00829
G1 X129.825 Y118.224 E0.00830
G1 X130.058 Y117.977 E0.01064
G1 X130.132 Y118.118 E0.00499
G1 X130.447 Y118.402 E0.01329
G1 X130.829 Y118.565 E0.01302
G1 X131.238 Y118.624 E0.01295
G1 X131.639 Y118.606 E0.01260
G1 X131.825 Y118.559 E0.00602
G1 X132.462 Y118.560 E0.01996
G1 X132.462 Y118.942 E0.01198
G1 X123.961 Y118.942 E0.26655
G1 X123.959 Y118.597 E0.01079
G1 X124.520 Y118.613 E0.01759
G1 X124.784 Y118.559 E0.00845
G1 X125.018 Y118.471 E0.00784
G1 X125.234 Y118.344 E0.00788
G1 X125.425 Y118.180 E0.00787
G1 X125.597 Y117.971 E0.00849
G1 X125.808 Y117.548 E0.01482
G1 X125.926 Y117.041 E0.01631
G1 X125.959 Y116.347 E0.02180
G1 X125.906 Y115.806 E0.01703
G1 X125.769 Y115.324 E0.01573
G1 X125.678 Y115.167 E0.00568
G1 F8640.000
G1 X127.053 Y115.116 E-0.31785
G1 X126.939 Y115.280 E-0.04621
G1 X126.789 Y115.656 E-0.09344
G1 X126.706 Y116.064 E-0.09606
G1 X126.680 Y116.502 E-0.10147
G1 X126.704 Y116.941 E-0.10154
G1 X126.707 Y116.956 E-0.00344
G1 E-0.04000 F2100.00000
G1 Z0.800 F10800.000
G1 X127.274 Y115.460
G1 Z0.200
G1 E0.80000 F2100.00000
G1 F1200.000
G1 X127.450 Y115.204 E0.00975
G1 X127.678 Y115.004 E0.00950
G1 X127.949 Y114.863 E0.00957
G1 X128.255 Y114.781 E0.00995
G1 X128.574 Y114.755 E0.01002
G1 X128.934 Y114.781 E0.01135
G1 X129.241 Y114.868 E0.00999
G1 X129.509 Y115.016 E0.00959
G1 X129.730 Y115.224 E0.00953
G1 X129.900 Y115.483 E0.00972
G1 X130.018 Y115.784 E0.01014
G1 X130.086 Y116.125 E0.01088
G1 X130.108 Y116.501 E0.01183
G1 X130.098 Y116.770 E0.00844
G1 X130.019 Y117.228 E0.01455
G1 X129.944 Y117.439 E0.00703
G1 X129.848 Y117.626 E0.00659
G1 X129.727 Y117.791 E0.00641
G1 X129.583 Y117.933 E0.00633
G1 X129.417 Y118.048 E0.00634
G1 X129.232 Y118.137 E0.00644
G1 X129.024 Y118.201 E0.00683
G1 X128.582 Y118.247 E0.01393
G1 X128.229 Y118.221 E0.01108
G1 X127.918 Y118.140 E0.01009
G1 X127.647 Y118.000 E0.00956
G1 X127.426 Y117.800 E0.00935
G1 X127.259 Y117.546 E0.00953
G1 X127.145 Y117.243 E0.01014
G1 X127.079 Y116.896 E0.01108
G1 X127.058 Y116.503 E0.01234
G1 X127.081 Y116.112 E0.01228
G1 X127.151 Y115.764 E0.01113
G1 X127.251 Y115.516 E0.00841
G1 X127.111 Y115.194 F10800.000
G1 F8640.000
G1 X127.450 Y115.204 E-0.08540
G1 X127.678 Y115.004 E-0.06998
G1 X127.949 Y114.863 E-0.07045
G1 X128.255 Y114.781 E-0.07328
G1 X128.574 Y114.755 E-0.07378
G1 X128.934 Y114.781 E-0.08356
G1 X129.241 Y114.868 E-0.07353
G1 X129.509 Y115.016 E-0.07064
G1 X129.730 Y115.224 E-0.07019
G1 X129.900 Y115.483 E-0.07156
G1 X129.928 Y115.554 E-0.01763
G1 E-0.04000 F2100.00000
G1 Z0.800 F10800.000
G1 X131.493 Y115.116
G1 Z0.200
G1 E0.80000 F2100.00000
G1 F1200.000
G1 X131.687 Y115.116 E0.00608
G1 X131.686 Y116.765 E0.05171
G1 X131.634 Y117.006 E0.00771
G1 X131.600 Y117.043 E0.00159
G1 X131.508 Y117.068 E0.00297
G1 X131.494 Y116.920 E0.00464
G1 X131.493 Y115.176 E0.05470
G1 F8640.000
G1 X131.687 Y115.116 E-0.04683
G1 X131.686 Y116.765 E-0.38083
G1 X131.634 Y117.006 E-0.05681
G1 X131.600 Y117.043 E-0.01173
G1 X131.508 Y117.068 E-0.02189
G1 X131.494 Y116.920 E-0.03419
G1 X131.493 Y116.021 E-0.20773
G1 E-0.04000 F2100.00000
G1 Z0.800 F10800.000
G1 X133.355 Y116.116
G1 Z0.200
G1 E0.80000 F2100.00000
G1 F1200.000
G1 X136.062 Y116.116 E0.08486
G1 X136.062 Y117.942 E0.05725
G1 X133.364 Y117.942 E0.08458
G1 X133.356 Y116.176 E0.05537
G1 F8640.000
G1 X136.062 Y116.116 E-0.62504
G1 X136.062 Y116.700 E-0.13496
G1 E-0.04000 F2100.00000
G1 Z0.800 F10800.000
G1 X122.298 Y118.240
G1 Z0.200
G1 E0.80000 F2100.00000
G1 F1200.000
G1 X122.298 Y118.942 E0.02201
G1 X119.512 Y118.942 E0.08736
G1 X119.598 Y118.560 E0.01227
G1 X120.074 Y118.560 E0.01494
G1 X120.074 Y118.406 E0.00482
G1 X120.378 Y118.534 E0.01034
G1 X120.701 Y118.604 E0.01036
G1 X121.043 Y118.625 E0.01075
G1 X121.456 Y118.597 E0.01297
G1 X121.842 Y118.505 E0.01243
G1 X122.195 Y118.332 E0.01235
G1 X122.253 Y118.280 E0.00244
G1 F8640.000
G1 X122.298 Y118.942 E-0.15318
G1 X119.670 Y118.942 E-0.60682
G1 E-0.04000 F2100.00000
G1 Z0.800 F10800.000
G1 X118.070 Y118.560
G1 Z0.200
G1 E0.80000 F2100.00000
G1 F1200.000
G1 X118.070 Y118.942 E0.01197
G1 X115.736 Y118.942 E0.07317
G1 X115.736 Y118.495 E0.01401
G1 X116.178 Y118.606 E0.01428
G1 X116.709 Y118.619 E0.01665
G1 X116.941 Y118.595 E0.00733
G1 X117.316 Y118.505 E0.01209
G1 X117.527 Y118.402 E0.00736
G1 X117.527 Y118.560 E0.00495
G1 X118.010 Y118.560 E0.01514
G1 F8640.000
G1 X118.070 Y118.942 E-0.08926
G1 X115.736 Y118.942 E-0.53887
G1 X115.736 Y118.495 E-0.10320
G1 X115.857 Y118.525 E-0.02868
G1 E-0.04000 F2100.00000
G1 Z0.800 F10800.000
G1 X115.061 Y117.942
G1 Z0.200
G1 E0.80000 F2100.00000
G1 F1200.000
G1 X112.236 Y117.942 E0.08858
G1 X112.236 Y116.116 E0.05725
G1 X114.810 Y116.116 E0.08072
G1 X114.816 Y117.158 E0.03267
G1 X114.881 Y117.559 E0.01274
G1 X115.028 Y117.892 E0.01141
G1 F8640.000
G1 X112.236 Y117.942 E-0.64480
G1 X112.236 Y117.443 E-0.11520
G1 E-0.04000 F2100.00000
G1 Z0.800 F10800.000
G1 X112.339 Y115.739
G1 Z0.200
G1 E0.80000 F2100.00000
G1 F1200.000
G1 X115.185 Y115.739 E0.08925
G1 X115.193 Y117.126 E0.04351
G1 X115.246 Y117.455 E0.01044
G1 X115.339 Y117.679 E0.00760
G1 X115.432 Y117.818 E0.00527
G1 X115.602 Y117.988 E0.00753
G1 X115.885 Y118.146 E0.01015
G1 X116.228 Y118.230 E0.01108
G1 X116.694 Y118.241 E0.01461
G1 X116.877 Y118.222 E0.00579
G1 X117.188 Y118.148 E0.01000
G1 X117.457 Y118.016 E0.00941
G1 X117.667 Y117.828 E0.00883
G1 X117.760 Y117.698 E0.00502
G1 X117.870 Y117.440 E0.00878
G1 X117.952 Y117.063 E0.01211
G1 X117.039 Y116.981 E0.02873
G1 X116.923 Y117.337 E0.01175
G1 X116.889 Y117.377 E0.00166
G1 X116.762 Y117.432 E0.00432
G1 X116.441 Y117.450 E0.01007
G1 X116.340 Y117.433 E0.00323
G1 X116.223 Y117.378 E0.00405
G1 X116.157 Y117.287 E0.00351
G1 X116.115 Y117.124 E0.00530
G1 X116.112 Y117.026 E0.00306
G1 X116.679 Y117.015 E0.01779
G1 X117.001 Y116.980 E0.01013
G1 X117.366 Y116.882 E0.01186
G1 X117.657 Y116.715 E0.01052
G1 X117.823 Y116.542 E0.00754
G1 X117.915 Y116.397 E0.00537
G1 X118.016 Y116.098 E0.00990
G1 X118.031 Y115.690 E0.01277
G1 X118.012 Y115.612 E0.00255
G1 X118.319 Y115.566 E0.00973
G1 X118.410 Y115.574 E0.00287
G1 X118.429 Y115.598 E0.00097
G1 X118.447 Y115.753 E0.00489
G1 X118.447 Y117.407 E0.05186
G1 X117.904 Y117.407 E0.01703
G1 X117.904 Y118.183 E0.02433
G1 X118.447 Y118.183 E0.01703
G1 X118.447 Y118.823 E0.02007
G1 X119.152 Y118.823 E0.02210
G1 X119.296 Y118.183 E0.02057
G1 X119.697 Y118.183 E0.01257
G1 X119.697 Y117.407 E0.02433
G1 X119.357 Y117.407 E0.01066
G1 X119.346 Y115.535 E0.05867
G1 X119.661 Y115.507 E0.00993
G1 X119.681 Y115.512 E0.00064
G1 X119.701 Y115.566 E0.00180
G1 X119.716 Y115.714 E0.00468
G1 X119.718 Y117.123 E0.04416
G1 X119.752 Y117.373 E0.00793
G1 X119.801 Y117.539 E0.00541
G1 X119.908 Y117.751 E0.00745
G1 X120.063 Y117.933 E0.00750
G1 X120.260 Y118.075 E0.00761
G1 X120.492 Y118.173 E0.00789
G1 X120.752 Y118.229 E0.00836
G1 X121.042 Y118.247 E0.00910
G1 X121.399 Y118.223 E0.01122
G1 X121.713 Y118.148 E0.01012
G1 X121.983 Y118.016 E0.00941
G1 X122.198 Y117.823 E0.00907
G1 X122.345 Y117.581 E0.00887
G1 X122.397 Y117.433 E0.00490
G1 X122.477 Y117.063 E0.01189
G1 X121.565 Y116.981 E0.02873
G1 X121.451 Y117.328 E0.01148
G1 X121.390 Y117.390 E0.00271
G1 X121.254 Y117.438 E0.00453
G1 X121.008 Y117.453 E0.00773
G1 X120.870 Y117.433 E0.00435
G1 X120.754 Y117.380 E0.00402
G1 X120.704 Y117.329 E0.00223
G1 X120.662 Y117.235 E0.00322
G1 X120.635 Y117.025 E0.00665
G1 X121.318 Y117.007 E0.02142
G1 X121.796 Y116.915 E0.01528
G1 X121.974 Y116.844 E0.00598
G1 X122.185 Y116.712 E0.00782
G1 X122.352 Y116.539 E0.00755
G1 X122.471 Y116.332 E0.00747
G1 X122.541 Y116.096 E0.00772
G1 X122.561 Y115.767 E0.01034
G1 X122.516 Y115.475 E0.00927
G1 X122.408 Y115.217 E0.00876
G1 X122.231 Y115.002 E0.00875
G1 X121.990 Y114.850 E0.00891
G1 X121.706 Y114.771 E0.00927
G1 X121.446 Y114.754 E0.00815
G1 X121.084 Y114.794 E0.01144
G1 X120.752 Y114.922 E0.01114
G1 X120.511 Y115.118 E0.00973
G1 X120.428 Y114.977 E0.00513
G1 X120.274 Y114.848 E0.00631
G1 X120.086 Y114.776 E0.00632
G1 X119.924 Y114.755 E0.00511
G1 X119.690 Y114.763 E0.00735
G1 X119.282 Y114.830 E0.01296
G1 X119.282 Y115.210 E0.01193
G1 X119.221 Y115.071 E0.00475
G1 X119.001 Y114.858 E0.00959
G1 X118.788 Y114.777 E0.00716
G1 X118.555 Y114.754 E0.00734
G1 X118.282 Y114.772 E0.00857
G1 X117.855 Y114.857 E0.01365
G1 X117.855 Y115.201 E0.01076
G1 X117.759 Y115.053 E0.00552
G1 X117.527 Y114.879 E0.00908
G1 X117.180 Y114.770 E0.01140
G1 X116.805 Y114.758 E0.01177
G1 X116.445 Y114.826 E0.01149
G1 X116.177 Y114.953 E0.00931
G1 X115.984 Y115.119 E0.00798
G1 X115.935 Y115.021 E0.00342
G1 X115.828 Y114.903 E0.00499
G1 X115.659 Y114.806 E0.00611
G1 X115.497 Y114.764 E0.00526
G1 X115.359 Y114.765 E0.00433
G1 X115.359 Y114.739 E0.00082
G1 X132.839 Y114.739 E0.54807
G1 X132.839 Y114.819 E0.00251
G1 X132.064 Y114.819 E0.02429
G1 X132.063 Y116.795 E0.06196
G1 X132.020 Y117.065 E0.00859
G1 X131.954 Y117.214 E0.00509
G1 X131.830 Y117.351 E0.00579
G1 X131.671 Y117.427 E0.00554
G1 X131.510 Y117.447 E0.00511
G1 X131.321 Y117.429 E0.00595
G1 X131.246 Y117.398 E0.00254
G1 X131.190 Y117.339 E0.00255
G1 X131.144 Y117.218 E0.00404
G1 X131.116 Y116.939 E0.00880
G1 X131.116 Y114.819 E0.06648
G1 X130.203 Y114.819 E0.02861
G1 X130.210 Y117.194 E0.07447
G1 X130.290 Y117.609 E0.01326
G1 X130.435 Y117.883 E0.00971
G1 X130.653 Y118.080 E0.00921
G1 X130.931 Y118.199 E0.00950
G1 X131.257 Y118.246 E0.01031
G1 X131.584 Y118.231 E0.01028
G1 X131.856 Y118.162 E0.00880
G1 X132.107 Y118.021 E0.00901
G1 X132.113 Y118.182 E0.00505
G1 X132.988 Y118.183 E0.02743
G1 X132.977 Y115.739 E0.07663
G1 X135.859 Y115.739 E0.09038
G1 X135.859 Y114.739 E0.03135
G1 X136.439 Y114.739 E0.01819
G1 X136.439 Y119.319 E0.14360
G1 X135.859 Y119.319 E0.01819
G1 X135.859 Y118.319 E0.03135
G1 X132.839 Y118.319 E0.09469
G1 X132.839 Y119.319 E0.03135
G1 X115.359 Y119.319 E0.54807
G1 X115.359 Y118.319 E0.03135
G1 X112.339 Y118.319 E0.09469
G1 X112.339 Y119.319 E0.03135
G1 X111.859 Y119.319 E0.01505
G1 X111.859 Y114.739 E0.14360
G1 X112.339 Y114.739 E0.01505
G1 X112.339 Y115.679 E0.02947
G1 X112.399 Y116.134 F10800.000
G1 X112.099 Y115.927
G1 F1200.000
G1 X112.099 Y114.927 E0.00856
G1 F8640.000
G1 X112.099 Y115.927 E-0.23090
G1 E-0.56910 F2100.00000
G1 Z0.800 F10800.000
G1 X112.099 Y119.130
G1 Z0.200
G1 E0.80000 F2100.00000
G1 F1200.000
G1 X112.099 Y118.130 E0.00856
G1 F8640.000
G1 X112.099 Y119.130 E-0.23090
G1 E-0.56910 F2100.00000
G1 Z0.800 F10800.000
G1 X112.349 Y117.004
G1 Z0.200
G1 E0.80000 F2100.00000
