; generated by PrusaSlicer 2.2.0+win64 on 2020-07-19 at 05:28:18 UTC

; 

; external perimeters extrusion width = 0.45mm
; perimeters extrusion width = 0.45mm
; infill extrusion width = 0.45mm
; solid infill extrusion width = 0.45mm
; top infill extrusion width = 0.40mm
; first layer extrusion width = 0.42mm

M73 P0 R3
M73 Q0 S3
M201 X1000 Y1000 Z200 E5000 ; sets maximum accelerations, mm/sec^2
M203 X200 Y200 Z12 E120 ; sets maximum feedrates, mm/sec
M204 P1250 R1250 T1250 ; sets acceleration (P, T) and retract acceleration (R), mm/sec^2
M205 X8.00 Y8.00 Z0.40 E4.50 ; sets the jerk limits, mm/sec
M205 S0 T0 ; sets the minimum extruding and travel feed rate, mm/sec
M107
M862.3 P "MK3S" ; printer model check
M862.1 P0.4 ; nozzle diameter check
M115 U3.9.0 ; tell printer latest fw version
G90 ; use absolute coordinates
M83 ; extruder relative mode
M104 S215 ; set extruder temp
M140 S60 ; set bed temp
M190 S60 ; wait for bed temp
M109 S215 ; wait for extruder temp
G28 W ; home all without mesh bed level
G80 ; mesh bed leveling
G1 Y-3.0 F1000.0 ; go outside print area
G92 E0.0
G1 X60.0 E9.0 F1000.0 ; intro line
M73 Q2 S3
M73 P2 R3
G1 X100.0 E12.5 F1000.0 ; intro line
G92 E0.0
M221 S95
G21 ; set units to millimeters
G90 ; use absolute coordinates
M83 ; use relative distances for extrusion
M900 K0.06 ; Filament gcode LA 1.5
M900 K30 ; Filament gcode LA 1.0
;BEFORE_LAYER_CHANGE
G92 E0.0
;0.2


G1 E-0.80000 F2100.00000
G1 Z0.600 F10800.000
;AFTER_LAYER_CHANGE
;0.2
G1 X110.469 Y100.640
G1 Z0.200
G1 E0.80000 F2100.00000
M204 S1000
G1 F1200.000
G1 X111.027 Y100.173 E0.02282
G1 X111.684 Y99.870 E0.02269
G1 X112.487 Y99.746 E0.02549
G1 X137.504 Y99.746 E0.78439
G1 X138.505 Y99.936 E0.03195
G1 X139.372 Y100.480 E0.03208
G1 X139.980 Y101.302 E0.03208
G1 X140.246 Y102.286 E0.03195
G1 X140.254 Y107.533 E0.16450
G1 X140.174 Y108.158 E0.01975
G1 X139.919 Y108.817 E0.02218
G1 X139.506 Y109.387 E0.02205
G1 X138.959 Y109.836 E0.02218
G1 X138.316 Y110.130 E0.02218
G1 X137.513 Y110.254 E0.02549
G1 X112.324 Y110.249 E0.78979
G1 X111.518 Y110.073 E0.02587
G1 X110.796 Y109.664 E0.02600
G1 X110.230 Y109.059 E0.02600
G1 X109.870 Y108.316 E0.02587
G1 X109.746 Y107.529 E0.02498
G1 X109.746 Y102.471 E0.15859
G1 X109.807 Y101.922 E0.01733
G1 X110.052 Y101.237 E0.02282
G1 X110.434 Y100.689 E0.02093
G1 F8640.000
G1 X111.027 Y100.173 E-0.18143
G1 X111.684 Y99.870 E-0.16708
G1 X112.487 Y99.746 E-0.18771
G1 X113.456 Y99.746 E-0.22378
G1 E-0.04000 F2100.00000
G1 Z0.800 F10800.000
G1 X110.170 Y102.031
G1 Z0.200
G1 E0.80000 F2100.00000
G1 F1200.000
G1 X110.380 Y101.425 E0.02012
G1 X110.745 Y100.897 E0.02012
G1 X111.238 Y100.486 E0.02012
G1 X111.826 Y100.220 E0.02024
G1 X112.491 Y100.123 E0.02107
G1 X137.504 Y100.123 E0.78425
G1 X138.374 Y100.289 E0.02778
G1 X139.123 Y100.763 E0.02778
G1 X139.646 Y101.478 E0.02778
G1 X139.871 Y102.335 E0.02778
G1 X139.877 Y107.523 E0.16265
G1 X139.818 Y108.029 E0.01597
G1 X139.599 Y108.616 E0.01965
G1 X139.234 Y109.126 E0.01965
G1 X138.749 Y109.522 E0.01965
G1 X138.174 Y109.780 E0.01977
G1 X137.509 Y109.877 E0.02107
G1 X112.363 Y109.873 E0.78843
G1 X111.651 Y109.720 E0.02284
G1 X111.021 Y109.361 E0.02272
G1 X110.529 Y108.829 E0.02272
G1 X110.220 Y108.174 E0.02272
G1 X110.123 Y107.520 E0.02071
G1 X110.169 Y102.091 E0.17024
G1 F8640.000
G1 X110.380 Y101.425 E-0.16137
G1 X110.745 Y100.897 E-0.14818
G1 X111.238 Y100.486 E-0.14818
G1 X111.826 Y100.220 E-0.14906
G1 X112.483 Y100.124 E-0.15321
G1 E-0.04000 F2100.00000
G1 Z0.800 F10800.000
G1 X113.247 Y104.174
G1 Z0.200
G1 E0.80000 F2100.00000
G1 F1200.000
G1 X113.879 Y104.252 E0.01995
G1 X114.347 Y104.282 E0.01472
G1 X116.887 Y104.289 E0.07963
G1 X116.887 Y103.287 E0.03141
G1 X133.213 Y103.287 E0.51189
G1 X133.213 Y104.290 E0.03143
G1 X135.762 Y104.279 E0.07994
G1 X136.254 Y104.232 E0.01547
G1 X136.782 Y104.124 E0.01691
G1 X136.742 Y104.454 E0.01041
G1 X136.722 Y105.000 E0.01714
G1 X136.742 Y105.546 E0.01714
G1 X136.782 Y105.876 E0.01041
G1 X136.254 Y105.768 E0.01691
G1 X135.764 Y105.721 E0.01542
G1 X133.213 Y105.713 E0.07999
G1 X133.213 Y106.713 E0.03135
G1 X116.887 Y106.713 E0.51189
G1 X116.887 Y105.713 E0.03136
G1 X114.789 Y105.713 E0.06578
G1 X113.886 Y105.747 E0.02832
G1 X113.247 Y105.826 E0.02019
G1 X113.283 Y105.000 E0.02591
G1 X113.252 Y104.234 E0.02403
G1 F8640.000
G1 X113.879 Y104.252 E-0.14473
G1 X114.347 Y104.282 E-0.10838
G1 X116.543 Y104.288 E-0.50689
G1 E-0.04000 F2100.00000
G1 Z0.800 F10800.000
G1 X136.861 Y106.277
G1 Z0.200
G1 E0.80000 F2100.00000
G1 F1200.000
G1 X136.198 Y106.141 E0.02124
G1 X135.744 Y106.098 E0.01428
G1 X133.590 Y106.090 E0.06755
G1 X133.590 Y107.090 E0.03135
G1 X116.510 Y107.090 E0.53553
G1 X116.510 Y106.090 E0.03136
G1 X114.796 Y106.090 E0.05374
G1 X113.917 Y106.123 E0.02760
G1 X113.189 Y106.213 E0.02300
G1 X113.189 Y106.986 E0.02425
G1 X113.173 Y107.108 E0.00385
G1 X112.827 Y107.108 E0.01082
G1 X112.811 Y106.986 E0.00385
G1 X112.811 Y106.509 E0.01497
G1 X112.895 Y105.511 E0.03140
G1 X112.906 Y105.000 E0.01602
G1 X112.895 Y104.489 E0.01602
G1 X112.811 Y103.491 E0.03140
G1 X112.811 Y103.014 E0.01497
G1 X112.827 Y102.892 E0.00385
G1 X113.173 Y102.892 E0.01082
G1 X113.189 Y103.014 E0.00385
G1 X113.189 Y103.787 E0.02425
G1 X113.914 Y103.876 E0.02291
G1 X114.360 Y103.905 E0.01401
G1 X116.510 Y103.911 E0.06742
G1 X116.510 Y102.910 E0.03137
G1 X133.590 Y102.910 E0.53553
G1 X133.590 Y103.911 E0.03138
G1 X135.744 Y103.902 E0.06753
G1 X136.198 Y103.859 E0.01430
G1 X136.861 Y103.723 E0.02124
G1 X136.861 Y103.021 E0.02202
G1 X136.889 Y102.882 E0.00441
G1 X137.211 Y102.882 E0.01011
G1 X137.239 Y103.021 E0.00441
G1 X137.239 Y103.487 E0.01464
G1 X137.119 Y104.483 E0.03146
G1 X137.099 Y105.000 E0.01621
G1 X137.119 Y105.517 E0.01621
G1 X137.239 Y106.513 E0.03146
G1 X137.239 Y106.979 E0.01464
G1 X137.211 Y107.118 E0.00441
G1 X136.889 Y107.118 E0.01011
G1 X136.861 Y106.979 E0.00441
G1 X136.861 Y106.337 E0.02014
G1 X136.911 Y105.880 F10800.000
G1 F8640.000
G1 X136.198 Y106.141 E-0.15978
G1 X135.744 Y106.098 E-0.10519
G1 X133.600 Y106.090 E-0.49503
G1 E-0.04000 F2100.00000
G1 Z0.800 F10800.000
G1 X136.609 Y104.987
G1 Z0.200
G1 E0.80000 F2100.00000
G1 F1200.000
G1 X136.148 Y104.526 E0.02067
G1 X135.644 Y104.562 E0.01600
G1 X136.453 Y105.370 E0.03623
G1 X136.458 Y105.521 E0.00478
G1 X136.003 Y105.460 E0.01457
G1 X135.108 Y104.564 E0.04014
G1 X134.571 Y104.567 E0.01702
G1 X135.441 Y105.437 E0.03903
G1 X134.900 Y105.436 E0.01715
G1 X134.034 Y104.569 E0.03886
G1 X133.497 Y104.571 E0.01702
G1 X134.359 Y105.434 E0.03868
G1 X133.818 Y105.432 E0.01715
G1 X131.956 Y103.570 E0.08349
G1 X132.495 Y103.570 E0.01709
G1 X133.100 Y104.174 E0.02710
G1 F8640.000
G1 X132.495 Y103.570 E-0.19737
G1 X131.956 Y103.570 E-0.12450
G1 X133.298 Y104.912 E-0.43813
G1 E-0.04000 F2100.00000
G1 Z0.800 F10800.000
G1 X133.448 Y105.601
G1 Z0.200
G1 E0.80000 F2100.00000
G1 F1200.000
G1 X131.417 Y103.570 E0.09104
G1 X130.878 Y103.570 E0.01709
G1 X132.930 Y105.622 E0.09201
G1 X132.930 Y106.161 E0.01709
G1 X130.339 Y103.570 E0.11618
G1 X129.799 Y103.570 E0.01709
G1 X132.660 Y106.430 E0.12823
G1 X132.121 Y106.430 E0.01709
G1 X129.260 Y103.570 E0.12823
G1 X128.721 Y103.570 E0.01709
G1 X131.581 Y106.430 E0.12823
G1 X131.042 Y106.430 E0.01709
G1 X128.182 Y103.570 E0.12823
G1 X127.643 Y103.570 E0.01709
G1 X130.503 Y106.430 E0.12823
G1 X129.964 Y106.430 E0.01709
G1 X127.104 Y103.570 E0.12823
G1 X126.564 Y103.570 E0.01709
G1 X129.425 Y106.430 E0.12823
G1 X128.885 Y106.430 E0.01709
G1 X126.025 Y103.570 E0.12823
G1 X125.486 Y103.570 E0.01709
G1 X128.346 Y106.430 E0.12823
G1 X127.807 Y106.430 E0.01709
G1 X124.947 Y103.570 E0.12823
G1 X124.408 Y103.570 E0.01709
G1 X127.268 Y106.430 E0.12823
G1 X126.729 Y106.430 E0.01709
G1 X123.868 Y103.570 E0.12823
G1 X123.329 Y103.570 E0.01709
G1 X126.190 Y106.430 E0.12823
G1 X125.650 Y106.430 E0.01709
G1 X122.790 Y103.570 E0.12823
G1 X122.251 Y103.570 E0.01709
G1 X125.111 Y106.430 E0.12823
G1 X124.572 Y106.430 E0.01709
G1 X121.712 Y103.570 E0.12823
G1 X121.173 Y103.570 E0.01709
G1 X124.033 Y106.430 E0.12823
G1 X123.494 Y106.430 E0.01709
G1 X120.633 Y103.570 E0.12823
G1 X120.094 Y103.570 E0.01709
G1 X122.954 Y106.430 E0.12823
G1 X122.415 Y106.430 E0.01709
G1 X119.555 Y103.570 E0.12823
G1 X119.016 Y103.570 E0.01709
G1 X121.876 Y106.430 E0.12823
G1 X121.337 Y106.430 E0.01709
G1 X118.477 Y103.570 E0.12823
G1 X117.937 Y103.570 E0.01709
G1 X120.798 Y106.430 E0.12823
G1 X120.259 Y106.430 E0.01709
G1 X117.398 Y103.570 E0.12823
G1 X117.170 Y103.570 E0.00724
G1 X117.170 Y103.881 E0.00985
G1 X119.719 Y106.430 E0.11430
G1 X119.180 Y106.430 E0.01709
G1 X117.170 Y104.420 E0.09013
G1 X117.170 Y104.572 E0.00483
G1 X116.782 Y104.571 E0.01229
G1 X118.641 Y106.430 E0.08334
G1 X118.102 Y106.430 E0.01709
G1 X116.241 Y104.570 E0.08341
G1 X115.701 Y104.568 E0.01714
G1 X116.563 Y105.430 E0.03864
G1 X116.023 Y105.430 E0.01709
G1 X115.160 Y104.567 E0.03871
G1 X114.619 Y104.565 E0.01714
G1 X115.484 Y105.430 E0.03878
G1 X114.945 Y105.430 E0.01709
G1 X114.062 Y104.547 E0.03961
G1 X113.544 Y104.496 E0.01649
G1 X113.547 Y104.572 E0.00241
G1 X114.420 Y105.444 E0.03911
G1 X113.900 Y105.463 E0.01649
G1 X113.394 Y104.958 E0.02268
G1 F8640.000
G1 X113.900 Y105.463 E-0.16517
G1 X114.420 Y105.444 E-0.12010
G1 X113.547 Y104.572 E-0.28486
G1 X113.544 Y104.496 E-0.01754
G1 X114.062 Y104.547 E-0.12014
G1 X114.222 Y104.707 E-0.05220
G1 E-0.04000 F2100.00000
G1 Z0.800 F10800.000
G1 X117.000 Y105.868
G1 Z0.200
G1 E0.80000 F2100.00000
G1 F1200.000
G1 X117.732 Y106.600 E0.03282
M106 S255
;BEFORE_LAYER_CHANGE
G92 E0.0
;0.35


G1 F8640.000
G1 X117.000 Y105.868 E-0.23906
G1 E-0.56094 F2100.00000
G1 Z0.800 F10800.000
;AFTER_LAYER_CHANGE
;0.35
G1 X139.372 Y100.480
G1 Z0.350
G1 E0.80000 F2100.00000
G1 F1364
G1 X139.980 Y101.302 E0.02474
G1 X140.246 Y102.286 E0.02465
G1 X140.254 Y107.533 E0.12689
G1 X140.174 Y108.158 E0.01524
G1 X139.919 Y108.817 E0.01711
G1 X139.506 Y109.387 E0.01701
G1 X138.959 Y109.836 E0.01711
G1 X138.316 Y110.130 E0.01711
G1 X137.513 Y110.254 E0.01966
G1 X112.324 Y110.249 E0.60920
G1 X111.518 Y110.073 E0.01995
G1 X110.796 Y109.664 E0.02005
G1 X110.230 Y109.059 E0.02005
G1 X109.870 Y108.316 E0.01995
G1 X109.746 Y107.529 E0.01927
G1 X109.746 Y102.471 E0.12233
G1 X109.807 Y101.922 E0.01336
G1 X110.052 Y101.237 E0.01760
G1 X110.469 Y100.640 E0.01760
G1 X111.027 Y100.173 E0.01760
G1 X111.684 Y99.870 E0.01750
G1 X112.487 Y99.746 E0.01966
G1 X137.504 Y99.746 E0.60504
G1 X138.505 Y99.936 E0.02465
G1 X139.321 Y100.448 E0.02329
G1 X139.122 Y100.763 F10800.000
G1 F1364
G1 X139.646 Y101.478 E0.02146
G1 X139.871 Y102.335 E0.02143
G1 X139.877 Y107.523 E0.12546
G1 X139.818 Y108.029 E0.01232
G1 X139.599 Y108.616 E0.01516
G1 X139.234 Y109.126 E0.01516
G1 X138.749 Y109.522 E0.01516
G1 X138.174 Y109.780 E0.01525
G1 X137.509 Y109.877 E0.01625
G1 X112.363 Y109.873 E0.60815
G1 X111.651 Y109.720 E0.01762
G1 X111.021 Y109.361 E0.01753
G1 X110.529 Y108.829 E0.01753
G1 X110.220 Y108.174 E0.01753
G1 X110.123 Y107.520 E0.01598
G1 X110.170 Y102.031 E0.13276
G1 X110.380 Y101.425 E0.01552
G1 X110.745 Y100.897 E0.01552
G1 X111.238 Y100.486 E0.01552
G1 X111.826 Y100.220 E0.01561
G1 X112.491 Y100.123 E0.01625
G1 X137.504 Y100.123 E0.60492
G1 X138.374 Y100.289 E0.02143
G1 X139.071 Y100.731 E0.01995
G1 F8640.000
G1 X139.646 Y101.478 E-0.21780
G1 X139.871 Y102.335 E-0.20460
G1 X139.873 Y103.797 E-0.33760
G1 E-0.04000 F2100.00000
G1 Z0.950 F10800.000
G1 X136.857 Y104.143
G1 Z0.350
G1 E0.80000 F2100.00000
M204 S800
G1 F1364
G1 X136.857 Y105.857 E0.04467
G1 X133.357 Y105.857 E0.09120
G1 X133.357 Y106.857 E0.02606
G1 X116.743 Y106.857 E0.43290
G1 X116.743 Y105.857 E0.02606
G1 X113.143 Y105.857 E0.09380
G1 X113.143 Y104.143 E0.04467
G1 X116.743 Y104.143 E0.09380
G1 X116.743 Y103.143 E0.02606
G1 X133.357 Y103.143 E0.43290
G1 X133.357 Y104.143 E0.02606
G1 X136.797 Y104.143 E0.08963
M204 S1000
G1 X136.797 Y103.725 F10800.000
M204 S800
G1 F1364
G1 X136.825 Y103.725 E0.00072
G1 X136.825 Y102.725 E0.02606
G1 X137.275 Y102.725 E0.01173
G1 X137.275 Y107.275 E0.11855
G1 X136.825 Y107.275 E0.01173
G1 X136.825 Y106.275 E0.02606
G1 X133.775 Y106.275 E0.07947
G1 X133.775 Y107.275 E0.02606
G1 X116.325 Y107.275 E0.45467
G1 X116.325 Y106.275 E0.02606
G1 X113.275 Y106.275 E0.07947
G1 X113.275 Y107.275 E0.02606
G1 X112.725 Y107.275 E0.01433
G1 X112.725 Y102.725 E0.11855
G1 X113.275 Y102.725 E0.01433
G1 X113.275 Y103.725 E0.02606
G1 X116.325 Y103.725 E0.07947
G1 X116.325 Y102.725 E0.02606
G1 X133.775 Y102.725 E0.45467
G1 X133.775 Y103.725 E0.02606
G1 X136.737 Y103.725 E0.07718
M204 S1000
G1 X136.808 Y103.750 F10800.000
G1 F8640.000
G1 X136.825 Y103.725 E-0.02028
G1 X136.825 Y102.725 E-0.23090
G1 X137.275 Y102.725 E-0.10391
G1 X137.275 Y104.479 E-0.40492
G1 E-0.04000 F2100.00000
G1 Z0.950 F10800.000
G1 X135.880 Y105.732
G1 Z0.350
G1 E0.80000 F2100.00000
G1 F1364
G1 X136.544 Y105.068 E0.02464
G1 X136.544 Y104.473 E0.01564
G1 X135.473 Y105.544 E0.03977
G1 X134.877 Y105.544 E0.01564
G1 X135.965 Y104.456 E0.04039
G1 X135.369 Y104.456 E0.01564
G1 X134.282 Y105.544 E0.04039
G1 X133.686 Y105.544 E0.01564
G1 X134.774 Y104.456 E0.04039
G1 X134.179 Y104.456 E0.01564
G1 X132.091 Y106.544 E0.07753
G1 X132.686 Y106.544 E0.01564
G1 X133.232 Y105.998 E0.02026
G1 F8640.000
G1 X132.686 Y106.544 E-0.17814
G1 X132.091 Y106.544 E-0.13750
G1 X133.452 Y105.183 E-0.44436
G1 E-0.04000 F2100.00000
G1 Z0.950 F10800.000
G1 X131.307 Y106.732
G1 Z0.350
G1 E0.80000 F2100.00000
G1 F1364
G1 X133.583 Y104.456 E0.08451
G1 X133.044 Y104.456 E0.01416
G1 X133.044 Y104.400 E0.00148
G1 X130.900 Y106.544 E0.07962
G1 X130.304 Y106.544 E0.01564
G1 X133.044 Y103.804 E0.10174
G1 X133.044 Y103.456 E0.00914
G1 X132.797 Y103.456 E0.00649
G1 X129.709 Y106.544 E0.11467
G1 X129.113 Y106.544 E0.01564
G1 X132.201 Y103.456 E0.11467
G1 X131.606 Y103.456 E0.01564
G1 X128.518 Y106.544 E0.11467
G1 X127.922 Y106.544 E0.01564
G1 X131.010 Y103.456 E0.11467
G1 X130.415 Y103.456 E0.01564
G1 X127.327 Y106.544 E0.11467
G1 X126.731 Y106.544 E0.01564
G1 X129.819 Y103.456 E0.11467
G1 X129.224 Y103.456 E0.01564
G1 X126.136 Y106.544 E0.11467
G1 X125.540 Y106.544 E0.01564
G1 X128.628 Y103.456 E0.11467
G1 X128.033 Y103.456 E0.01564
G1 X124.945 Y106.544 E0.11467
G1 X124.349 Y106.544 E0.01564
G1 X127.437 Y103.456 E0.11467
G1 X126.842 Y103.456 E0.01564
G1 X123.754 Y106.544 E0.11467
G1 X123.158 Y106.544 E0.01564
G1 X126.246 Y103.456 E0.11467
G1 X125.651 Y103.456 E0.01564
G1 X122.563 Y106.544 E0.11467
G1 X121.967 Y106.544 E0.01564
G1 X125.055 Y103.456 E0.11467
G1 X124.460 Y103.456 E0.01564
G1 X121.372 Y106.544 E0.11467
G1 X120.776 Y106.544 E0.01564
G1 X123.864 Y103.456 E0.11467
G1 X123.269 Y103.456 E0.01564
G1 X120.181 Y106.544 E0.11467
G1 X119.585 Y106.544 E0.01564
G1 X122.673 Y103.456 E0.11467
G1 X122.078 Y103.456 E0.01564
G1 X118.990 Y106.544 E0.11467
G1 X118.394 Y106.544 E0.01564
G1 X121.482 Y103.456 E0.11467
G1 X120.887 Y103.456 E0.01564
G1 X117.799 Y106.544 E0.11467
G1 X117.203 Y106.544 E0.01564
G1 X120.291 Y103.456 E0.11467
G1 X119.696 Y103.456 E0.01564
G1 X117.056 Y106.096 E0.09802
G1 X117.056 Y105.544 E0.01449
G1 X117.012 Y105.544 E0.00115
G1 X119.100 Y103.456 E0.07753
G1 X118.505 Y103.456 E0.01564
G1 X116.417 Y105.544 E0.07753
G1 X115.821 Y105.544 E0.01564
G1 X117.909 Y103.456 E0.07753
G1 X117.314 Y103.456 E0.01564
G1 X116.868 Y103.902 E0.01654
G1 F8640.000
G1 X117.314 Y103.456 E-0.14544
G1 X117.909 Y103.456 E-0.13750
G1 X116.448 Y104.917 E-0.47705
G1 E-0.04000 F2100.00000
G1 Z0.950 F10800.000
G1 X113.000 Y102.934
G1 Z0.350
G1 E0.80000 F2100.00000
G1 F1364
G1 X113.000 Y103.934 E0.00824
G1 F8640.000
G1 X113.000 Y102.934 E-0.23090
G1 E-0.56910 F2100.00000
G1 Z0.950 F10800.000
G1 X114.120 Y104.268
G1 Z0.350
G1 E0.80000 F2100.00000
G1 F1364
G1 X113.456 Y104.932 E0.02464
G1 X113.456 Y105.527 E0.01564
G1 X114.527 Y104.456 E0.03977
G1 X115.123 Y104.456 E0.01564
G1 X114.035 Y105.544 E0.04039
G1 X114.630 Y105.544 E0.01564
G1 X115.718 Y104.456 E0.04039
G1 X116.314 Y104.456 E0.01564
G1 X115.038 Y105.732 E0.04738
G1 F8640.000
G1 X116.314 Y104.456 E-0.41657
G1 X115.718 Y104.456 E-0.13750
G1 X115.087 Y105.087 E-0.20593
