; generated by PrusaSlicer 2.2.0+win64 on 2020-07-18 at 11:33:54 UTC

; 

; external perimeters extrusion width = 0.45mm
; perimeters extrusion width = 0.45mm
; infill extrusion width = 0.45mm
; solid infill extrusion width = 0.45mm
; top infill extrusion width = 0.40mm
; first layer extrusion width = 0.42mm

M73 P0 R15
M73 Q0 S15
M201 X1000 Y1000 Z200 E5000 ; sets maximum accelerations, mm/sec^2
M203 X200 Y200 Z12 E120 ; sets maximum feedrates, mm/sec
M204 P1250 R1250 T1250 ; sets acceleration (P, T) and retract acceleration (R), mm/sec^2
M205 X8.00 Y8.00 Z0.40 E4.50 ; sets the jerk limits, mm/sec
M205 S0 T0 ; sets the minimum extruding and travel feed rate, mm/sec
M107
M862.3 P "MK3S" ; printer model check
M862.1 P0.4 ; nozzle diameter check
M115 U3.9.0 ; tell printer latest fw version
G90 ; use absolute coordinates
M83 ; extruder relative mode
M104 S215 ; set extruder temp
M140 S60 ; set bed temp
M190 S60 ; wait for bed temp
M109 S215 ; wait for extruder temp
G28 W ; home all without mesh bed level
G80 ; mesh bed leveling
G1 Y-3.0 F1000.0 ; go outside print area
G92 E0.0
G1 X60.0 E9.0 F1000.0 ; intro line
M73 Q0 S15
M73 P0 R15
G1 X100.0 E12.5 F1000.0 ; intro line
G92 E0.0
M221 S95
G21 ; set units to millimeters
G90 ; use absolute coordinates
M83 ; use relative distances for extrusion
M900 K0.06 ; Filament gcode LA 1.5
M900 K30 ; Filament gcode LA 1.0
;BEFORE_LAYER_CHANGE
G92 E0.0
;0.2


G1 E-0.80000 F2100.00000
G1 Z0.600 F10800.000
;AFTER_LAYER_CHANGE
;0.2
G1 X118.220 Y97.928
G1 Z0.200
G1 E0.80000 F2100.00000
M204 S1000
G1 F900
G1 X119.502 Y96.792 E0.05369
G1 X120.973 Y95.960 E0.05299
G1 X122.599 Y95.447 E0.05347
G1 X124.272 Y95.285 E0.05269
G1 X125.428 Y95.377 E0.03635
G1 X126.553 Y95.630 E0.03615
G1 X127.622 Y96.037 E0.03588
G1 X128.664 Y96.616 E0.03737
G1 X133.883 Y100.520 E0.20434
G1 X134.535 Y101.395 E0.03423
G1 X134.848 Y102.437 E0.03409
G1 X134.767 Y104.346 E0.05991
G1 X134.595 Y104.955 E0.01984
G1 X134.301 Y105.520 E0.01998
G1 X128.639 Y113.876 E0.31647
G1 X128.216 Y114.304 E0.01889
G1 X127.718 Y114.643 E0.01889
G1 X127.165 Y114.881 E0.01889
G1 X126.576 Y115.008 E0.01889
G1 X122.698 Y114.987 E0.12158
G1 X121.757 Y114.671 E0.03112
G1 X120.962 Y114.077 E0.03112
G1 X120.489 Y113.445 E0.02474
G1 X116.913 Y106.943 E0.23268
G1 X116.455 Y105.775 E0.03932
G1 X116.144 Y104.252 E0.04875
G1 X116.147 Y102.510 E0.05462
G1 X116.510 Y100.846 E0.05339
G1 X117.217 Y99.287 E0.05367
G1 X118.185 Y97.976 E0.05110
G1 F8640.000
G1 X119.502 Y96.792 E-0.40895
G1 X120.825 Y96.043 E-0.35105
G1 E-0.04000 F2100.00000
G1 Z0.800 F10800.000
G1 X134.189 Y101.545
G1 Z0.200
G1 E0.80000 F2100.00000
G1 F900
G1 X134.472 Y102.473 E0.03044
G1 X134.399 Y104.261 E0.05612
G1 X134.248 Y104.806 E0.01771
G1 X133.991 Y105.304 E0.01758
G1 X128.363 Y113.619 E0.31481
G1 X127.988 Y114.003 E0.01681
G1 X127.551 Y114.305 E0.01669
G1 X127.059 Y114.519 E0.01681
G1 X126.539 Y114.633 E0.01669
G1 X122.787 Y114.620 E0.11764
G1 X121.942 Y114.342 E0.02790
G1 X121.226 Y113.807 E0.02803
G1 X120.813 Y113.252 E0.02167
G1 X117.251 Y106.776 E0.23175
G1 X116.818 Y105.672 E0.03718
G1 X116.519 Y104.217 E0.04656
G1 X116.522 Y102.549 E0.05232
G1 X116.869 Y100.963 E0.05091
G1 X117.541 Y99.480 E0.05104
G1 X118.500 Y98.180 E0.05066
G1 X119.719 Y97.100 E0.05107
G1 X121.125 Y96.304 E0.05065
G1 X122.673 Y95.817 E0.05086
G1 X124.272 Y95.662 E0.05037
G1 X125.374 Y95.750 E0.03466
G1 X126.438 Y95.989 E0.03421
G1 X127.458 Y96.376 E0.03420
G1 X128.441 Y96.921 E0.03524
G1 X133.603 Y100.775 E0.20200
G1 X134.152 Y101.497 E0.02843
G1 X133.847 Y101.706 F10800.000
G1 F900
G1 X134.097 Y102.513 E0.02649
G1 X134.030 Y104.181 E0.05235
G1 X133.902 Y104.655 E0.01538
G1 X133.679 Y105.092 E0.01538
G1 X128.083 Y113.365 E0.31318
G1 X127.379 Y113.969 E0.02907
G1 X126.502 Y114.258 E0.02896
G1 X122.874 Y114.251 E0.11376
G1 X122.123 Y114.011 E0.02473
G1 X121.491 Y113.539 E0.02473
G1 X121.141 Y113.065 E0.01846
G1 X117.591 Y106.612 E0.23094
G1 X117.180 Y105.568 E0.03518
G1 X116.895 Y104.181 E0.04439
G1 X116.897 Y102.591 E0.04985
G1 X117.226 Y101.082 E0.04843
G1 X117.868 Y99.669 E0.04867
G1 X118.778 Y98.435 E0.04807
G1 X119.941 Y97.405 E0.04870
G1 X121.275 Y96.651 E0.04805
G1 X122.750 Y96.186 E0.04851
G1 X124.268 Y96.040 E0.04780
G1 X125.316 Y96.123 E0.03296
G1 X126.328 Y96.350 E0.03254
G1 X127.298 Y96.718 E0.03253
G1 X128.221 Y97.227 E0.03304
G1 X133.328 Y101.035 E0.19974
G1 X133.811 Y101.658 E0.02473
G1 F8640.000
G1 X134.097 Y102.513 E-0.20812
G1 X134.030 Y104.181 E-0.38555
G1 X133.902 Y104.655 E-0.11325
G1 X133.798 Y104.859 E-0.05307
G1 E-0.04000 F2100.00000
G1 Z0.800 F10800.000
G1 X131.311 Y103.158
G1 Z0.200
G1 E0.80000 F2100.00000
G1 F900
G1 X131.298 Y103.400 E0.00759
G1 X130.852 Y103.443 E0.01406
G1 X128.916 Y103.349 E0.06077
G1 X128.847 Y102.670 E0.02140
G1 X128.783 Y102.340 E0.01054
G1 X128.592 Y101.715 E0.02049
G1 X128.314 Y101.120 E0.02061
G1 X127.958 Y100.572 E0.02049
G1 X127.746 Y100.311 E0.01054
G1 X127.283 Y99.850 E0.02049
G1 X126.760 Y99.458 E0.02049
G1 X126.471 Y99.285 E0.01054
G1 X125.878 Y99.011 E0.02049
G1 X125.252 Y98.823 E0.02049
G1 X124.922 Y98.760 E0.01054
G1 X124.270 Y98.706 E0.02049
G1 X123.614 Y98.744 E0.02061
G1 X122.970 Y98.873 E0.02061
G1 X122.349 Y99.091 E0.02061
G1 X121.769 Y99.392 E0.02049
G1 X121.489 Y99.577 E0.01054
G1 X120.985 Y99.991 E0.02043
G1 X120.540 Y100.476 E0.02068
G1 X120.167 Y101.018 E0.02061
G1 X119.874 Y101.607 E0.02061
G1 X119.667 Y102.230 E0.02061
G1 X119.548 Y102.877 E0.02061
G1 X119.521 Y103.534 E0.02061
G1 X119.586 Y104.188 E0.02061
G1 X119.741 Y104.823 E0.02050
G1 X119.855 Y105.141 E0.01061
G1 X120.138 Y105.728 E0.02043
G1 X120.503 Y106.274 E0.02061
G1 X120.942 Y106.764 E0.02061
G1 X121.441 Y107.186 E0.02049
G1 X121.719 Y107.374 E0.01054
G1 X122.296 Y107.682 E0.02049
G1 X122.910 Y107.907 E0.02049
G1 X123.236 Y107.988 E0.01054
G1 X123.911 Y108.093 E0.02142
G1 X123.901 Y111.216 E0.09791
G1 X125.515 Y111.169 E0.05065
G1 X125.424 Y110.408 E0.02405
G1 X125.716 Y110.700 E0.01295
G1 X125.905 Y110.973 E0.01040
G1 X125.847 Y111.539 E0.01783
G1 X125.204 Y111.587 E0.02024
G1 X124.220 Y111.587 E0.03085
G1 X123.573 Y111.537 E0.02035
G1 X123.525 Y110.983 E0.01741
G1 X123.511 Y109.172 E0.05680
G1 X123.406 Y108.109 E0.03349
G1 X122.891 Y107.984 E0.01663
G1 X122.577 Y107.882 E0.01035
G1 X121.960 Y107.606 E0.02119
G1 X121.677 Y107.442 E0.01025
G1 X121.136 Y107.047 E0.02100
G1 X120.655 Y106.579 E0.02103
G1 X120.244 Y106.049 E0.02103
G1 X119.912 Y105.468 E0.02100
G1 X119.780 Y105.169 E0.01025
G1 X119.576 Y104.528 E0.02107
G1 X119.463 Y103.866 E0.02107
G1 X119.442 Y103.537 E0.01033
G1 X119.470 Y102.868 E0.02100
G1 X119.591 Y102.207 E0.02107
G1 X119.683 Y101.893 E0.01025
G1 X119.941 Y101.269 E0.02119
G1 X120.097 Y100.981 E0.01025
G1 X120.480 Y100.424 E0.02119
G1 X120.695 Y100.173 E0.01037
G1 X120.927 Y99.937 E0.01037
G1 X121.446 Y99.510 E0.02107
G1 X122.019 Y99.160 E0.02107
G1 X122.318 Y99.018 E0.01037
G1 X122.626 Y98.898 E0.01037
G1 X123.274 Y98.720 E0.02107
G1 X123.937 Y98.634 E0.02096
G1 X124.603 Y98.643 E0.02088
G1 X125.270 Y98.745 E0.02114
G1 X125.586 Y98.828 E0.01025
G1 X126.214 Y99.067 E0.02107
G1 X126.800 Y99.389 E0.02096
G1 X127.337 Y99.792 E0.02107
G1 X127.577 Y100.015 E0.01025
G1 X128.019 Y100.521 E0.02107
G1 X128.385 Y101.085 E0.02107
G1 X128.534 Y101.376 E0.01026
G1 X128.776 Y102.007 E0.02119
G1 X128.862 Y102.325 E0.01035
G1 X128.959 Y102.846 E0.01661
G1 X129.976 Y103.004 E0.03229
G1 X130.837 Y103.065 E0.02705
G1 X131.252 Y103.150 E0.01328
G1 X131.175 Y103.359 F10800.000
G1 F8640.000
G1 X131.298 Y103.400 E-0.05865
G1 X130.852 Y103.443 E-0.10351
G1 X128.916 Y103.349 E-0.44756
G1 X128.851 Y102.702 E-0.15027
G1 E-0.04000 F2100.00000
G1 Z0.800 F10800.000
G1 X129.628 Y103.165
G1 Z0.200
G1 E0.80000 F2100.00000
G1 F900
G1 X129.075 Y103.108 E0.00457
G1 F8640.000
G1 X129.628 Y103.165 E-0.12830
G1 E-0.67170 F2100.00000
G1 Z0.800 F10800.000
G1 X123.662 Y108.239
G1 Z0.200
G1 E0.80000 F2100.00000
G1 F900
G1 X123.689 Y108.806 E0.00471
M106 S255
;BEFORE_LAYER_CHANGE
G92 E0.0
;0.3


G1 F8640.000
G1 X123.662 Y108.239 E-0.13110
G1 E-0.66890 F2100.00000
G1 Z0.800 F10800.000
;AFTER_LAYER_CHANGE
;0.3
G1 X121.757 Y114.671
G1 Z0.300
G1 E0.80000 F2100.00000
G1 F900
G1 X120.962 Y114.077 E0.01645
G1 X120.489 Y113.445 E0.01308
G1 X116.913 Y106.943 E0.12296
G1 X116.455 Y105.775 E0.02078
G1 X116.144 Y104.252 E0.02576
G1 X116.147 Y102.510 E0.02886
G1 X116.510 Y100.846 E0.02822
G1 X117.217 Y99.287 E0.02836
G1 X118.220 Y97.928 E0.02800
G1 X119.502 Y96.792 E0.02837
G1 X120.973 Y95.960 E0.02800
G1 X122.599 Y95.447 E0.02826
G1 X124.272 Y95.285 E0.02784
G1 X125.428 Y95.377 E0.01921
G1 X126.553 Y95.630 E0.01910
G1 X127.622 Y96.037 E0.01896
G1 X128.664 Y96.616 E0.01975
G1 X133.883 Y100.520 E0.10799
G1 X134.535 Y101.395 E0.01809
G1 X134.848 Y102.437 E0.01802
G1 X134.767 Y104.346 E0.03166
G1 X134.595 Y104.955 E0.01049
G1 X134.301 Y105.520 E0.01056
G1 X128.639 Y113.876 E0.16724
G1 X128.216 Y114.304 E0.00998
G1 X127.718 Y114.643 E0.00998
G1 X127.165 Y114.881 E0.00998
G1 X126.576 Y115.008 E0.00998
G1 X122.698 Y114.987 E0.06425
G1 X121.814 Y114.690 E0.01545
G1 X121.942 Y114.342 F10800.000
G1 F900
G1 X121.226 Y113.807 E0.01481
G1 X120.813 Y113.252 E0.01145
G1 X117.251 Y106.776 E0.12247
G1 X116.818 Y105.672 E0.01965
G1 X116.519 Y104.217 E0.02460
G1 X116.522 Y102.549 E0.02765
G1 X116.869 Y100.963 E0.02691
G1 X117.541 Y99.480 E0.02697
G1 X118.500 Y98.180 E0.02677
G1 X119.719 Y97.100 E0.02699
G1 X121.125 Y96.304 E0.02677
G1 X122.673 Y95.817 E0.02688
G1 X124.272 Y95.662 E0.02662
G1 X125.374 Y95.750 E0.01831
G1 X126.438 Y95.989 E0.01808
G1 X127.458 Y96.376 E0.01808
G1 X128.441 Y96.921 E0.01862
G1 X133.603 Y100.775 E0.10675
G1 X134.189 Y101.545 E0.01602
G1 X134.472 Y102.473 E0.01608
G1 X134.399 Y104.261 E0.02966
G1 X134.248 Y104.806 E0.00936
G1 X133.991 Y105.304 E0.00929
G1 X128.363 Y113.619 E0.16636
G1 X127.988 Y114.003 E0.00889
G1 X127.551 Y114.305 E0.00882
G1 X127.059 Y114.519 E0.00889
G1 X126.539 Y114.633 E0.00882
G1 X122.787 Y114.620 E0.06217
G1 X121.999 Y114.361 E0.01375
G1 X122.123 Y114.011 F10800.000
G1 F900
G1 X121.491 Y113.539 E0.01307
G1 X121.141 Y113.065 E0.00976
G1 X117.591 Y106.612 E0.12204
G1 X117.180 Y105.568 E0.01859
G1 X116.895 Y104.181 E0.02346
G1 X116.897 Y102.591 E0.02635
G1 X117.226 Y101.082 E0.02559
G1 X117.868 Y99.669 E0.02572
G1 X118.778 Y98.435 E0.02540
G1 X119.941 Y97.405 E0.02574
G1 X121.275 Y96.651 E0.02539
G1 X122.750 Y96.186 E0.02563
G1 X124.268 Y96.040 E0.02526
G1 X125.316 Y96.123 E0.01742
G1 X126.328 Y96.350 E0.01719
G1 X127.298 Y96.718 E0.01719
G1 X128.221 Y97.227 E0.01746
G1 X133.328 Y101.035 E0.10555
G1 X133.847 Y101.706 E0.01406
G1 X134.097 Y102.513 E0.01400
G1 X134.030 Y104.181 E0.02767
G1 X133.902 Y104.655 E0.00813
G1 X133.679 Y105.092 E0.00813
G1 X128.083 Y113.365 E0.16550
G1 X127.379 Y113.969 E0.01536
G1 X126.502 Y114.258 E0.01530
G1 X122.874 Y114.251 E0.06012
G1 X122.180 Y114.030 E0.01207
G1 F8640.000
G1 X121.491 Y113.539 E-0.19524
G1 X121.141 Y113.065 E-0.13597
G1 X120.246 Y111.438 E-0.42879
G1 E-0.04000 F2100.00000
G1 Z0.900 F10800.000
G1 X123.437 Y111.673
G1 Z0.300
G1 E0.80000 F2100.00000
M204 S800
G1 F900
G1 X123.437 Y108.101 E0.06365
G1 X122.895 Y107.969 E0.00994
G1 X122.582 Y107.868 E0.00585
G1 X121.967 Y107.592 E0.01201
G1 X121.685 Y107.429 E0.00580
G1 X121.145 Y107.035 E0.01191
G1 X120.897 Y106.810 E0.00597
G1 X120.453 Y106.314 E0.01187
G1 X120.257 Y106.042 E0.00597
G1 X119.925 Y105.461 E0.01191
G1 X119.794 Y105.163 E0.00580
G1 X119.590 Y104.525 E0.01194
G1 X119.478 Y103.864 E0.01194
G1 X119.457 Y103.534 E0.00590
G1 X119.484 Y102.870 E0.01184
G1 X119.605 Y102.210 E0.01194
G1 X119.697 Y101.898 E0.00580
G1 X119.955 Y101.275 E0.01201
G1 X120.110 Y100.989 E0.00580
G1 X120.492 Y100.433 E0.01201
G1 X120.937 Y99.948 E0.01173
G1 X121.454 Y99.522 E0.01194
G1 X122.026 Y99.173 E0.01194
G1 X122.631 Y98.912 E0.01173
G1 X123.277 Y98.734 E0.01194
G1 X123.938 Y98.650 E0.01187
G1 X124.598 Y98.658 E0.01177
G1 X125.267 Y98.760 E0.01204
G1 X125.581 Y98.843 E0.00580
G1 X126.208 Y99.081 E0.01194
G1 X126.791 Y99.402 E0.01187
G1 X127.328 Y99.804 E0.01194
G1 X127.566 Y100.025 E0.00580
G1 X128.007 Y100.530 E0.01194
G1 X128.372 Y101.092 E0.01194
G1 X128.520 Y101.382 E0.00580
G1 X128.762 Y102.011 E0.01201
G1 X128.847 Y102.329 E0.00585
G1 X128.949 Y102.877 E0.00993
G1 X131.501 Y103.014 E0.04553
G1 X131.471 Y103.563 E0.00980
G1 X128.917 Y103.426 E0.04558
G1 X128.862 Y102.664 E0.01360
G1 X128.715 Y102.026 E0.01168
G1 X128.603 Y101.701 E0.00611
G1 X128.327 Y101.112 E0.01158
G1 X127.970 Y100.563 E0.01168
G1 X127.757 Y100.301 E0.00602
G1 X127.295 Y99.841 E0.01161
G1 X127.032 Y99.629 E0.00602
G1 X126.486 Y99.277 E0.01158
G1 X125.883 Y98.997 E0.01184
G1 X125.255 Y98.808 E0.01168
G1 X124.924 Y98.745 E0.00602
G1 X124.270 Y98.691 E0.01168
G1 X123.612 Y98.729 E0.01175
G1 X122.966 Y98.858 E0.01175
G1 X122.343 Y99.077 E0.01175
G1 X121.758 Y99.381 E0.01175
G1 X121.224 Y99.760 E0.01168
G1 X120.971 Y99.984 E0.00602
G1 X120.528 Y100.467 E0.01168
G1 X120.154 Y101.011 E0.01175
G1 X119.861 Y101.601 E0.01175
G1 X119.652 Y102.227 E0.01175
G1 X119.533 Y102.875 E0.01175
G1 X119.506 Y103.534 E0.01175
G1 X119.571 Y104.190 E0.01175
G1 X119.726 Y104.827 E0.01168
G1 X119.842 Y105.150 E0.00611
G1 X120.125 Y105.735 E0.01158
G1 X120.492 Y106.283 E0.01175
G1 X120.931 Y106.775 E0.01175
G1 X121.428 Y107.194 E0.01158
G1 X121.711 Y107.387 E0.00611
G1 X122.290 Y107.696 E0.01168
G1 X122.909 Y107.922 E0.01175
G1 X123.554 Y108.060 E0.01175
G1 X123.987 Y108.090 E0.00773
G1 X123.987 Y111.123 E0.05404
G1 X125.437 Y111.123 E0.02583
G1 X125.437 Y110.442 E0.01215
G1 X125.987 Y110.992 E0.01386
G1 X125.987 Y111.673 E0.01215
G1 X123.497 Y111.673 E0.04436
M204 S1000
G1 X123.606 Y111.311 F10800.000
G1 F8640.000
G1 X123.441 Y108.382 E-0.76000
G1 E-0.04000 F2100.00000
G1 Z0.900 F10800.000
G1 X125.712 Y111.020
G1 Z0.300
G1 E0.80000 F2100.00000
G1 F900
G1 X125.712 Y111.338 E0.00161
G1 X125.701 Y111.388 E0.00026
G1 X125.651 Y111.398 E0.00026
G1 X123.722 Y111.388 E0.00974
G1 X123.712 Y108.286 E0.01566
G1 F8640.000
G1 X123.722 Y111.388 E-0.71628
G1 X123.911 Y111.389 E-0.04372
G1 E-0.04000 F2100.00000
G1 Z0.900 F10800.000
G1 X129.120 Y103.161
G1 Z0.300
G1 E0.80000 F2100.00000
G1 F900
G1 X131.272 Y103.277 E0.01092
;BEFORE_LAYER_CHANGE
G92 E0.0
;0.4


G1 F8640.000
G1 X129.120 Y103.161 E-0.49764
G1 E-0.30236 F2100.00000
G1 Z0.900 F10800.000
;AFTER_LAYER_CHANGE
;0.4
G1 X134.535 Y101.395
G1 Z0.400
G1 E0.80000 F2100.00000
G1 F900
G1 X134.848 Y102.437 E0.01802
G1 X134.767 Y104.346 E0.03166
G1 X134.595 Y104.955 E0.01049
G1 X134.301 Y105.520 E0.01056
G1 X128.639 Y113.876 E0.16724
G1 X128.216 Y114.304 E0.00998
G1 X127.718 Y114.643 E0.00998
G1 X127.165 Y114.881 E0.00998
G1 X126.576 Y115.008 E0.00998
G1 X122.698 Y114.987 E0.06425
G1 X121.757 Y114.671 E0.01645
G1 X120.962 Y114.077 E0.01645
G1 X120.489 Y113.445 E0.01308
G1 X116.913 Y106.943 E0.12296
G1 X116.455 Y105.775 E0.02078
G1 X116.144 Y104.252 E0.02576
G1 X116.147 Y102.510 E0.02886
G1 X116.510 Y100.846 E0.02822
G1 X117.217 Y99.287 E0.02836
G1 X118.220 Y97.928 E0.02800
G1 X119.502 Y96.792 E0.02837
G1 X120.973 Y95.960 E0.02800
G1 X122.599 Y95.447 E0.02826
G1 X124.272 Y95.285 E0.02784
G1 X125.428 Y95.377 E0.01921
G1 X126.553 Y95.630 E0.01910
G1 X127.622 Y96.037 E0.01896
G1 X128.664 Y96.616 E0.01975
G1 X133.883 Y100.520 E0.10799
G1 X134.500 Y101.347 E0.01709
G1 X134.189 Y101.545 F10800.000
G1 F900
G1 X134.472 Y102.473 E0.01608
G1 X134.399 Y104.261 E0.02966
G1 X134.248 Y104.806 E0.00936
G1 X133.991 Y105.304 E0.00929
G1 X128.363 Y113.619 E0.16636
G1 X127.988 Y114.003 E0.00889
G1 X127.551 Y114.305 E0.00882
G1 X127.059 Y114.519 E0.00889
G1 X126.539 Y114.633 E0.00882
G1 X122.787 Y114.620 E0.06217
G1 X121.942 Y114.342 E0.01474
G1 X121.226 Y113.807 E0.01481
G1 X120.813 Y113.252 E0.01145
G1 X117.251 Y106.776 E0.12247
G1 X116.818 Y105.672 E0.01965
G1 X116.519 Y104.217 E0.02460
G1 X116.522 Y102.549 E0.02765
G1 X116.869 Y100.963 E0.02691
G1 X117.541 Y99.480 E0.02697
G1 X118.500 Y98.180 E0.02677
G1 X119.719 Y97.100 E0.02699
G1 X121.125 Y96.304 E0.02677
G1 X122.673 Y95.817 E0.02688
