; generated by PrusaSlicer 2.1.1 on 2020-11-01 at 10:51:16 UTC

; 

; external perimeters extrusion width = 0.60mm
; perimeters extrusion width = 0.50mm
; infill extrusion width = 0.50mm
; solid infill extrusion width = 0.50mm
; top infill extrusion width = 0.45mm
; first layer extrusion width = 0.42mm

M73 P0 R87
M73 Q0 S88
M201 X1000 Y1000 Z200 E5000 ; sets maximum accelerations, mm/sec^2
M203 X200 Y200 Z12 E120 ; sets maximum feedrates, mm/sec
M204 P1250 R1250 T1250 ; sets acceleration (P, T) and retract acceleration (R), mm/sec^2
M205 X8.00 Y8.00 Z0.40 E4.50 ; sets the jerk limits, mm/sec
M205 S0 T0 ; sets the minimum extruding and travel feed rate, mm/sec
M107
M862.3 P "MK3S" ; printer model check
M862.1 P0.4 ; nozzle diameter check
M115 U3.9.1 ; tell printer latest fw version
G90 ; use absolute coordinates
M83 ; extruder relative mode
M104 S215 ; set extruder temp
M140 S60 ; set bed temp
M190 S60 ; wait for bed temp
M109 S215 ; wait for extruder temp
G28 W ; home all without mesh bed level
G80 ; mesh bed leveling
G1 Y-3.0 F1000.0 ; go outside print area
G92 E0.0
G1 X60.0 E9.0 F1000.0 ; intro line
M73 Q0 S88
M73 P0 R87
G1 X100.0 E12.5 F1000.0 ; intro line
G92 E0.0
M221 S95
G21 ; set units to millimeters
G90 ; use absolute coordinates
M83 ; use relative distances for extrusion
M900 K0.05 ; Filament gcode LA 1.5
M900 K30 ; Filament gcode LA 1.0
;BEFORE_LAYER_CHANGE
G92 E0.0
;0.2


G1 E-0.80000 F2100.00000
G1 Z0.600 F10800.000
;AFTER_LAYER_CHANGE
;0.2
G1 X21.066 Y82.919
G1 Z0.200
G1 E0.80000 F2100.00000
M204 S1000
G1 F1200
G1 X228.504 Y82.875 E6.50407
G1 X229.337 Y83.041 E0.02664
G1 X230.042 Y83.510 E0.02653
G1 X230.516 Y84.211 E0.02653
G1 X230.688 Y85.043 E0.02664
G1 X230.687 Y125.091 E1.25569
G1 X230.537 Y125.800 E0.02270
G1 X230.165 Y126.421 E0.02270
G1 X229.610 Y126.886 E0.02270
G1 X228.934 Y127.145 E0.02270
G1 X21.482 Y127.188 E6.50453
G1 X20.752 Y127.057 E0.02326
G1 X20.107 Y126.688 E0.02326
G1 X19.623 Y126.126 E0.02326
G1 X19.355 Y125.434 E0.02326
G1 X19.313 Y84.976 E1.26855
G1 X19.461 Y84.267 E0.02270
G1 X19.833 Y83.646 E0.02270
G1 X20.390 Y83.178 E0.02281
G1 X21.010 Y82.940 E0.02082
G1 F8640
G1 X24.301 Y82.939 E-0.76000
G1 E-0.04000 F2100.00000
G1 Z0.800 F10800.000
G1 X22.087 Y86.151
G1 Z0.200
G1 E0.80000 F2100.00000
G1 F1200
G1 X227.913 Y86.151 E6.45352
G1 X227.913 Y124.413 E1.19966
G1 X22.087 Y124.413 E6.45352
G1 X22.087 Y86.211 E1.19778
G1 X21.710 Y85.774 F10800.000
G1 F1200
G1 X228.290 Y85.774 E6.47717
M73 Q1 S87
M73 P1 R86
G1 X228.290 Y124.790 E1.22331
G1 X21.710 Y124.790 E6.47717
G1 X21.710 Y85.834 E1.22143
G1 X22.109 Y85.799 F10800.000
G1 F8640
G1 X25.001 Y85.833 E-0.76000
G1 E-0.04000 F2100.00000
G1 Z0.800 F10800.000
G1 X22.200 Y123.538
G1 Z0.200
G1 E0.80000 F2100.00000
G1 F1200
G1 X22.793 Y124.130 E0.02627
G1 X23.326 Y124.130 E0.01672
G1 X22.370 Y123.174 E0.04240
G1 X22.370 Y122.641 E0.01672
G1 X23.859 Y124.130 E0.06604
G1 X24.393 Y124.130 E0.01672
G1 X22.370 Y122.107 E0.08969
G1 X22.370 Y121.574 E0.01672
G1 X24.926 Y124.130 E0.11334
G1 X25.459 Y124.130 E0.01672
G1 X22.370 Y121.041 E0.13698
G1 X22.370 Y120.508 E0.01672
G1 X25.992 Y124.130 E0.16063
G1 X26.526 Y124.130 E0.01672
G1 X22.370 Y119.974 E0.18428
G1 X22.370 Y119.441 E0.01672
G1 X27.059 Y124.130 E0.20793
G1 X27.592 Y124.130 E0.01672
G1 X22.370 Y118.908 E0.23157
G1 X22.370 Y118.374 E0.01672
G1 X28.126 Y124.130 E0.25522
G1 X28.659 Y124.130 E0.01672
G1 X22.370 Y117.841 E0.27887
G1 X22.370 Y117.308 E0.01672
G1 X29.192 Y124.130 E0.30252
G1 X29.725 Y124.130 E0.01672
G1 X22.370 Y116.775 E0.32616
G1 X22.370 Y116.241 E0.01672
G1 X30.259 Y124.130 E0.34981
G1 X30.792 Y124.130 E0.01672
G1 X22.370 Y115.708 E0.37346
G1 X22.370 Y115.175 E0.01672
G1 X31.325 Y124.130 E0.39710
G1 X31.858 Y124.130 E0.01672
G1 X22.370 Y114.642 E0.42075
G1 X22.370 Y114.108 E0.01672
G1 X32.392 Y124.130 E0.44440
G1 X32.925 Y124.130 E0.01672
G1 X22.370 Y113.575 E0.46805
G1 X22.370 Y113.042 E0.01672
G1 X33.458 Y124.130 E0.49169
G1 X33.992 Y124.130 E0.01672
G1 X22.370 Y112.508 E0.51534
G1 X22.370 Y111.975 E0.01672
G1 X34.525 Y124.130 E0.53899
G1 X35.058 Y124.130 E0.01672
G1 X22.370 Y111.442 E0.56263
G1 X22.370 Y110.909 E0.01672
G1 X35.591 Y124.130 E0.58628
G1 X36.125 Y124.130 E0.01672
G1 X22.370 Y110.375 E0.60993
G1 X22.370 Y109.842 E0.01672
G1 X36.658 Y124.130 E0.63358
G1 X37.191 Y124.130 E0.01672
G1 X22.370 Y109.309 E0.65722
G1 X22.370 Y108.775 E0.01672
G1 X37.725 Y124.130 E0.68087
G1 X38.258 Y124.130 E0.01672
G1 X22.370 Y108.242 E0.70452
G1 X22.370 Y107.709 E0.01672
G1 X38.791 Y124.130 E0.72816
G1 X39.324 Y124.130 E0.01672
G1 X22.370 Y107.176 E0.75181
G1 X22.370 Y106.642 E0.01672
G1 X39.858 Y124.130 E0.77546
G1 X40.391 Y124.130 E0.01672
G1 X22.370 Y106.109 E0.79911
G1 X22.370 Y105.576 E0.01672
G1 X40.924 Y124.130 E0.82275
G1 X41.458 Y124.130 E0.01672
G1 X22.370 Y105.042 E0.84640
G1 X22.370 Y104.509 E0.01672
G1 X41.991 Y124.130 E0.87005
G1 X42.524 Y124.130 E0.01672
G1 X22.370 Y103.976 E0.89369
G1 X22.370 Y103.443 E0.01672
G1 X43.057 Y124.130 E0.91734
G1 X43.591 Y124.130 E0.01672
G1 X22.370 Y102.909 E0.94099
G1 X22.370 Y102.376 E0.01672
G1 X44.124 Y124.130 E0.96464
G1 X44.657 Y124.130 E0.01672
G1 X22.370 Y101.843 E0.98828
G1 X22.370 Y101.309 E0.01672
G1 X45.191 Y124.130 E1.01193
G1 X45.724 Y124.130 E0.01672
G1 X22.370 Y100.776 E1.03558
G1 X22.370 Y100.243 E0.01672
G1 X46.257 Y124.130 E1.05922
G1 X46.790 Y124.130 E0.01672
G1 X22.370 Y99.710 E1.08287
G1 X22.370 Y99.176 E0.01672
G1 X47.324 Y124.130 E1.10652
G1 X47.857 Y124.130 E0.01672
G1 X22.370 Y98.643 E1.13017
M73 Q2 S86
M73 P2 R85
G1 X22.370 Y98.110 E0.01672
G1 X48.390 Y124.130 E1.15381
G1 X48.924 Y124.130 E0.01672
G1 X22.370 Y97.576 E1.17746
G1 X22.370 Y97.043 E0.01672
G1 X49.457 Y124.130 E1.20111
G1 X49.990 Y124.130 E0.01672
G1 X22.370 Y96.510 E1.22476
G1 X22.370 Y95.977 E0.01672
G1 X50.523 Y124.130 E1.24840
G1 X51.057 Y124.130 E0.01672
G1 X22.370 Y95.443 E1.27205
G1 X22.370 Y94.910 E0.01672
G1 X51.590 Y124.130 E1.29570
G1 X52.123 Y124.130 E0.01672
G1 X22.370 Y94.377 E1.31934
G1 X22.370 Y93.843 E0.01672
G1 X52.657 Y124.130 E1.34299
G1 X53.190 Y124.130 E0.01672
G1 X22.370 Y93.310 E1.36664
G1 X22.370 Y92.777 E0.01672
G1 X53.723 Y124.130 E1.39029
G1 X54.256 Y124.130 E0.01672
G1 X22.370 Y92.244 E1.41393
G1 X22.370 Y91.710 E0.01672
G1 X54.790 Y124.130 E1.43758
G1 X55.323 Y124.130 E0.01672
G1 X22.370 Y91.177 E1.46123
G1 X22.370 Y90.644 E0.01672
G1 X55.856 Y124.130 E1.48487
G1 X56.390 Y124.130 E0.01672
G1 X22.370 Y90.110 E1.50852
G1 X22.370 Y89.577 E0.01672
G1 X56.923 Y124.130 E1.53217
G1 X57.456 Y124.130 E0.01672
G1 X22.370 Y89.044 E1.55582
G1 X22.370 Y88.511 E0.01672
G1 X57.989 Y124.130 E1.57946
G1 X58.523 Y124.130 E0.01672
G1 X22.370 Y87.977 E1.60311
G1 X22.370 Y87.444 E0.01672
G1 X59.056 Y124.130 E1.62676
G1 X59.589 Y124.130 E0.01672
G1 X22.370 Y86.911 E1.65040
G1 X22.370 Y86.434 E0.01494
G1 X22.427 Y86.434 E0.00178
G1 X60.122 Y124.130 E1.67154
G1 X60.656 Y124.130 E0.01672
G1 X22.960 Y86.434 E1.67154
G1 X23.493 Y86.434 E0.01672
G1 X61.189 Y124.130 E1.67154
G1 X61.722 Y124.130 E0.01672
G1 X24.026 Y86.434 E1.67154
M73 Q3 S85
M73 P3 R84
G1 X24.560 Y86.434 E0.01672
G1 X62.256 Y124.130 E1.67154
G1 X62.789 Y124.130 E0.01672
G1 X25.093 Y86.434 E1.67154
G1 X25.626 Y86.434 E0.01672
G1 X63.322 Y124.130 E1.67154
G1 X63.855 Y124.130 E0.01672
G1 X26.160 Y86.434 E1.67154
G1 X26.693 Y86.434 E0.01672
G1 X64.389 Y124.130 E1.67154
G1 X64.922 Y124.130 E0.01672
G1 X27.226 Y86.434 E1.67154
G1 X27.759 Y86.434 E0.01672
G1 X65.455 Y124.130 E1.67154
G1 X65.989 Y124.130 E0.01672
G1 X28.293 Y86.434 E1.67154
G1 X28.826 Y86.434 E0.01672
G1 X66.522 Y124.130 E1.67154
G1 X67.055 Y124.130 E0.01672
G1 X29.359 Y86.434 E1.67154
G1 X29.893 Y86.434 E0.01672
G1 X67.588 Y124.130 E1.67154
G1 X68.122 Y124.130 E0.01672
G1 X30.426 Y86.434 E1.67154
G1 X30.959 Y86.434 E0.01672
G1 X68.655 Y124.130 E1.67154
G1 X69.188 Y124.130 E0.01672
G1 X31.492 Y86.434 E1.67154
G1 X32.026 Y86.434 E0.01672
G1 X69.722 Y124.130 E1.67154
G1 X70.255 Y124.130 E0.01672
G1 X32.559 Y86.434 E1.67154
G1 X33.092 Y86.434 E0.01672
G1 X70.788 Y124.130 E1.67154
G1 X71.321 Y124.130 E0.01672
G1 X33.626 Y86.434 E1.67154
G1 X34.159 Y86.434 E0.01672
G1 X71.855 Y124.130 E1.67154
G1 X72.388 Y124.130 E0.01672
G1 X34.692 Y86.434 E1.67154
G1 X35.225 Y86.434 E0.01672
G1 X72.921 Y124.130 E1.67154
G1 X73.455 Y124.130 E0.01672
G1 X35.759 Y86.434 E1.67154
G1 X36.292 Y86.434 E0.01672
G1 X73.988 Y124.130 E1.67154
M73 Q4 S84
M73 P4 R83
G1 X74.521 Y124.130 E0.01672
G1 X36.825 Y86.434 E1.67154
G1 X37.358 Y86.434 E0.01672
G1 X75.054 Y124.130 E1.67154
G1 X75.588 Y124.130 E0.01672
G1 X37.892 Y86.434 E1.67154
G1 X38.425 Y86.434 E0.01672
G1 X76.121 Y124.130 E1.67154
G1 X76.654 Y124.130 E0.01672
G1 X38.958 Y86.434 E1.67154
G1 X39.492 Y86.434 E0.01672
G1 X77.188 Y124.130 E1.67154
G1 X77.721 Y124.130 E0.01672
G1 X40.025 Y86.434 E1.67154
G1 X40.558 Y86.434 E0.01672
G1 X78.254 Y124.130 E1.67154
G1 X78.787 Y124.130 E0.01672
G1 X41.091 Y86.434 E1.67154
G1 X41.625 Y86.434 E0.01672
G1 X79.321 Y124.130 E1.67154
G1 X79.854 Y124.130 E0.01672
G1 X42.158 Y86.434 E1.67154
G1 X42.691 Y86.434 E0.01672
G1 X80.387 Y124.130 E1.67154
G1 X80.921 Y124.130 E0.01672
G1 X43.225 Y86.434 E1.67154
G1 X43.758 Y86.434 E0.01672
G1 X81.454 Y124.130 E1.67154
G1 X81.987 Y124.130 E0.01672
G1 X44.291 Y86.434 E1.67154
G1 X44.824 Y86.434 E0.01672
G1 X82.520 Y124.130 E1.67154
G1 X83.054 Y124.130 E0.01672
G1 X45.358 Y86.434 E1.67154
G1 X45.891 Y86.434 E0.01672
G1 X83.587 Y124.130 E1.67154
G1 X84.120 Y124.130 E0.01672
G1 X46.424 Y86.434 E1.67154
G1 X46.958 Y86.434 E0.01672
G1 X84.654 Y124.130 E1.67154
G1 X85.187 Y124.130 E0.01672
G1 X47.491 Y86.434 E1.67154
G1 X48.024 Y86.434 E0.01672
G1 X85.720 Y124.130 E1.67154
G1 X86.253 Y124.130 E0.01672
G1 X48.557 Y86.434 E1.67154
M73 Q5 S83
M73 P5 R82
G1 X49.091 Y86.434 E0.01672
G1 X86.787 Y124.130 E1.67154
G1 X87.320 Y124.130 E0.01672
G1 X49.624 Y86.434 E1.67154
G1 X50.157 Y86.434 E0.01672
G1 X87.853 Y124.130 E1.67154
G1 X88.386 Y124.130 E0.01672
G1 X50.691 Y86.434 E1.67154
G1 X51.224 Y86.434 E0.01672
G1 X88.920 Y124.130 E1.67154
G1 X89.453 Y124.130 E0.01672
G1 X51.757 Y86.434 E1.67154
G1 X52.290 Y86.434 E0.01672
G1 X89.986 Y124.130 E1.67154
G1 X90.520 Y124.130 E0.01672
G1 X52.824 Y86.434 E1.67154
G1 X53.357 Y86.434 E0.01672
G1 X91.053 Y124.130 E1.67154
G1 X91.586 Y124.130 E0.01672
G1 X53.890 Y86.434 E1.67154
G1 X54.424 Y86.434 E0.01672
G1 X92.119 Y124.130 E1.67154
G1 X92.653 Y124.130 E0.01672
G1 X54.957 Y86.434 E1.67154
G1 X55.490 Y86.434 E0.01672
G1 X93.186 Y124.130 E1.67154
G1 X93.719 Y124.130 E0.01672
G1 X56.023 Y86.434 E1.67154
G1 X56.557 Y86.434 E0.01672
G1 X94.253 Y124.130 E1.67154
G1 X94.786 Y124.130 E0.01672
G1 X57.090 Y86.434 E1.67154
G1 X57.623 Y86.434 E0.01672
G1 X95.319 Y124.130 E1.67154
G1 X95.852 Y124.130 E0.01672
G1 X58.157 Y86.434 E1.67154
G1 X58.690 Y86.434 E0.01672
G1 X96.386 Y124.130 E1.67154
G1 X96.919 Y124.130 E0.01672
G1 X59.223 Y86.434 E1.67154
G1 X59.756 Y86.434 E0.01672
G1 X97.452 Y124.130 E1.67154
G1 X97.986 Y124.130 E0.01672
G1 X60.290 Y86.434 E1.67154
G1 X60.823 Y86.434 E0.01672
G1 X98.519 Y124.130 E1.67154
M73 Q7 S82
M73 P7 R81
G1 X99.052 Y124.130 E0.01672
G1 X61.356 Y86.434 E1.67154
G1 X61.889 Y86.434 E0.01672
G1 X99.585 Y124.130 E1.67154
G1 X100.119 Y124.130 E0.01672
G1 X62.423 Y86.434 E1.67154
G1 X62.956 Y86.434 E0.01672
G1 X100.652 Y124.130 E1.67154
G1 X101.185 Y124.130 E0.01672
G1 X63.489 Y86.434 E1.67154
G1 X64.023 Y86.434 E0.01672
G1 X101.719 Y124.130 E1.67154
G1 X102.252 Y124.130 E0.01672
G1 X64.556 Y86.434 E1.67154
G1 X65.089 Y86.434 E0.01672
G1 X102.785 Y124.130 E1.67154
G1 X103.318 Y124.130 E0.01672
G1 X65.622 Y86.434 E1.67154
G1 X66.156 Y86.434 E0.01672
G1 X103.852 Y124.130 E1.67154
G1 X104.385 Y124.130 E0.01672
G1 X66.689 Y86.434 E1.67154
G1 X67.222 Y86.434 E0.01672
G1 X104.918 Y124.130 E1.67154
G1 X105.452 Y124.130 E0.01672
G1 X67.756 Y86.434 E1.67154
G1 X68.289 Y86.434 E0.01672
G1 X105.985 Y124.130 E1.67154
G1 X106.518 Y124.130 E0.01672
G1 X68.822 Y86.434 E1.67154
G1 X69.355 Y86.434 E0.01672
G1 X107.051 Y124.130 E1.67154
G1 X107.585 Y124.130 E0.01672
G1 X69.889 Y86.434 E1.67154
G1 X70.422 Y86.434 E0.01672
G1 X108.118 Y124.130 E1.67154
G1 X108.651 Y124.130 E0.01672
G1 X70.955 Y86.434 E1.67154
G1 X71.489 Y86.434 E0.01672
G1 X109.185 Y124.130 E1.67154
G1 X109.718 Y124.130 E0.01672
G1 X72.022 Y86.434 E1.67154
G1 X72.555 Y86.434 E0.01672
G1 X110.251 Y124.130 E1.67154
G1 X110.784 Y124.130 E0.01672
G1 X73.088 Y86.434 E1.67154
M73 Q8 S81
M73 P8 R80
G1 X73.622 Y86.434 E0.01672
G1 X111.318 Y124.130 E1.67154
G1 X111.851 Y124.130 E0.01672
G1 X74.155 Y86.434 E1.67154
G1 X74.688 Y86.434 E0.01672
G1 X112.384 Y124.130 E1.67154
G1 X112.918 Y124.130 E0.01672
G1 X75.222 Y86.434 E1.67154
G1 X75.755 Y86.434 E0.01672
G1 X113.451 Y124.130 E1.67154
G1 X113.984 Y124.130 E0.01672
G1 X76.288 Y86.434 E1.67154
G1 X76.821 Y86.434 E0.01672
G1 X114.517 Y124.130 E1.67154
G1 X115.051 Y124.130 E0.01672
G1 X77.355 Y86.434 E1.67154
G1 X77.888 Y86.434 E0.01672
G1 X115.584 Y124.130 E1.67154
G1 X116.117 Y124.130 E0.01672
G1 X78.421 Y86.434 E1.67154
G1 X78.955 Y86.434 E0.01672
G1 X116.650 Y124.130 E1.67154
G1 X117.184 Y124.130 E0.01672
G1 X79.488 Y86.434 E1.67154
G1 X80.021 Y86.434 E0.01672
G1 X117.717 Y124.130 E1.67154
G1 X118.250 Y124.130 E0.01672
G1 X80.554 Y86.434 E1.67154
G1 X81.088 Y86.434 E0.01672
G1 X118.784 Y124.130 E1.67154
G1 X119.317 Y124.130 E0.01672
G1 X81.621 Y86.434 E1.67154
G1 X82.154 Y86.434 E0.01672
G1 X119.850 Y124.130 E1.67154
G1 X120.383 Y124.130 E0.01672
G1 X82.688 Y86.434 E1.67154
G1 X83.221 Y86.434 E0.01672
G1 X120.917 Y124.130 E1.67154
G1 X121.450 Y124.130 E0.01672
G1 X83.754 Y86.434 E1.67154
G1 X84.287 Y86.434 E0.01672
G1 X121.983 Y124.130 E1.67154
G1 X122.517 Y124.130 E0.01672
G1 X84.821 Y86.434 E1.67154
G1 X85.354 Y86.434 E0.01672
G1 X123.050 Y124.130 E1.67154
M73 Q9 S80
M73 P9 R79
G1 X123.583 Y124.130 E0.01672
G1 X85.887 Y86.434 E1.67154
G1 X86.421 Y86.434 E0.01672
G1 X124.116 Y124.130 E1.67154
G1 X124.650 Y124.130 E0.01672
G1 X86.954 Y86.434 E1.67154
G1 X87.487 Y86.434 E0.01672
G1 X125.183 Y124.130 E1.67154
G1 X125.716 Y124.130 E0.01672
G1 X88.020 Y86.434 E1.67154
G1 X88.554 Y86.434 E0.01672
G1 X126.250 Y124.130 E1.67154
G1 X126.783 Y124.130 E0.01672
G1 X89.087 Y86.434 E1.67154
G1 X89.620 Y86.434 E0.01672
G1 X127.316 Y124.130 E1.67154
G1 X127.849 Y124.130 E0.01672
G1 X90.153 Y86.434 E1.67154
G1 X90.687 Y86.434 E0.01672
G1 X128.383 Y124.130 E1.67154
G1 X128.916 Y124.130 E0.01672
G1 X91.220 Y86.434 E1.67154
G1 X91.753 Y86.434 E0.01672
G1 X129.449 Y124.130 E1.67154
G1 X129.983 Y124.130 E0.01672
G1 X92.287 Y86.434 E1.67154
G1 X92.820 Y86.434 E0.01672
G1 X130.516 Y124.130 E1.67154
G1 X131.049 Y124.130 E0.01672
G1 X93.353 Y86.434 E1.67154
G1 X93.886 Y86.434 E0.01672
G1 X131.582 Y124.130 E1.67154
G1 X132.116 Y124.130 E0.01672
G1 X94.420 Y86.434 E1.67154
G1 X94.953 Y86.434 E0.01672
G1 X132.649 Y124.130 E1.67154
G1 X133.182 Y124.130 E0.01672
G1 X95.486 Y86.434 E1.67154
G1 X96.020 Y86.434 E0.01672
G1 X133.716 Y124.130 E1.67154
G1 X134.249 Y124.130 E0.01672
G1 X96.553 Y86.434 E1.67154
G1 X97.086 Y86.434 E0.01672
G1 X134.782 Y124.130 E1.67154
G1 X135.315 Y124.130 E0.01672
G1 X97.619 Y86.434 E1.67154
M73 Q10 S79
M73 P10 R78
G1 X98.153 Y86.434 E0.01672
G1 X135.849 Y124.130 E1.67154
G1 X136.382 Y124.130 E0.01672
G1 X98.686 Y86.434 E1.67154
G1 X99.219 Y86.434 E0.01672
G1 X136.915 Y124.130 E1.67154
G1 X137.449 Y124.130 E0.01672
G1 X99.753 Y86.434 E1.67154
G1 X100.286 Y86.434 E0.01672
G1 X137.982 Y124.130 E1.67154
G1 X138.515 Y124.130 E0.01672
G1 X100.819 Y86.434 E1.67154
G1 X101.352 Y86.434 E0.01672
G1 X139.048 Y124.130 E1.67154
G1 X139.582 Y124.130 E0.01672
G1 X101.886 Y86.434 E1.67154
G1 X102.419 Y86.434 E0.01672
G1 X140.115 Y124.130 E1.67154
G1 X140.648 Y124.130 E0.01672
G1 X102.952 Y86.434 E1.67154
G1 X103.486 Y86.434 E0.01672
G1 X141.181 Y124.130 E1.67154
G1 X141.715 Y124.130 E0.01672
G1 X104.019 Y86.434 E1.67154
G1 X104.552 Y86.434 E0.01672
G1 X142.248 Y124.130 E1.67154
G1 X142.781 Y124.130 E0.01672
G1 X105.085 Y86.434 E1.67154
G1 X105.619 Y86.434 E0.01672
