; generated by PrusaSlicer 2.1.1 on 2020-11-01 at 11:15:11 UTC

; 

; external perimeters extrusion width = 0.60mm
; perimeters extrusion width = 0.50mm
; infill extrusion width = 0.50mm
; solid infill extrusion width = 0.50mm
; top infill extrusion width = 0.45mm
; first layer extrusion width = 0.42mm

M73 P0 R29
M73 Q0 S29
M201 X1000 Y1000 Z200 E5000 ; sets maximum accelerations, mm/sec^2
M203 X200 Y200 Z12 E120 ; sets maximum feedrates, mm/sec
M204 P1250 R1250 T1250 ; sets acceleration (P, T) and retract acceleration (R), mm/sec^2
M205 X8.00 Y8.00 Z0.40 E4.50 ; sets the jerk limits, mm/sec
M205 S0 T0 ; sets the minimum extruding and travel feed rate, mm/sec
M107
M862.3 P "MK3S" ; printer model check
M862.1 P0.4 ; nozzle diameter check
M115 U3.9.1 ; tell printer latest fw version
G90 ; use absolute coordinates
M83 ; extruder relative mode
M104 S215 ; set extruder temp
M140 S60 ; set bed temp
M190 S60 ; wait for bed temp
M109 S215 ; wait for extruder temp
G28 W ; home all without mesh bed level
G80 ; mesh bed leveling
G1 Y-3.0 F1000.0 ; go outside print area
G92 E0.0
G1 X60.0 E9.0 F1000.0 ; intro line
M73 Q0 S29
M73 P0 R29
G1 X100.0 E12.5 F1000.0 ; intro line
G92 E0.0
M221 S95
G21 ; set units to millimeters
G90 ; use absolute coordinates
M83 ; use relative distances for extrusion
M900 K0.05 ; Filament gcode LA 1.5
M900 K30 ; Filament gcode LA 1.0
;BEFORE_LAYER_CHANGE
G92 E0.0
;0.2


G1 E-0.80000 F2100.00000
G1 Z0.600 F10800.000
;AFTER_LAYER_CHANGE
;0.2
G1 X108.070 Y76.968
G1 Z0.200
G1 E0.80000 F2100.00000
M204 S1000
G1 F1200
G1 X108.401 Y76.506 E0.01783
G1 X108.840 Y76.144 E0.01783
G1 X109.360 Y75.907 E0.01794
G1 X109.921 Y75.813 E0.01783
G1 X140.004 Y75.811 E0.94322
G1 X140.823 Y75.972 E0.02620
G1 X141.523 Y76.429 E0.02620
G1 X142.001 Y77.114 E0.02620
G1 X142.187 Y77.928 E0.02620
G1 X142.189 Y132.011 E1.69572
G1 X142.121 Y132.539 E0.01669
G1 X141.930 Y133.032 E0.01658
G1 X141.597 Y133.497 E0.01794
G1 X141.151 Y133.861 E0.01805
G1 X140.626 Y134.097 E0.01805
G1 X140.061 Y134.188 E0.01794
G1 X109.982 Y134.188 E0.94310
G1 X109.461 Y134.121 E0.01646
G1 X108.968 Y133.930 E0.01658
G1 X108.498 Y133.592 E0.01817
G1 X108.131 Y133.138 E0.01828
G1 X107.898 Y132.608 E0.01817
G1 X107.812 Y132.035 E0.01817
G1 X107.811 Y77.989 E1.69458
G1 X107.879 Y77.461 E0.01669
G1 X108.048 Y77.024 E0.01469
G1 F8640
G1 X108.401 Y76.506 E-0.14474
G1 X108.840 Y76.144 E-0.13128
G1 X109.360 Y75.907 E-0.13211
G1 X109.921 Y75.813 E-0.13128
G1 X110.876 Y75.813 E-0.22059
G1 E-0.04000 F2100.00000
G1 Z0.800 F10800.000
G1 X127.016 Y79.413
G1 Z0.200
G1 E0.80000 F2100.00000
G1 F1200
G1 X134.038 Y79.413 E0.22016
G1 X134.038 Y130.587 E1.60453
G1 X127.016 Y130.587 E0.22016
G1 X127.016 Y79.473 E1.60265
G1 X127.393 Y79.790 F10800.000
G1 F1200
G1 X133.661 Y79.790 E0.19652
G1 X133.661 Y130.210 E1.58088
G1 X127.393 Y130.210 E0.19652
G1 X127.393 Y79.850 E1.57900
G1 X127.377 Y79.390 F10800.000
G1 F8640
G1 X130.685 Y79.818 E-0.76000
G1 E-0.04000 F2100.00000
G1 Z0.800 F10800.000
G1 X139.413 Y78.587
G1 Z0.200
G1 E0.80000 F2100.00000
G1 F1200
G1 X139.413 Y131.413 E1.65632
G1 X110.587 Y131.413 E0.90381
G1 X110.587 Y78.587 E1.65632
G1 X139.353 Y78.587 E0.90193
G1 X139.790 Y78.210 F10800.000
G1 F1200
G1 X139.790 Y131.790 E1.67996
G1 X110.210 Y131.790 E0.92746
G1 X110.210 Y78.210 E1.67996
G1 X139.730 Y78.210 E0.92558
G1 X139.723 Y78.604 F10800.000
G1 F8640
G1 X139.734 Y81.501 E-0.76000
G1 E-0.04000 F2100.00000
G1 Z0.800 F10800.000
G1 X139.300 Y79.465
G1 Z0.200
G1 E0.80000 F2100.00000
G1 F1200
G1 X138.705 Y78.870 E0.02644
G1 X138.170 Y78.870 E0.01681
G1 X139.130 Y79.830 E0.04267
G1 X139.130 Y80.364 E0.01681
G1 X137.636 Y78.870 E0.06644
G1 X137.101 Y78.870 E0.01681
G1 X139.130 Y80.899 E0.09022
G1 X139.130 Y81.434 E0.01681
G1 X136.566 Y78.870 E0.11399
G1 X136.032 Y78.870 E0.01681
G1 X139.130 Y81.968 E0.13776
G1 X139.130 Y82.503 E0.01681
G1 X135.497 Y78.870 E0.16154
G1 X134.962 Y78.870 E0.01681
G1 X139.130 Y83.038 E0.18531
G1 X139.130 Y83.573 E0.01681
G1 X134.427 Y78.870 E0.20908
G1 X133.893 Y78.870 E0.01681
G1 X139.130 Y84.107 E0.23286
G1 X139.130 Y84.642 E0.01681
G1 X134.321 Y79.833 E0.21382
G1 X134.321 Y80.367 E0.01681
G1 X139.130 Y85.177 E0.21382
G1 X139.130 Y85.711 E0.01681
G1 X134.321 Y80.902 E0.21382
G1 X134.321 Y81.437 E0.01681
G1 X139.130 Y86.246 E0.21382
G1 X139.130 Y86.781 E0.01681
G1 X134.321 Y81.972 E0.21382
G1 X134.321 Y82.506 E0.01681
G1 X139.130 Y87.315 E0.21382
G1 X139.130 Y87.850 E0.01681
G1 X134.321 Y83.041 E0.21382
G1 X134.321 Y83.576 E0.01681
G1 X139.130 Y88.385 E0.21382
G1 X139.130 Y88.920 E0.01681
G1 X134.321 Y84.110 E0.21382
G1 X134.321 Y84.645 E0.01681
G1 X139.130 Y89.454 E0.21382
G1 X139.130 Y89.989 E0.01681
G1 X134.321 Y85.180 E0.21382
G1 X134.321 Y85.714 E0.01681
G1 X139.130 Y90.524 E0.21382
G1 X139.130 Y91.058 E0.01681
G1 X134.321 Y86.249 E0.21382
G1 X134.321 Y86.784 E0.01681
G1 X139.130 Y91.593 E0.21382
G1 X139.130 Y92.128 E0.01681
G1 X134.321 Y87.319 E0.21382
G1 X134.321 Y87.853 E0.01681
G1 X139.130 Y92.662 E0.21382
G1 X139.130 Y93.197 E0.01681
G1 X134.321 Y88.388 E0.21382
G1 X134.321 Y88.923 E0.01681
G1 X139.130 Y93.732 E0.21382
G1 X139.130 Y94.267 E0.01681
G1 X134.321 Y89.457 E0.21382
G1 X134.321 Y89.992 E0.01681
G1 X139.130 Y94.801 E0.21382
G1 X139.130 Y95.336 E0.01681
G1 X134.321 Y90.527 E0.21382
G1 X134.321 Y91.061 E0.01681
G1 X139.130 Y95.871 E0.21382
G1 X139.130 Y96.405 E0.01681
G1 X134.321 Y91.596 E0.21382
G1 X134.321 Y92.131 E0.01681
G1 X139.130 Y96.940 E0.21382
G1 X139.130 Y97.475 E0.01681
G1 X134.321 Y92.666 E0.21382
G1 X134.321 Y93.200 E0.01681
G1 X139.130 Y98.009 E0.21382
G1 X139.130 Y98.544 E0.01681
G1 X134.321 Y93.735 E0.21382
G1 X134.321 Y94.270 E0.01681
G1 X139.130 Y99.079 E0.21382
G1 X139.130 Y99.614 E0.01681
G1 X134.321 Y94.804 E0.21382
G1 X134.321 Y95.339 E0.01681
G1 X139.130 Y100.148 E0.21382
G1 X139.130 Y100.683 E0.01681
G1 X134.321 Y95.874 E0.21382
G1 X134.321 Y96.408 E0.01681
G1 X139.130 Y101.218 E0.21382
G1 X139.130 Y101.752 E0.01681
G1 X134.321 Y96.943 E0.21382
G1 X134.321 Y97.478 E0.01681
G1 X139.130 Y102.287 E0.21382
G1 X139.130 Y102.822 E0.01681
G1 X134.321 Y98.013 E0.21382
G1 X134.321 Y98.547 E0.01681
G1 X139.130 Y103.356 E0.21382
G1 X139.130 Y103.891 E0.01681
G1 X134.321 Y99.082 E0.21382
G1 X134.321 Y99.617 E0.01681
G1 X139.130 Y104.426 E0.21382
G1 X139.130 Y104.961 E0.01681
G1 X134.321 Y100.151 E0.21382
G1 X134.321 Y100.686 E0.01681
G1 X139.130 Y105.495 E0.21382
G1 X139.130 Y106.030 E0.01681
G1 X134.321 Y101.221 E0.21382
M73 Q3 S28
G1 X134.321 Y101.755 E0.01681
G1 X139.130 Y106.565 E0.21382
M73 P3 R28
G1 X139.130 Y107.099 E0.01681
G1 X134.321 Y102.290 E0.21382
G1 X134.321 Y102.825 E0.01681
G1 X139.130 Y107.634 E0.21382
G1 X139.130 Y108.169 E0.01681
G1 X134.321 Y103.360 E0.21382
G1 X134.321 Y103.894 E0.01681
G1 X139.130 Y108.703 E0.21382
G1 X139.130 Y109.238 E0.01681
G1 X134.321 Y104.429 E0.21382
G1 X134.321 Y104.964 E0.01681
G1 X139.130 Y109.773 E0.21382
G1 X139.130 Y110.308 E0.01681
G1 X134.321 Y105.498 E0.21382
G1 X134.321 Y106.033 E0.01681
G1 X139.130 Y110.842 E0.21382
G1 X139.130 Y111.377 E0.01681
G1 X134.321 Y106.568 E0.21382
G1 X134.321 Y107.102 E0.01681
G1 X139.130 Y111.912 E0.21382
G1 X139.130 Y112.446 E0.01681
G1 X134.321 Y107.637 E0.21382
G1 X134.321 Y108.172 E0.01681
G1 X139.130 Y112.981 E0.21382
G1 X139.130 Y113.516 E0.01681
G1 X134.321 Y108.707 E0.21382
G1 X134.321 Y109.241 E0.01681
G1 X139.130 Y114.051 E0.21382
G1 X139.130 Y114.585 E0.01681
G1 X134.321 Y109.776 E0.21382
G1 X134.321 Y110.311 E0.01681
G1 X139.130 Y115.120 E0.21382
G1 X139.130 Y115.655 E0.01681
G1 X134.321 Y110.845 E0.21382
G1 X134.321 Y111.380 E0.01681
G1 X139.130 Y116.189 E0.21382
G1 X139.130 Y116.724 E0.01681
G1 X134.321 Y111.915 E0.21382
G1 X134.321 Y112.450 E0.01681
G1 X139.130 Y117.259 E0.21382
G1 X139.130 Y117.793 E0.01681
G1 X134.321 Y112.984 E0.21382
G1 X134.321 Y113.519 E0.01681
G1 X139.130 Y118.328 E0.21382
G1 X139.130 Y118.863 E0.01681
G1 X134.321 Y114.054 E0.21382
G1 X134.321 Y114.588 E0.01681
G1 X139.130 Y119.398 E0.21382
G1 X139.130 Y119.932 E0.01681
G1 X134.321 Y115.123 E0.21382
G1 X134.321 Y115.658 E0.01681
G1 X139.130 Y120.467 E0.21382
G1 X139.130 Y121.002 E0.01681
G1 X134.321 Y116.192 E0.21382
G1 X134.321 Y116.727 E0.01681
G1 X139.130 Y121.536 E0.21382
G1 X139.130 Y122.071 E0.01681
G1 X134.321 Y117.262 E0.21382
G1 X134.321 Y117.797 E0.01681
G1 X139.130 Y122.606 E0.21382
G1 X139.130 Y123.140 E0.01681
G1 X134.321 Y118.331 E0.21382
G1 X134.321 Y118.866 E0.01681
G1 X139.130 Y123.675 E0.21382
G1 X139.130 Y124.210 E0.01681
G1 X134.321 Y119.401 E0.21382
G1 X134.321 Y119.935 E0.01681
G1 X139.130 Y124.745 E0.21382
G1 X139.130 Y125.279 E0.01681
G1 X134.321 Y120.470 E0.21382
G1 X134.321 Y121.005 E0.01681
G1 X139.130 Y125.814 E0.21382
G1 X139.130 Y126.349 E0.01681
G1 X134.321 Y121.539 E0.21382
G1 X134.321 Y122.074 E0.01681
G1 X139.130 Y126.883 E0.21382
G1 X139.130 Y127.418 E0.01681
G1 X134.321 Y122.609 E0.21382
G1 X134.321 Y123.144 E0.01681
G1 X139.130 Y127.953 E0.21382
G1 X139.130 Y128.487 E0.01681
G1 X134.321 Y123.678 E0.21382
G1 X134.321 Y124.213 E0.01681
G1 X139.130 Y129.022 E0.21382
G1 X139.130 Y129.557 E0.01681
G1 X134.321 Y124.748 E0.21382
G1 X134.321 Y125.282 E0.01681
G1 X139.130 Y130.092 E0.21382
G1 X139.130 Y130.626 E0.01681
G1 X134.321 Y125.817 E0.21382
G1 X134.321 Y126.352 E0.01681
G1 X139.099 Y131.130 E0.21245
G1 X138.565 Y131.130 E0.01681
G1 X134.321 Y126.886 E0.18868
G1 X134.321 Y127.421 E0.01681
G1 X138.030 Y131.130 E0.16490
G1 X137.495 Y131.130 E0.01681
G1 X134.321 Y127.956 E0.14113
G1 X134.321 Y128.491 E0.01681
G1 X136.961 Y131.130 E0.11736
G1 X136.426 Y131.130 E0.01681
G1 X134.321 Y129.025 E0.09358
G1 X134.321 Y129.560 E0.01681
G1 X135.891 Y131.130 E0.06981
G1 X135.356 Y131.130 E0.01681
G1 X134.321 Y130.095 E0.04604
G1 X134.321 Y130.629 E0.01681
G1 X134.822 Y131.130 E0.02226
G1 X134.287 Y131.130 E0.01681
G1 X134.027 Y130.870 E0.01157
G1 X133.492 Y130.870 E0.01681
G1 X133.752 Y131.130 E0.01157
G1 X133.218 Y131.130 E0.01681
G1 X132.957 Y130.870 E0.01157
G1 X132.423 Y130.870 E0.01681
G1 X132.683 Y131.130 E0.01157
G1 X132.148 Y131.130 E0.01681
G1 X131.888 Y130.870 E0.01157
G1 X131.353 Y130.870 E0.01681
G1 X131.613 Y131.130 E0.01157
G1 X131.079 Y131.130 E0.01681
G1 X130.819 Y130.870 E0.01157
G1 X130.284 Y130.870 E0.01681
G1 X130.544 Y131.130 E0.01157
G1 X130.009 Y131.130 E0.01681
G1 X129.749 Y130.870 E0.01157
G1 X129.214 Y130.870 E0.01681
G1 X129.475 Y131.130 E0.01157
G1 X128.940 Y131.130 E0.01681
G1 X128.680 Y130.870 E0.01157
G1 X128.145 Y130.870 E0.01681
G1 X128.405 Y131.130 E0.01157
G1 X127.871 Y131.130 E0.01681
G1 X127.610 Y130.870 E0.01157
G1 X127.076 Y130.870 E0.01681
G1 X127.336 Y131.130 E0.01157
G1 X126.801 Y131.130 E0.01681
G1 X110.870 Y115.199 E0.70832
G1 X110.870 Y114.664 E0.01681
G1 X126.734 Y130.528 E0.70531
G1 X126.734 Y129.993 E0.01681
G1 X110.870 Y114.129 E0.70531
G1 X110.870 Y113.595 E0.01681
G1 X126.734 Y129.458 E0.70531
G1 X126.734 Y128.924 E0.01681
G1 X110.870 Y113.060 E0.70531
G1 X110.870 Y112.525 E0.01681
G1 X126.734 Y128.389 E0.70531
G1 X126.734 Y127.854 E0.01681
G1 X110.870 Y111.991 E0.70531
G1 X110.870 Y111.456 E0.01681
G1 X126.734 Y127.320 E0.70531
G1 X126.734 Y126.785 E0.01681
G1 X110.870 Y110.921 E0.70531
G1 X110.870 Y110.386 E0.01681
G1 X126.734 Y126.250 E0.70531
G1 X126.734 Y125.716 E0.01681
G1 X110.870 Y109.852 E0.70531
G1 X110.870 Y109.317 E0.01681
G1 X126.734 Y125.181 E0.70531
G1 X126.734 Y124.646 E0.01681
G1 X110.870 Y108.782 E0.70531
G1 X110.870 Y108.248 E0.01681
G1 X126.734 Y124.111 E0.70531
G1 X126.734 Y123.577 E0.01681
G1 X110.870 Y107.713 E0.70531
G1 X110.870 Y107.178 E0.01681
G1 X126.734 Y123.042 E0.70531
G1 X126.734 Y122.507 E0.01681
G1 X110.870 Y106.644 E0.70531
G1 X110.870 Y106.109 E0.01681
G1 X126.734 Y121.973 E0.70531
G1 X126.734 Y121.438 E0.01681
G1 X110.870 Y105.574 E0.70531
G1 X110.870 Y105.039 E0.01681
G1 X126.734 Y120.903 E0.70531
G1 X126.734 Y120.369 E0.01681
G1 X110.870 Y104.505 E0.70531
G1 X110.870 Y103.970 E0.01681
G1 X126.734 Y119.834 E0.70531
G1 X126.734 Y119.299 E0.01681
G1 X110.870 Y103.435 E0.70531
G1 X110.870 Y102.901 E0.01681
G1 X126.734 Y118.764 E0.70531
G1 X126.734 Y118.230 E0.01681
G1 X110.870 Y102.366 E0.70531
G1 X110.870 Y101.831 E0.01681
G1 X126.734 Y117.695 E0.70531
G1 X126.734 Y117.160 E0.01681
G1 X110.870 Y101.297 E0.70531
G1 X110.870 Y100.762 E0.01681
G1 X126.734 Y116.626 E0.70531
G1 X126.734 Y116.091 E0.01681
G1 X110.870 Y100.227 E0.70531
G1 X110.870 Y99.692 E0.01681
G1 X126.734 Y115.556 E0.70531
G1 X126.734 Y115.022 E0.01681
G1 X110.870 Y99.158 E0.70531
G1 X110.870 Y98.623 E0.01681
G1 X126.734 Y114.487 E0.70531
G1 X126.734 Y113.952 E0.01681
G1 X110.870 Y98.088 E0.70531
G1 X110.870 Y97.554 E0.01681
G1 X126.734 Y113.417 E0.70531
G1 X126.734 Y112.883 E0.01681
G1 X110.870 Y97.019 E0.70531
M73 Q7 S27
M73 P7 R27
G1 X110.870 Y96.484 E0.01681
G1 X126.734 Y112.348 E0.70531
G1 X126.734 Y111.813 E0.01681
G1 X110.870 Y95.950 E0.70531
G1 X110.870 Y95.415 E0.01681
G1 X126.734 Y111.279 E0.70531
G1 X126.734 Y110.744 E0.01681
G1 X110.870 Y94.880 E0.70531
G1 X110.870 Y94.345 E0.01681
G1 X126.734 Y110.209 E0.70531
G1 X126.734 Y109.674 E0.01681
G1 X110.870 Y93.811 E0.70531
G1 X110.870 Y93.276 E0.01681
G1 X126.734 Y109.140 E0.70531
G1 X126.734 Y108.605 E0.01681
G1 X110.870 Y92.741 E0.70531
G1 X110.870 Y92.207 E0.01681
G1 X126.734 Y108.070 E0.70531
G1 X126.734 Y107.536 E0.01681
G1 X110.870 Y91.672 E0.70531
G1 X110.870 Y91.137 E0.01681
G1 X126.734 Y107.001 E0.70531
G1 X126.734 Y106.466 E0.01681
G1 X110.870 Y90.603 E0.70531
G1 X110.870 Y90.068 E0.01681
G1 X126.734 Y105.932 E0.70531
G1 X126.734 Y105.397 E0.01681
G1 X110.870 Y89.533 E0.70531
G1 X110.870 Y88.998 E0.01681
G1 X126.734 Y104.862 E0.70531
G1 X126.734 Y104.327 E0.01681
G1 X110.870 Y88.464 E0.70531
G1 X110.870 Y87.929 E0.01681
G1 X126.734 Y103.793 E0.70531
G1 X126.734 Y103.258 E0.01681
G1 X110.870 Y87.394 E0.70531
G1 X110.870 Y86.860 E0.01681
G1 X126.734 Y102.723 E0.70531
G1 X126.734 Y102.189 E0.01681
G1 X110.870 Y86.325 E0.70531
G1 X110.870 Y85.790 E0.01681
G1 X126.734 Y101.654 E0.70531
G1 X126.734 Y101.119 E0.01681
G1 X110.870 Y85.256 E0.70531
G1 X110.870 Y84.721 E0.01681
G1 X126.734 Y100.585 E0.70531
G1 X126.734 Y100.050 E0.01681
G1 X110.870 Y84.186 E0.70531
G1 X110.870 Y83.651 E0.01681
G1 X126.734 Y99.515 E0.70531
G1 X126.734 Y98.980 E0.01681
G1 X110.870 Y83.117 E0.70531
G1 X110.870 Y82.582 E0.01681
G1 X126.734 Y98.446 E0.70531
G1 X126.734 Y97.911 E0.01681
G1 X110.870 Y82.047 E0.70531
G1 X110.870 Y81.513 E0.01681
G1 X126.734 Y97.376 E0.70531
G1 X126.734 Y96.842 E0.01681
G1 X110.870 Y80.978 E0.70531
G1 X110.870 Y80.443 E0.01681
G1 X126.734 Y96.307 E0.70531
G1 X126.734 Y95.772 E0.01681
G1 X110.870 Y79.909 E0.70531
G1 X110.870 Y79.374 E0.01681
G1 X126.734 Y95.238 E0.70531
G1 X126.734 Y94.703 E0.01681
G1 X110.901 Y78.870 E0.70394
G1 X111.435 Y78.870 E0.01681
G1 X126.734 Y94.168 E0.68017
G1 X126.734 Y93.633 E0.01681
G1 X111.970 Y78.870 E0.65640
G1 X112.505 Y78.870 E0.01681
G1 X126.734 Y93.099 E0.63262
G1 X126.734 Y92.564 E0.01681
G1 X113.039 Y78.870 E0.60885
G1 X113.574 Y78.870 E0.01681
G1 X126.734 Y92.029 E0.58508
G1 X126.734 Y91.495 E0.01681
G1 X114.109 Y78.870 E0.56131
G1 X114.644 Y78.870 E0.01681
G1 X126.734 Y90.960 E0.53753
G1 X126.734 Y90.425 E0.01681
G1 X115.178 Y78.870 E0.51376
G1 X115.713 Y78.870 E0.01681
G1 X126.734 Y89.891 E0.48999
G1 X126.734 Y89.356 E0.01681
G1 X116.248 Y78.870 E0.46621
G1 X116.782 Y78.870 E0.01681
G1 X126.734 Y88.821 E0.44244
G1 X126.734 Y88.286 E0.01681
G1 X117.317 Y78.870 E0.41867
G1 X117.852 Y78.870 E0.01681
G1 X126.734 Y87.752 E0.39489
G1 X126.734 Y87.217 E0.01681
G1 X118.386 Y78.870 E0.37112
G1 X118.921 Y78.870 E0.01681
G1 X126.734 Y86.682 E0.34735
G1 X126.734 Y86.148 E0.01681
G1 X119.456 Y78.870 E0.32357
G1 X119.991 Y78.870 E0.01681
G1 X126.734 Y85.613 E0.29980
G1 X126.734 Y85.078 E0.01681
G1 X120.525 Y78.870 E0.27603
G1 X121.060 Y78.870 E0.01681
G1 X126.734 Y84.544 E0.25225
G1 X126.734 Y84.009 E0.01681
G1 X121.595 Y78.870 E0.22848
G1 X122.129 Y78.870 E0.01681
G1 X126.734 Y83.474 E0.20471
G1 X126.734 Y82.939 E0.01681
G1 X122.664 Y78.870 E0.18093
