; generated by PrusaSlicer 2.1.1 on 2020-09-27 at 13:19:27 UTC

; 

; external perimeters extrusion width = 0.45mm
; perimeters extrusion width = 0.45mm
; infill extrusion width = 0.45mm
; solid infill extrusion width = 0.45mm
; top infill extrusion width = 0.40mm
; first layer extrusion width = 0.42mm

M73 P0 R2
M73 Q0 S2
M201 X1000 Y1000 Z200 E5000 ; sets maximum accelerations, mm/sec^2
M203 X200 Y200 Z12 E120 ; sets maximum feedrates, mm/sec
M204 P1250 R1250 T1250 ; sets acceleration (P, T) and retract acceleration (R), mm/sec^2
M205 X8.00 Y8.00 Z0.40 E4.50 ; sets the jerk limits, mm/sec
M205 S0 T0 ; sets the minimum extruding and travel feed rate, mm/sec
M107
M862.3 P "MK3S" ; printer model check
M862.1 P0.4 ; nozzle diameter check
M115 U3.9.0 ; tell printer latest fw version
G90 ; use absolute coordinates
M83 ; extruder relative mode
M104 S230 ; set extruder temp
M140 S85 ; set bed temp
M190 S85 ; wait for bed temp
M109 S230 ; wait for extruder temp
G28 W ; home all without mesh bed level
G80 ; mesh bed leveling
G1 Y-3.0 F1000.0 ; go outside print area
G92 E0.0
G1 X60.0 E9.0 F1000.0 ; intro line
M73 Q2 S2
M73 P2 R2
G1 X100.0 E12.5 F1000.0 ; intro line
G92 E0.0
M221 S95
G21 ; set units to millimeters
G90 ; use absolute coordinates
M83 ; use relative distances for extrusion
M900 K0.12 ; Filament gcode LA 1.5
M900 K45 ; Filament gcode LA 1.0
;BEFORE_LAYER_CHANGE
G92 E0.0
;0.2


G1 E-1.40000 F2100.00000
G1 Z0.200 F10800.000
;AFTER_LAYER_CHANGE
;0.2
G1 Z0.400
G1 X166.626 Y29.053
G1 Z0.200
G1 E1.40000 F2100.00000
M204 S1000
G1 F982
G1 X166.963 Y27.699 E0.04372
G1 X167.547 Y26.481 E0.04237
G1 X168.198 Y25.587 E0.03466
G1 X169.211 Y24.630 E0.04371
G1 X169.940 Y24.142 E0.02750
G1 X170.727 Y23.754 E0.02750
G1 X172.199 Y23.329 E0.04804
G1 X183.505 Y22.387 E0.35574
G1 X185.165 Y22.610 E0.05251
G1 X186.725 Y23.186 E0.05214
G1 X191.206 Y25.799 E0.16263
G1 X191.970 Y26.432 E0.03110
G1 X192.517 Y27.085 E0.02674
G1 X193.003 Y27.941 E0.03086
G1 X193.316 Y28.886 E0.03122
G1 X193.433 Y29.731 E0.02674
G1 X193.386 Y30.742 E0.03172
G1 X193.137 Y31.726 E0.03184
G1 X192.703 Y32.632 E0.03148
G1 X192.080 Y33.453 E0.03234
G1 X191.442 Y34.031 E0.02698
G1 X187.132 Y36.596 E0.15727
G1 X186.235 Y37.037 E0.03134
G1 X184.673 Y37.495 E0.05103
G1 X183.145 Y37.613 E0.04807
G1 X172.652 Y36.732 E0.33014
G1 X171.718 Y36.572 E0.02973
G1 X170.716 Y36.241 E0.03307
G1 X169.550 Y35.615 E0.04150
G1 X168.739 Y34.973 E0.03245
G1 X167.867 Y33.998 E0.04100
G1 X167.177 Y32.822 E0.04275
G1 X166.800 Y31.783 E0.03466
G1 X166.575 Y30.455 E0.04223
G1 X166.624 Y29.113 E0.04213
G1 F8640
G1 X166.963 Y27.699 E-0.33552
G1 X167.547 Y26.481 E-0.31205
G1 X168.198 Y25.587 E-0.25525
G1 X169.211 Y24.630 E-0.32191
G1 X169.590 Y24.376 E-0.10527
G1 E-0.07000 F2100.00000
G1 Z0.400 F10800.000
G1 X167.326 Y27.804
G1 Z0.200
G1 E1.40000 F2100.00000
G1 F982
G1 X167.907 Y26.614 E0.04154
G1 X168.722 Y25.570 E0.04154
G1 X169.705 Y24.737 E0.04039
G1 X170.932 Y24.076 E0.04370
G1 X172.285 Y23.697 E0.04403
G1 X183.505 Y22.765 E0.35302
G1 X185.073 Y22.976 E0.04961
G1 X186.551 Y23.521 E0.04938
G1 X190.988 Y26.107 E0.16104
G1 X191.704 Y26.699 E0.02913
G1 X192.208 Y27.301 E0.02462
G1 X192.664 Y28.107 E0.02902
G1 X192.961 Y29.025 E0.03027
G1 X193.063 Y29.982 E0.03017
G1 X192.975 Y30.903 E0.02902
G1 X192.756 Y31.669 E0.02496
G1 X192.327 Y32.522 E0.02993
G1 X191.750 Y33.255 E0.02925
G1 X191.044 Y33.854 E0.02902
G1 X186.936 Y36.273 E0.14950
G1 X186.077 Y36.695 E0.03001
G1 X184.600 Y37.125 E0.04824
G1 X183.138 Y37.235 E0.04596
G1 X172.689 Y36.357 E0.32877
G1 X171.811 Y36.206 E0.02793
G1 X170.867 Y35.896 E0.03115
G1 X169.755 Y35.298 E0.03959
G1 X168.781 Y34.489 E0.03970
G1 X168.146 Y33.740 E0.03080
G1 X167.492 Y32.605 E0.04108
G1 X167.090 Y31.388 E0.04017
G1 X166.938 Y30.076 E0.04142
G1 X167.010 Y29.042 E0.03252
G1 X167.311 Y27.862 E0.03816
G1 F8640
G1 X167.907 Y26.614 E-0.31946
G1 X168.722 Y25.570 E-0.30589
G1 X169.705 Y24.737 E-0.29742
G1 X170.932 Y24.076 E-0.32184
G1 X171.288 Y23.977 E-0.08538
G1 E-0.07000 F2100.00000
G1 Z0.400 F10800.000
G1 X178.764 Y29.334
G1 Z0.200
G1 E1.40000 F2100.00000
G1 F982
G1 X178.892 Y28.733 E0.01927
G1 X178.994 Y28.420 E0.01031
G1 X179.253 Y27.839 E0.01994
G1 X179.416 Y27.557 E0.01022
G1 X179.613 Y27.267 E0.01098
G1 X180.009 Y26.797 E0.01927
G1 X180.484 Y26.369 E0.02005
G1 X180.747 Y26.178 E0.01020
G1 X181.023 Y26.006 E0.01020
G1 X181.598 Y25.725 E0.02005
G1 X182.210 Y25.526 E0.02017
G1 X182.839 Y25.415 E0.02005
G1 X183.168 Y25.392 E0.01031
G1 X183.778 Y25.413 E0.01915
G1 X184.125 Y25.460 E0.01098
G1 X184.444 Y25.528 E0.01022
G1 X185.052 Y25.725 E0.02005
G1 X185.627 Y26.006 E0.02005
G1 X185.903 Y26.178 E0.01020
G1 X186.166 Y26.369 E0.01020
G1 X186.639 Y26.795 E0.01994
G1 X186.859 Y27.039 E0.01032
G1 X187.235 Y27.557 E0.02005
G1 X187.535 Y28.121 E0.02005
G1 X187.658 Y28.427 E0.01032
G1 X187.834 Y29.038 E0.01994
G1 X187.891 Y29.362 E0.01032
G1 X187.936 Y30.000 E0.02007
G1 X187.886 Y30.666 E0.02094
G1 X187.758 Y31.267 E0.01927
G1 X187.657 Y31.577 E0.01020
G1 X187.535 Y31.879 E0.01020
G1 X187.235 Y32.443 E0.02005
G1 X186.859 Y32.961 E0.02005
G1 X186.639 Y33.205 E0.01032
G1 X186.166 Y33.631 E0.01994
G1 X185.903 Y33.822 E0.01020
G1 X185.627 Y33.994 E0.01020
G1 X185.052 Y34.275 E0.02005
G1 X184.440 Y34.474 E0.02017
G1 X183.811 Y34.585 E0.02005
G1 X183.482 Y34.608 E0.01031
G1 X182.872 Y34.587 E0.01915
G1 X182.525 Y34.540 E0.01098
G1 X182.206 Y34.472 E0.01022
G1 X181.598 Y34.275 E0.02005
G1 X181.023 Y33.994 E0.02005
G1 X180.744 Y33.820 E0.01032
G1 X180.243 Y33.429 E0.01994
G1 X180.006 Y33.200 E0.01032
G1 X179.595 Y32.710 E0.02005
G1 X179.256 Y32.168 E0.02005
G1 X179.113 Y31.875 E0.01020
G1 X178.992 Y31.573 E0.01020
G1 X178.816 Y30.962 E0.01994
G1 X178.759 Y30.638 E0.01032
G1 X178.714 Y30.000 E0.02007
G1 X178.759 Y29.393 E0.01906
G1 X178.449 Y29.087 F10800.000
G1 F8640
G1 X178.892 Y28.733 E-0.15564
G1 X178.994 Y28.420 E-0.07596
G1 X179.253 Y27.839 E-0.14682
G1 X179.416 Y27.557 E-0.07527
G1 X179.613 Y27.267 E-0.08085
G1 X180.009 Y26.797 E-0.14188
G1 X180.484 Y26.369 E-0.14764
G1 X180.747 Y26.178 E-0.07515
G1 X181.023 Y26.006 E-0.07515
G1 X181.598 Y25.725 E-0.14767
G1 X182.210 Y25.526 E-0.14852
G1 X182.463 Y25.482 E-0.05945
G1 E-0.07000 F2100.00000
G1 Z0.400 F10800.000
G1 X187.948 Y28.137
G1 Z0.200
G1 E1.40000 F2100.00000
G1 F982
G1 X188.298 Y28.091 E0.01107
G1 X188.707 Y28.119 E0.01284
G1 X189.090 Y28.229 E0.01252
G1 X189.443 Y28.417 E0.01252
G1 X189.757 Y28.680 E0.01284
G1 X189.921 Y28.876 E0.00804
G1 X190.063 Y29.103 E0.00836
G1 X190.171 Y29.346 E0.00836
G1 X190.245 Y29.603 E0.00836
G1 X190.282 Y29.867 E0.00836
G1 X190.282 Y30.123 E0.00804
G1 X190.211 Y30.526 E0.01284
G1 X190.057 Y30.906 E0.01284
G1 X189.921 Y31.124 E0.00805
G1 X189.661 Y31.415 E0.01225
G1 X189.452 Y31.578 E0.00831
G1 X189.090 Y31.771 E0.01284
G1 X188.707 Y31.881 E0.01252
G1 X188.298 Y31.909 E0.01284
G1 X187.948 Y31.863 E0.01107
G1 X188.122 Y31.365 E0.01654
G1 X188.260 Y30.720 E0.02069
G1 X188.314 Y30.001 E0.02260
G1 X188.266 Y29.316 E0.02154
G1 X188.202 Y28.953 E0.01156
G1 X187.970 Y28.192 E0.02493
G1 X187.654 Y27.814 F10800.000
G1 F982
G1 X187.974 Y27.746 E0.01024
G1 X188.291 Y27.712 E0.01001
G1 X188.772 Y27.746 E0.01512
G1 X189.232 Y27.878 E0.01500
G1 X189.655 Y28.102 E0.01500
G1 X190.024 Y28.412 E0.01512
G1 X190.227 Y28.654 E0.00990
G1 X190.396 Y28.925 E0.01001
G1 X190.526 Y29.217 E0.01001
G1 X190.614 Y29.524 E0.01002
G1 X190.659 Y29.840 E0.01001
G1 X190.659 Y30.156 E0.00990
G1 X190.575 Y30.631 E0.01512
G1 X190.395 Y31.078 E0.01512
G1 X190.227 Y31.346 E0.00990
G1 X189.909 Y31.699 E0.01491
G1 X189.658 Y31.896 E0.01000
G1 X189.232 Y32.122 E0.01512
G1 X188.772 Y32.254 E0.01500
G1 X188.291 Y32.288 E0.01512
G1 X187.974 Y32.254 E0.01001
G1 X187.654 Y32.186 E0.01024
G1 X187.238 Y32.847 E0.02449
G1 X187.035 Y33.108 E0.01037
G1 X186.563 Y33.596 E0.02128
G1 X186.031 Y34.012 E0.02117
G1 X185.446 Y34.350 E0.02117
G1 X184.820 Y34.603 E0.02117
G1 X184.162 Y34.767 E0.02129
G1 X183.835 Y34.813 E0.01036
G1 X183.156 Y34.837 E0.02128
G1 X182.481 Y34.766 E0.02128
G1 X182.158 Y34.697 E0.01036
G1 X181.512 Y34.487 E0.02128
G1 X180.902 Y34.190 E0.02128
G1 X180.622 Y34.014 E0.01036
G1 X180.084 Y33.594 E0.02140
G1 X179.846 Y33.365 E0.01036
G1 X179.407 Y32.842 E0.02140
G1 X179.053 Y32.275 E0.02094
G1 X178.776 Y31.652 E0.02140
G1 X178.674 Y31.338 E0.01036
G1 X178.532 Y30.670 E0.02140
G1 X178.497 Y30.341 E0.01036
G1 X178.497 Y29.659 E0.02140
G1 X178.532 Y29.330 E0.01036
G1 X178.674 Y28.662 E0.02140
G1 X178.776 Y28.348 E0.01036
G1 X179.052 Y27.728 E0.02128
G1 X179.410 Y27.155 E0.02117
G1 X179.846 Y26.635 E0.02128
G1 X180.084 Y26.406 E0.01036
G1 X180.622 Y25.986 E0.02140
G1 X180.902 Y25.810 E0.01036
G1 X181.515 Y25.511 E0.02140
G1 X181.826 Y25.398 E0.01036
G1 X182.488 Y25.233 E0.02140
G1 X182.819 Y25.187 E0.01048
G1 X183.156 Y25.163 E0.01057
G1 X183.518 Y25.165 E0.01135
G1 X184.165 Y25.234 E0.02042
G1 X184.824 Y25.398 E0.02127
G1 X185.160 Y25.522 E0.01124
G1 X185.745 Y25.809 E0.02042
G1 X186.304 Y26.186 E0.02117
G1 X186.806 Y26.638 E0.02117
G1 X187.240 Y27.156 E0.02118
G1 X187.623 Y27.763 E0.02249
G1 X187.766 Y28.120 F10800.000
G1 F8640
G1 X187.974 Y27.746 E-0.08120
G1 X188.291 Y27.712 E-0.07375
G1 X188.772 Y27.746 E-0.11134
G1 X189.232 Y27.878 E-0.11049
G1 X189.655 Y28.102 E-0.11049
G1 X190.024 Y28.412 E-0.11134
G1 X190.227 Y28.654 E-0.07290
G1 X190.396 Y28.925 E-0.07375
G1 X190.526 Y29.217 E-0.07375
G1 X190.614 Y29.524 E-0.07375
G1 X190.659 Y29.840 E-0.07375
G1 X190.659 Y30.156 E-0.07290
G1 X190.575 Y30.631 E-0.11134
G1 X190.395 Y31.078 E-0.11134
G1 X190.239 Y31.327 E-0.06789
G1 E-0.07000 F2100.00000
G1 Z0.400 F10800.000
G1 X190.076 Y29.425
G1 Z0.200
G1 E1.40000 F2100.00000
G1 F982
G1 X189.284 Y28.653 E0.03789
G1 X188.984 Y28.493 E0.01164
G1 X188.657 Y28.399 E0.01164
G1 X188.454 Y28.385 E0.00698
G1 X189.999 Y29.930 E0.07484
G1 X189.999 Y30.098 E0.00576
G1 X189.936 Y30.450 E0.01224
G1 X188.499 Y29.013 E0.06961
G1 X188.547 Y29.281 E0.00933
G1 X188.574 Y29.670 E0.01334
G1 X189.757 Y30.853 E0.05730
G1 X189.694 Y30.954 E0.00405
G1 X189.496 Y31.175 E0.01018
G1 X188.578 Y30.257 E0.04447
G1 X188.534 Y30.795 E0.01849
G1 X189.155 Y31.416 E0.03009
G1 X188.984 Y31.507 E0.00663
G1 X188.735 Y31.578 E0.00888
G1 X188.288 Y31.132 E0.02164
G1 F8640
G1 X188.735 Y31.578 E-0.14586
G1 X188.984 Y31.507 E-0.05988
G1 X189.155 Y31.416 E-0.04470
G1 X188.534 Y30.795 E-0.20285
G1 X188.578 Y30.257 E-0.12463
G1 X189.496 Y31.175 E-0.29978
G1 X189.694 Y30.954 E-0.06859
G1 X189.757 Y30.853 E-0.02733
G1 X188.666 Y29.762 E-0.35639
G1 E-0.07000 F2100.00000
G1 Z0.400 F10800.000
G1 X176.702 Y30.475
G1 Z0.200
G1 E1.40000 F2100.00000
G1 F982
G1 X176.604 Y30.936 E0.01480
G1 X176.528 Y31.170 E0.00769
G1 X176.338 Y31.598 E0.01469
G1 X176.215 Y31.810 E0.00769
G1 X175.940 Y32.189 E0.01469
G1 X175.776 Y32.372 E0.00769
G1 X175.427 Y32.685 E0.01469
G1 X175.229 Y32.829 E0.00769
G1 X174.823 Y33.064 E0.01469
G1 X174.599 Y33.163 E0.00769
G1 X174.150 Y33.309 E0.01480
G1 X173.685 Y33.391 E0.01480
G1 X173.440 Y33.408 E0.00769
G1 X172.972 Y33.392 E0.01469
G1 X172.729 Y33.358 E0.00769
G1 X172.275 Y33.244 E0.01469
G1 X171.827 Y33.064 E0.01515
G1 X171.421 Y32.829 E0.01469
G1 X171.223 Y32.685 E0.00769
G1 X170.872 Y32.369 E0.01480
G1 X170.568 Y32.007 E0.01480
G1 X170.431 Y31.804 E0.00769
G1 X170.211 Y31.390 E0.01469
G1 X170.119 Y31.163 E0.00769
G1 X169.990 Y30.713 E0.01469
G1 X169.947 Y30.471 E0.00769
G1 X169.914 Y30.000 E0.01480
G1 X169.947 Y29.529 E0.01480
G1 X169.990 Y29.287 E0.00769
G1 X170.119 Y28.837 E0.01469
G1 X170.211 Y28.610 E0.00769
G1 X170.431 Y28.196 E0.01469
G1 X170.568 Y27.993 E0.00769
G1 X170.872 Y27.631 E0.01480
G1 X171.223 Y27.315 E0.01480
G1 X171.421 Y27.171 E0.00769
G1 X171.830 Y26.935 E0.01480
G1 X172.268 Y26.758 E0.01480
G1 X172.503 Y26.690 E0.00769
G1 X172.946 Y26.611 E0.01411
G1 X173.209 Y26.592 E0.00825
G1 X173.659 Y26.607 E0.01413
G1 X174.154 Y26.692 E0.01573
G1 X174.599 Y26.837 E0.01469
G1 X174.823 Y26.936 E0.00769
G1 X175.229 Y27.171 E0.01469
G1 X175.427 Y27.315 E0.00769
G1 X175.776 Y27.628 E0.01469
G1 X175.940 Y27.811 E0.00769
G1 X176.215 Y28.190 E0.01469
G1 X176.338 Y28.402 E0.00769
G1 X176.528 Y28.830 E0.01469
G1 X176.604 Y29.064 E0.00769
G1 X176.702 Y29.525 E0.01480
G1 X176.736 Y30.000 E0.01492
G1 X176.707 Y30.415 E0.01304
G1 X177.018 Y30.721 F10800.000
G1 X177.284 Y30.476
G1 F982
G1 X177.159 Y31.103 E0.02007
G1 X177.075 Y31.361 E0.00850
G1 X176.848 Y31.873 E0.01757
G1 X176.551 Y32.348 E0.01757
G1 X176.384 Y32.562 E0.00850
G1 X175.994 Y32.965 E0.01757
G1 X175.553 Y33.310 E0.01757
G1 X175.323 Y33.453 E0.00850
G1 X174.816 Y33.701 E0.01768
G1 X174.561 Y33.793 E0.00850
G1 X174.014 Y33.930 E0.01768
G1 X173.746 Y33.968 E0.00850
G1 X173.182 Y33.987 E0.01768
G1 X172.912 Y33.968 E0.00850
G1 X172.356 Y33.870 E0.01768
G1 X172.096 Y33.796 E0.00850
G1 X171.573 Y33.585 E0.01767
G1 X171.314 Y33.445 E0.00923
G1 X170.869 Y33.144 E0.01685
G1 X170.452 Y32.769 E0.01757
G1 X170.269 Y32.565 E0.00862
G1 X170.099 Y32.348 E0.00862
G1 X169.801 Y31.870 E0.01768
G1 X169.682 Y31.626 E0.00850
G1 X169.489 Y31.096 E0.01768
G1 X169.423 Y30.833 E0.00850
G1 X169.345 Y30.278 E0.01757
G1 X169.345 Y29.722 E0.01745
G1 X169.423 Y29.167 E0.01757
G1 X169.489 Y28.904 E0.00850
G1 X169.682 Y28.374 E0.01768
G1 X169.801 Y28.130 E0.00850
G1 X170.099 Y27.652 E0.01768
G1 X170.266 Y27.438 E0.00850
G1 X170.658 Y27.033 E0.01768
G1 X170.866 Y26.858 E0.00850
G1 X171.333 Y26.543 E0.01768
G1 X171.573 Y26.416 E0.00850
G1 X172.096 Y26.204 E0.01768
G1 X172.356 Y26.130 E0.00850
G1 X172.908 Y26.032 E0.01755
G1 X173.487 Y26.015 E0.01818
G1 X174.021 Y26.071 E0.01684
G1 X174.290 Y26.129 E0.00860
G1 X174.576 Y26.212 E0.00935
G1 X175.077 Y26.416 E0.01696
G1 X175.317 Y26.543 E0.00851
G1 X175.784 Y26.858 E0.01768
G1 X175.992 Y27.033 E0.00850
G1 X176.384 Y27.438 E0.01768
G1 X176.551 Y27.652 E0.00850
G1 X176.848 Y28.127 E0.01757
G1 X177.075 Y28.639 E0.01757
G1 X177.159 Y28.897 E0.00850
G1 X177.276 Y29.448 E0.01768
G1 X177.305 Y29.718 E0.00850
G1 X177.291 Y30.416 E0.02188
G1 X176.915 Y30.629 F10800.000
G1 X177.000 Y30.390
G1 F982
G1 X176.879 Y31.028 E0.01036
G1 X176.800 Y31.269 E0.00404
G1 X176.592 Y31.737 E0.00818
G1 X176.451 Y31.970 E0.00434
G1 X176.165 Y32.372 E0.00788
G1 X175.798 Y32.746 E0.00837
G1 X175.611 Y32.903 E0.00390
G1 X175.387 Y33.072 E0.00448
G1 X175.181 Y33.196 E0.00384
G1 X174.703 Y33.434 E0.00852
G1 X174.475 Y33.512 E0.00384
G1 X174.212 Y33.587 E0.00436
G1 X173.720 Y33.679 E0.00799
G1 X173.440 Y33.693 E0.00448
G1 X172.947 Y33.681 E0.00788
G1 X172.670 Y33.636 E0.00448
G1 X172.190 Y33.522 E0.00788
G1 X171.696 Y33.322 E0.00850
G1 X171.270 Y33.071 E0.00790
G1 X171.048 Y32.916 E0.00433
G1 X170.659 Y32.565 E0.00836
G1 X170.494 Y32.376 E0.00401
G1 X170.337 Y32.182 E0.00398
G1 X170.058 Y31.727 E0.00851
G1 X169.949 Y31.513 E0.00384
G1 X169.770 Y31.010 E0.00851
G1 X169.708 Y30.778 E0.00384
G1 X169.638 Y30.258 E0.00837
G1 X169.638 Y29.742 E0.00823
G1 X169.708 Y29.222 E0.00837
G1 X169.770 Y28.990 E0.00384
G1 X169.949 Y28.487 E0.00851
G1 X170.058 Y28.273 E0.00384
G1 X170.337 Y27.818 E0.00851
G1 X170.488 Y27.631 E0.00384
G1 X170.672 Y27.428 E0.00437
G1 X171.040 Y27.090 E0.00799
G1 X171.270 Y26.929 E0.00448
G1 X171.695 Y26.678 E0.00788
G1 X172.190 Y26.479 E0.00852
G1 X172.433 Y26.410 E0.00404
G1 X172.937 Y26.321 E0.00817
G1 X173.208 Y26.307 E0.00433
G1 X173.678 Y26.322 E0.00751
G1 X174.223 Y26.411 E0.00882
G1 X174.697 Y26.569 E0.00796
G1 X174.954 Y26.678 E0.00447
G1 X175.380 Y26.929 E0.00788
G1 X175.610 Y27.090 E0.00448
G1 X175.973 Y27.423 E0.00788
G1 X176.165 Y27.628 E0.00448
G1 X176.451 Y28.030 E0.00788
G1 X176.592 Y28.263 E0.00434
G1 X176.800 Y28.731 E0.00818
G1 X176.879 Y28.972 E0.00404
G1 X176.990 Y29.494 E0.00852
G1 X177.020 Y29.993 E0.00799
G1 X177.006 Y30.331 E0.00539
;BEFORE_LAYER_CHANGE
G92 E0.0
;0.35


G1 F8640
G1 X176.879 Y31.028 E-0.16368
G1 X176.800 Y31.269 E-0.05841
G1 X176.592 Y31.737 E-0.11838
G1 X176.451 Y31.970 E-0.06276
G1 X176.165 Y32.372 E-0.11395
G1 X175.798 Y32.746 E-0.12113
G1 X175.611 Y32.903 E-0.05640
G1 X175.387 Y33.072 E-0.06477
G1 X175.181 Y33.196 E-0.05556
