; generated by PrusaSlicer 2.1.1 on 2020-12-26 at 08:08:56 UTC

; 

; external perimeters extrusion width = 0.60mm
; perimeters extrusion width = 0.50mm
; infill extrusion width = 0.50mm
; solid infill extrusion width = 0.50mm
; top infill extrusion width = 0.45mm
; first layer extrusion width = 0.42mm

M73 P0 R4
M73 Q0 S4
M201 X1000 Y1000 Z200 E5000 ; sets maximum accelerations, mm/sec^2
M203 X200 Y200 Z12 E120 ; sets maximum feedrates, mm/sec
M204 P1250 R1250 T1250 ; sets acceleration (P, T) and retract acceleration (R), mm/sec^2
M205 X8.00 Y8.00 Z0.40 E4.50 ; sets the jerk limits, mm/sec
M205 S0 T0 ; sets the minimum extruding and travel feed rate, mm/sec
M107
M862.3 P "MK3S" ; printer model check
M862.1 P0.4 ; nozzle diameter check
M115 U3.9.1 ; tell printer latest fw version
G90 ; use absolute coordinates
M83 ; extruder relative mode
M104 S215 ; set extruder temp
M140 S60 ; set bed temp
M190 S60 ; wait for bed temp
M109 S215 ; wait for extruder temp
G28 W ; home all without mesh bed level
G80 ; mesh bed leveling
G1 Y-3.0 F1000.0 ; go outside print area
G92 E0.0
G1 X60.0 E9.0 F1000.0 ; intro line
M73 Q1 S4
M73 P1 R4
G1 X100.0 E12.5 F1000.0 ; intro line
G92 E0.0
M221 S95
G21 ; set units to millimeters
G90 ; use absolute coordinates
M83 ; use relative distances for extrusion
M900 K0.05 ; Filament gcode LA 1.5
M900 K30 ; Filament gcode LA 1.0
;BEFORE_LAYER_CHANGE
G92 E0.0
;0.2


G1 E-0.80000 F2100.00000
G1 Z0.600 F10800.000
;AFTER_LAYER_CHANGE
;0.2
G1 X210.714 Y74.190
G1 Z0.200
G1 E0.80000 F2100.00000
M204 S1000
G1 F1200
G1 X211.339 Y73.187 E0.03706
G1 X212.165 Y72.342 E0.03706
G1 X213.153 Y71.694 E0.03706
G1 X214.275 Y71.269 E0.03760
G1 X215.462 Y71.099 E0.03760
G1 X231.645 Y71.096 E0.50741
G1 X232.582 Y71.178 E0.02949
G1 X233.496 Y71.421 E0.02967
G1 X234.355 Y71.818 E0.02967
G1 X235.128 Y72.354 E0.02949
G1 X235.798 Y73.014 E0.02949
G1 X236.348 Y73.784 E0.02967
G1 X236.754 Y74.632 E0.02949
G1 X237.011 Y75.543 E0.02967
G1 X237.105 Y76.432 E0.02804
G1 X237.104 Y79.454 E0.09475
G1 X237.019 Y80.240 E0.02479
G1 X236.822 Y81.006 E0.02479
G1 X236.390 Y81.969 E0.03309
G1 X235.782 Y82.832 E0.03309
G1 X235.019 Y83.561 E0.03309
G1 X234.125 Y84.133 E0.03328
G1 X232.998 Y84.559 E0.03778
G1 X231.799 Y84.729 E0.03796
G1 X215.086 Y84.703 E0.52405
G1 X213.760 Y84.398 E0.04264
G1 X212.551 Y83.776 E0.04264
G1 X211.533 Y82.874 E0.04264
G1 X210.769 Y81.749 E0.04264
G1 X210.370 Y80.723 E0.03454
G1 X210.185 Y79.643 E0.03436
G1 X210.174 Y76.396 E0.10180
G1 X210.319 Y75.304 E0.03454
G1 X210.694 Y74.246 E0.03518
G1 X211.051 Y74.378 F10800.000
G1 F1200
G1 X211.080 Y74.299 E0.00263
G1 X211.681 Y73.363 E0.03488
G1 X212.471 Y72.579 E0.03488
G1 X213.412 Y71.986 E0.03488
G1 X214.427 Y71.619 E0.03384
G1 X215.497 Y71.475 E0.03384
G1 X231.645 Y71.473 E0.50631
G1 X232.521 Y71.550 E0.02758
G1 X233.376 Y71.778 E0.02775
G1 X234.179 Y72.152 E0.02775
G1 X234.905 Y72.658 E0.02775
G1 X235.532 Y73.283 E0.02775
G1 X236.041 Y74.007 E0.02775
G1 X236.418 Y74.808 E0.02775
G1 X236.649 Y75.662 E0.02775
G1 X236.729 Y76.460 E0.02514
G1 X236.727 Y79.447 E0.09366
G1 X236.646 Y80.184 E0.02322
G1 X236.459 Y80.900 E0.02322
G1 X236.046 Y81.813 E0.03141
G1 X235.457 Y82.630 E0.03158
G1 X234.724 Y83.313 E0.03141
G1 X233.866 Y83.841 E0.03158
G1 X232.846 Y84.209 E0.03402
G1 X231.770 Y84.352 E0.03402
G1 X215.116 Y84.327 E0.52218
G1 X213.860 Y84.033 E0.04044
G1 X212.719 Y83.433 E0.04044
G1 X211.765 Y82.565 E0.04044
G1 X211.062 Y81.491 E0.04026
G1 X210.714 Y80.551 E0.03141
G1 X210.558 Y79.567 E0.03123
G1 X210.551 Y76.396 E0.09943
G1 X210.697 Y75.343 E0.03332
G1 X211.031 Y74.434 E0.03038
G1 X211.050 Y75.316 F10800.000
G1 F1200
G1 X211.441 Y74.347 E0.03277
G1 X212.035 Y73.498 E0.03250
G1 X212.973 Y72.642 E0.03980
G1 X214.084 Y72.077 E0.03908
G1 X215.223 Y71.850 E0.03640
G1 X232.126 Y71.854 E0.52999
G1 X233.074 Y72.037 E0.03028
G1 X233.982 Y72.428 E0.03100
G1 X235.202 Y73.452 E0.04993
G1 X235.994 Y74.675 E0.04567
G1 X236.355 Y76.088 E0.04573
G1 X236.268 Y80.312 E0.13248
G1 X235.882 Y81.395 E0.03605
G1 X235.245 Y82.327 E0.03539
G1 X234.395 Y83.122 E0.03650
G1 X233.197 Y83.748 E0.04239
G1 X232.056 Y83.977 E0.03646
G1 X215.036 Y83.965 E0.53367
G1 X213.761 Y83.623 E0.04138
G1 X212.668 Y82.949 E0.04026
G1 X211.751 Y81.977 E0.04190
G1 X211.153 Y80.818 E0.04087
G1 X210.924 Y79.643 E0.03753
G1 X211.049 Y75.376 E0.13385
G1 X211.413 Y75.424 F10800.000
G1 F1200
G1 X211.763 Y74.543 E0.02971
G1 X212.307 Y73.760 E0.02989
G1 X213.168 Y72.966 E0.03672
G1 X214.232 Y72.425 E0.03743
G1 X215.241 Y72.227 E0.03224
G1 X232.107 Y72.231 E0.52884
G1 X232.980 Y72.403 E0.02790
G1 X233.806 Y72.763 E0.02823
G1 X234.937 Y73.722 E0.04650
G1 X235.637 Y74.800 E0.04030
G1 X235.978 Y76.106 E0.04234
G1 X235.892 Y80.272 E0.13065
G1 X235.536 Y81.243 E0.03240
G1 X234.972 Y82.066 E0.03128
G1 X234.157 Y82.829 E0.03503
G1 X233.048 Y83.401 E0.03911
G1 X232.038 Y83.600 E0.03226
G1 X215.107 Y83.594 E0.53087
G1 X213.935 Y83.287 E0.03800
G1 X212.888 Y82.641 E0.03856
G1 X212.045 Y81.739 E0.03870
G1 X211.501 Y80.672 E0.03757
G1 X211.302 Y79.633 E0.03316
G1 X211.412 Y75.484 E0.13014
G1 X211.776 Y75.532 F10800.000
G1 F1200
G1 X212.105 Y74.703 E0.02797
G1 X212.578 Y74.024 E0.02594
G1 X213.403 Y73.262 E0.03522
G1 X214.377 Y72.774 E0.03413
G1 X215.258 Y72.604 E0.02815
G1 X232.088 Y72.608 E0.52768
G1 X232.885 Y72.769 E0.02549
G1 X233.627 Y73.096 E0.02545
G1 X234.670 Y73.989 E0.04304
G1 X235.303 Y74.977 E0.03680
G1 X235.600 Y76.124 E0.03715
G1 X235.515 Y80.232 E0.12881
G1 X235.192 Y81.087 E0.02869
G1 X234.700 Y81.804 E0.02726
G1 X233.919 Y82.535 E0.03354
G1 X232.901 Y83.053 E0.03579
G1 X232.021 Y83.223 E0.02812
G1 X215.177 Y83.223 E0.52813
G1 X214.106 Y82.950 E0.03464
G1 X213.144 Y82.363 E0.03534
G1 X212.369 Y81.544 E0.03537
G1 X211.850 Y80.525 E0.03585
G1 X211.679 Y79.622 E0.02880
G1 X211.775 Y75.592 E0.12640
G1 X212.139 Y75.637 F10800.000
G1 F1200
G1 X212.429 Y74.898 E0.02490
G1 X212.851 Y74.284 E0.02335
G1 X213.597 Y73.586 E0.03203
G1 X214.522 Y73.123 E0.03242
G1 X215.275 Y72.981 E0.02405
G1 X232.068 Y72.985 E0.52653
G1 X232.788 Y73.133 E0.02303
G1 X233.447 Y73.428 E0.02266
G1 X234.401 Y74.255 E0.03958
G1 X234.969 Y75.153 E0.03330
G1 X235.223 Y76.142 E0.03201
G1 X235.139 Y80.189 E0.12693
G1 X234.850 Y80.929 E0.02490
G1 X234.428 Y81.543 E0.02335
G1 X233.681 Y82.240 E0.03203
G1 X232.757 Y82.703 E0.03242
G1 X232.004 Y82.846 E0.02404
G1 X215.201 Y82.846 E0.52682
G1 X214.228 Y82.593 E0.03152
G1 X213.401 Y82.086 E0.03042
G1 X212.662 Y81.305 E0.03371
G1 X212.199 Y80.381 E0.03242
G1 X212.056 Y79.611 E0.02454
G1 X212.138 Y75.697 E0.12273
G1 X212.503 Y75.741 F10800.000
G1 F1200
G1 X212.753 Y75.091 E0.02185
G1 X213.124 Y74.545 E0.02069
G1 X213.834 Y73.881 E0.03046
G1 X214.663 Y73.474 E0.02899
G1 X215.292 Y73.358 E0.02003
G1 X232.049 Y73.362 E0.52541
G1 X232.653 Y73.486 E0.01932
G1 X233.267 Y73.761 E0.02110
G1 X234.132 Y74.520 E0.03609
G1 X234.612 Y75.278 E0.02812
G1 X234.845 Y76.162 E0.02867
G1 X234.775 Y80.086 E0.12303
G1 X234.525 Y80.736 E0.02185
G1 X234.154 Y81.282 E0.02069
G1 X233.445 Y81.945 E0.03046
G1 X232.615 Y82.353 E0.02899
G1 X231.987 Y82.469 E0.02003
G1 X215.226 Y82.469 E0.52551
G1 X214.354 Y82.236 E0.02831
G1 X213.622 Y81.780 E0.02703
G1 X212.957 Y81.069 E0.03052
G1 X212.549 Y80.239 E0.02900
G1 X212.434 Y79.599 E0.02038
G1 X212.502 Y75.801 E0.11911
G1 X212.868 Y75.843 F10800.000
G1 F1200
G1 X213.079 Y75.282 E0.01880
G1 X213.400 Y74.803 E0.01807
G1 X214.027 Y74.207 E0.02711
G1 X214.805 Y73.824 E0.02721
G1 X215.308 Y73.735 E0.01600
G1 X232.029 Y73.739 E0.52427
G1 X232.553 Y73.850 E0.01681
G1 X233.084 Y74.092 E0.01829
G1 X233.861 Y74.784 E0.03263
G1 X234.256 Y75.405 E0.02308
G1 X234.468 Y76.184 E0.02531
G1 X234.411 Y79.984 E0.11916
G1 X234.199 Y80.545 E0.01880
G1 X233.878 Y81.024 E0.01807
G1 X233.252 Y81.620 E0.02711
G1 X232.473 Y82.003 E0.02721
G1 X231.971 Y82.091 E0.01599
G1 X215.252 Y82.091 E0.52420
G1 X214.481 Y81.880 E0.02508
G1 X213.879 Y81.503 E0.02229
G1 X213.283 Y80.876 E0.02711
G1 X212.900 Y80.097 E0.02721
G1 X212.811 Y79.588 E0.01622
G1 X212.867 Y75.903 E0.11555
G1 X213.233 Y75.942 F10800.000
G1 F1200
G1 X213.407 Y75.469 E0.01578
G1 X213.676 Y75.061 E0.01535
G1 X214.264 Y74.501 E0.02545
G1 X214.943 Y74.176 E0.02359
G1 X215.323 Y74.112 E0.01208
G1 X232.007 Y74.116 E0.52314
G1 X232.451 Y74.214 E0.01423
G1 X232.899 Y74.421 E0.01548
G1 X233.589 Y75.046 E0.02920
G1 X233.901 Y75.535 E0.01818
G1 X234.090 Y76.208 E0.02191
G1 X234.046 Y79.885 E0.11531
G1 X233.872 Y80.357 E0.01578
G1 X233.602 Y80.766 E0.01535
G1 X233.014 Y81.326 E0.02545
G1 X232.336 Y81.651 E0.02359
G1 X231.956 Y81.714 E0.01207
G1 X215.279 Y81.714 E0.52289
G1 X214.611 Y81.525 E0.02179
G1 X214.136 Y81.226 E0.01760
G1 X213.577 Y80.638 E0.02542
G1 X213.252 Y79.960 E0.02359
G1 X213.188 Y79.576 E0.01220
G1 X213.232 Y76.002 E0.11208
G1 X213.599 Y76.038 F10800.000
G1 F1200
G1 X213.736 Y75.654 E0.01278
G1 X213.956 Y75.314 E0.01269
G1 X214.456 Y74.827 E0.02189
G1 X215.079 Y74.529 E0.02167
G1 X215.335 Y74.489 E0.00813
G1 X231.985 Y74.493 E0.52203
G1 X232.345 Y74.576 E0.01157
G1 X232.710 Y74.749 E0.01268
G1 X233.315 Y75.306 E0.02580
G1 X233.547 Y75.668 E0.01347
G1 X233.713 Y76.233 E0.01847
G1 X233.680 Y79.789 E0.11148
G1 X233.542 Y80.172 E0.01278
G1 X233.323 Y80.512 E0.01269
G1 X232.823 Y80.999 E0.02189
G1 X232.199 Y81.298 E0.02167
G1 X231.943 Y81.337 E0.00812
G1 X215.307 Y81.337 E0.52160
G1 X214.744 Y81.171 E0.01842
G1 X214.390 Y80.947 E0.01314
G1 X213.903 Y80.447 E0.02188
G1 X213.605 Y79.823 E0.02167
G1 X213.565 Y79.565 E0.00818
G1 X213.598 Y76.098 E0.10872
G1 F8640
G1 X213.736 Y75.654 E-0.10731
G1 X213.956 Y75.314 E-0.09342
G1 X214.456 Y74.827 E-0.16121
G1 X215.079 Y74.529 E-0.15960
G1 X215.335 Y74.489 E-0.05985
G1 X216.109 Y74.490 E-0.17860
G1 E-0.04000 F2100.00000
G1 Z0.800 F10800.000
G1 X215.169 Y74.896
G1 Z0.200
G1 E0.80000 F2100.00000
G1 F1200
G1 X215.351 Y74.867 E0.00579
G1 X231.963 Y74.870 E0.52086
G1 X232.201 Y74.925 E0.00767
G1 X232.521 Y75.077 E0.01109
G1 X233.040 Y75.565 E0.02233
G1 X233.195 Y75.805 E0.00898
G1 X233.336 Y76.261 E0.01496
G1 X233.314 Y79.692 E0.10756
G1 X233.195 Y80.025 E0.01108
G1 X233.042 Y80.261 E0.00882
G1 X232.626 Y80.676 E0.01842
G1 X232.110 Y80.931 E0.01806
G1 X231.927 Y80.960 E0.00579
G1 X215.337 Y80.960 E0.52018
G1 X214.881 Y80.820 E0.01496
G1 X214.642 Y80.666 E0.00892
G1 X214.227 Y80.250 E0.01841
G1 X213.972 Y79.734 E0.01806
G1 X213.942 Y79.551 E0.00580
G1 X213.965 Y76.135 E0.10711
G1 X214.084 Y75.802 E0.01108
G1 X214.237 Y75.566 E0.00882
G1 X214.652 Y75.151 E0.01842
G1 X215.115 Y74.923 E0.01618
G1 X215.260 Y75.262 F10800.000
G1 F1200
G1 X215.369 Y75.244 E0.00345
G1 X231.941 Y75.247 E0.51962
G1 X232.058 Y75.275 E0.00377
G1 X232.331 Y75.404 E0.00947
G1 X232.762 Y75.821 E0.01880
G1 X232.846 Y75.948 E0.00479
G1 X232.959 Y76.292 E0.01135
G1 X232.948 Y79.595 E0.10356
G1 X232.847 Y79.876 E0.00936
G1 X232.761 Y80.008 E0.00492
G1 X232.382 Y80.387 E0.01682
G1 X232.018 Y80.564 E0.01270
G1 X231.910 Y80.583 E0.00345
G1 X215.369 Y80.583 E0.51864
G1 X215.024 Y80.470 E0.01136
G1 X214.895 Y80.386 E0.00484
G1 X214.516 Y80.006 E0.01682
G1 X214.338 Y79.642 E0.01270
G1 X214.320 Y79.534 E0.00344
G1 X214.330 Y76.232 E0.10355
G1 X214.431 Y75.951 E0.00936
G1 X214.517 Y75.819 E0.00492
G1 X214.896 Y75.440 E0.01682
G1 X215.206 Y75.289 E0.01081
G1 X215.358 Y75.627 F10800.000
G1 F1200
G1 X231.921 Y75.627 E0.51933
G1 X232.139 Y75.730 E0.00757
G1 X232.482 Y76.073 E0.01522
G1 X232.582 Y76.328 E0.00856
G1 X232.582 Y79.499 E0.09943
G1 X232.482 Y79.753 E0.00856
G1 X232.139 Y80.097 E0.01522
G1 X231.889 Y80.206 E0.00856
G1 X215.404 Y80.206 E0.51689
G1 X215.149 Y80.107 E0.00856
G1 X214.806 Y79.763 E0.01522
G1 X214.697 Y79.513 E0.00856
G1 X214.697 Y76.328 E0.09987
G1 X214.796 Y76.073 E0.00856
G1 X215.139 Y75.730 E0.01522
G1 X215.303 Y75.653 E0.00569
G1 X215.376 Y76.026 F10800.000
G1 F1200
G1 X215.446 Y75.998 E0.00235
G1 X231.833 Y75.998 E0.51382
G1 X231.902 Y76.026 E0.00235
G1 X232.176 Y76.300 E0.01215
G1 X232.205 Y76.370 E0.00235
G1 X232.205 Y79.457 E0.09680
G1 X232.176 Y79.526 E0.00235
G1 X231.902 Y79.800 E0.01215
G1 X231.833 Y79.829 E0.00235
G1 X215.446 Y79.829 E0.51382
G1 X215.376 Y79.800 E0.00235
G1 X215.102 Y79.526 E0.01215
G1 X215.074 Y79.457 E0.00235
G1 X215.074 Y76.370 E0.09680
G1 X215.102 Y76.300 E0.00235
G1 X215.334 Y76.069 E0.01027
G1 X215.561 Y76.375 F10800.000
G1 F1200
G1 X231.717 Y76.375 E0.50657
G1 X231.828 Y76.485 E0.00490
G1 X231.828 Y79.341 E0.08955
G1 X231.717 Y79.452 E0.00490
G1 X215.561 Y79.452 E0.50657
G1 X215.451 Y79.341 E0.00490
G1 X215.451 Y76.485 E0.08955
G1 X215.519 Y76.417 E0.00302
G1 X215.849 Y76.773 F10800.000
G1 F1200
G1 X231.429 Y76.773 E0.48850
G1 X231.429 Y79.053 E0.07149
G1 X215.849 Y79.053 E0.48850
G1 X215.849 Y76.833 E0.06961
G1 X216.249 Y76.793 F10800.000
G1 X216.226 Y77.150
G1 F1200
G1 X231.052 Y77.150 E0.46485
G1 X231.052 Y78.676 E0.04784
G1 X216.226 Y78.676 E0.46485
G1 X216.226 Y77.210 E0.04596
G1 X216.339 Y77.775 F10800.000
G1 F1200
G1 X216.958 Y78.394 E0.02835
G1 X217.509 Y78.394 E0.01784
G1 X216.549 Y77.433 E0.04398
G1 X217.100 Y77.433 E0.01784
G1 X218.060 Y78.394 E0.04398
G1 X218.611 Y78.394 E0.01784
G1 X217.651 Y77.433 E0.04398
G1 X218.201 Y77.433 E0.01784
G1 X219.162 Y78.394 E0.04398
G1 X219.713 Y78.394 E0.01784
G1 X218.752 Y77.433 E0.04398
G1 X219.303 Y77.433 E0.01784
G1 X220.263 Y78.394 E0.04398
G1 X220.814 Y78.394 E0.01784
G1 X219.854 Y77.433 E0.04398
G1 X220.405 Y77.433 E0.01784
G1 X221.365 Y78.394 E0.04398
G1 X221.916 Y78.394 E0.01784
G1 X220.956 Y77.433 E0.04398
G1 X221.507 Y77.433 E0.01784
G1 X222.467 Y78.394 E0.04398
G1 X223.018 Y78.394 E0.01784
G1 X222.057 Y77.433 E0.04398
G1 X222.608 Y77.433 E0.01784
G1 X223.568 Y78.394 E0.04398
G1 X224.119 Y78.394 E0.01784
G1 X223.159 Y77.433 E0.04398
G1 X223.710 Y77.433 E0.01784
G1 X224.670 Y78.394 E0.04398
G1 X225.221 Y78.394 E0.01784
G1 X224.261 Y77.433 E0.04398
G1 X224.812 Y77.433 E0.01784
G1 X225.772 Y78.394 E0.04398
G1 X226.323 Y78.394 E0.01784
G1 X225.362 Y77.433 E0.04398
G1 X225.913 Y77.433 E0.01784
G1 X226.874 Y78.394 E0.04398
G1 X227.424 Y78.394 E0.01784
G1 X226.464 Y77.433 E0.04398
G1 X227.015 Y77.433 E0.01784
G1 X227.975 Y78.394 E0.04398
G1 X228.526 Y78.394 E0.01784
G1 X227.566 Y77.433 E0.04398
G1 X228.117 Y77.433 E0.01784
G1 X229.077 Y78.394 E0.04398
G1 X229.628 Y78.394 E0.01784
G1 X228.668 Y77.433 E0.04398
G1 X229.218 Y77.433 E0.01784
G1 X230.179 Y78.394 E0.04398
G1 X230.730 Y78.394 E0.01784
G1 X229.769 Y77.433 E0.04398
G1 X230.320 Y77.433 E0.01784
G1 X230.939 Y78.052 E0.02835
M106 S255
;BEFORE_LAYER_CHANGE
G92 E0.0
;0.5


G1 F8640
G1 X230.320 Y77.433 E-0.20212
G1 X229.769 Y77.433 E-0.12719
G1 X230.730 Y78.394 E-0.31357
G1 X230.222 Y78.394 E-0.11712
G1 E-0.04000 F2100.00000
G1 Z0.800 F10800.000
;AFTER_LAYER_CHANGE
;0.5
M104 S210 ; set temperature
G1 X232.998 Y84.559
G1 Z0.500
G1 E0.80000 F2100.00000
G1 F900
G1 X231.799 Y84.729 E0.05370
G1 X215.086 Y84.703 E0.74134
G1 X213.760 Y84.398 E0.06031
G1 X212.551 Y83.776 E0.06031
G1 X211.533 Y82.874 E0.06031
G1 X210.769 Y81.749 E0.06031
G1 X210.370 Y80.723 E0.04886
G1 X210.185 Y79.643 E0.04860
G1 X210.174 Y76.396 E0.14402
G1 X210.319 Y75.304 E0.04886
G1 X210.714 Y74.190 E0.05242
G1 X211.339 Y73.187 E0.05242
G1 X212.165 Y72.342 E0.05242
G1 X213.153 Y71.694 E0.05242
G1 X214.275 Y71.269 E0.05319
G1 X215.462 Y71.099 E0.05319
G1 X231.645 Y71.096 E0.71780
G1 X232.582 Y71.178 E0.04171
G1 X233.496 Y71.421 E0.04197
G1 X234.355 Y71.818 E0.04197
G1 X235.128 Y72.354 E0.04171
G1 X235.798 Y73.014 E0.04171
G1 X236.348 Y73.784 E0.04197
G1 X236.754 Y74.632 E0.04171
G1 X237.011 Y75.543 E0.04197
G1 X237.105 Y76.432 E0.03967
G1 X237.104 Y79.454 E0.13403
G1 X237.019 Y80.240 E0.03507
G1 X236.822 Y81.006 E0.03507
G1 X236.390 Y81.969 E0.04682
G1 X235.782 Y82.832 E0.04682
G1 X235.019 Y83.561 E0.04682
G1 X234.125 Y84.133 E0.04707
G1 X233.054 Y84.538 E0.05078
G1 F8640
G1 X231.799 Y84.729 E-0.29307
G1 X229.777 Y84.726 E-0.46693
G1 E-0.04000 F2100.00000
G1 Z1.100 F10800.000
G1 X230.854 Y78.478
G1 Z0.500
G1 E0.80000 F2100.00000
M204 S800
G1 F900
G1 X216.425 Y78.478 E0.78396
G1 X216.425 Y77.349 E0.06133
G1 X230.854 Y77.349 E0.78396
