; generated by PrusaSlicer 2.1.1 on 2020-10-05 at 09:16:46 UTC

; 

; external perimeters extrusion width = 0.60mm
; perimeters extrusion width = 0.50mm
; infill extrusion width = 0.50mm
; solid infill extrusion width = 0.50mm
; top infill extrusion width = 0.45mm
; first layer extrusion width = 0.42mm

M73 P0 R220
M73 Q0 S221
M201 X1000 Y1000 Z200 E5000 ; sets maximum accelerations, mm/sec^2
M203 X200 Y200 Z12 E120 ; sets maximum feedrates, mm/sec
M204 P1250 R1250 T1250 ; sets acceleration (P, T) and retract acceleration (R), mm/sec^2
M205 X8.00 Y8.00 Z0.40 E4.50 ; sets the jerk limits, mm/sec
M205 S0 T0 ; sets the minimum extruding and travel feed rate, mm/sec
M107
M862.3 P "MK3S" ; printer model check
M862.1 P0.4 ; nozzle diameter check
M115 U3.9.1 ; tell printer latest fw version
G90 ; use absolute coordinates
M83 ; extruder relative mode
M104 S230 ; set extruder temp
M140 S85 ; set bed temp
M190 S85 ; wait for bed temp
M109 S230 ; wait for extruder temp
G28 W ; home all without mesh bed level
G80 ; mesh bed leveling
G1 Y-3.0 F1000.0 ; go outside print area
G92 E0.0
G1 X60.0 E9.0 F1000.0 ; intro line
M73 Q0 S221
M73 P0 R220
G1 X100.0 E12.5 F1000.0 ; intro line
G92 E0.0
M221 S95
G21 ; set units to millimeters
G90 ; use absolute coordinates
M83 ; use relative distances for extrusion
M900 K0.08 ; Filament gcode LA 1.5
M900 K45 ; Filament gcode LA 1.0
;BEFORE_LAYER_CHANGE
G92 E0.0
;0.2


G1 E-1.40000 F2100.00000
G1 Z0.200 F10800.000
;AFTER_LAYER_CHANGE
;0.2
G1 Z0.400
G1 X9.371 Y27.904
G1 Z0.200
G1 E1.40000 F2100.00000
M204 S1000
G1 F1200
G1 X9.998 Y27.811 E0.01987
G1 X240.004 Y27.811 E7.21167
G1 X240.837 Y27.978 E0.02664
G1 X241.542 Y28.447 E0.02653
G1 X242.017 Y29.151 E0.02664
G1 X242.188 Y29.983 E0.02664
G1 X242.188 Y180.015 E4.70413
G1 X242.119 Y180.546 E0.01680
G1 X241.923 Y181.045 E0.01680
G1 X241.612 Y181.481 E0.01680
G1 X241.206 Y181.826 E0.01669
G1 X240.629 Y182.096 E0.01998
G1 X240.002 Y182.189 E0.01987
G1 X9.993 Y182.189 E7.21179
G1 X9.461 Y182.121 E0.01680
G1 X8.958 Y181.925 E0.01692
G1 X8.522 Y181.614 E0.01680
G1 X8.174 Y181.206 E0.01680
G1 X7.905 Y180.633 E0.01987
G1 X7.811 Y180.006 E0.01987
G1 X7.811 Y29.993 E4.70356
G1 X7.879 Y29.461 E0.01680
G1 X8.075 Y28.958 E0.01692
G1 X8.386 Y28.522 E0.01680
G1 X8.794 Y28.174 E0.01680
G1 X9.317 Y27.929 E0.01810
G1 F8640
G1 X9.998 Y27.811 E-0.15964
G1 X15.066 Y27.811 E-1.17036
G1 E-0.07000 F2100.00000
G1 Z0.400 F10800.000
G1 X10.587 Y30.587
G1 Z0.200
G1 E1.40000 F2100.00000
G1 F1200
G1 X239.413 Y30.587 E7.17467
G1 X239.413 Y179.413 E4.66633
M73 Q0 S220
M73 P0 R219
G1 X10.587 Y179.413 E7.17467
G1 X10.587 Y30.647 E4.66445
G1 X10.210 Y30.210 F10800.000
G1 F1200
G1 X239.790 Y30.210 E7.19832
G1 X239.790 Y179.790 E4.68998
G1 X10.210 Y179.790 E7.19832
G1 X10.210 Y30.270 E4.68809
G1 X10.603 Y30.287 F10800.000
G1 F8640
G1 X15.970 Y30.268 E-1.33000
G1 E-0.07000 F2100.00000
G1 Z0.400 F10800.000
G1 X239.300 Y30.870
G1 Z0.200
G1 E1.40000 F2100.00000
G1 F1200
G1 X10.870 Y30.870 E7.16554
M73 Q1 S219
M73 P1 R218
G1 X10.870 Y31.247 E0.01183
G1 X239.130 Y31.247 E7.16021
G1 X239.130 Y31.625 E0.01183
G1 X10.870 Y31.624 E7.16021
G1 X10.870 Y32.002 E0.01183
G1 X239.130 Y32.002 E7.16021
G1 X239.130 Y32.379 E0.01183
G1 X10.870 Y32.379 E7.16021
G1 X10.870 Y32.756 E0.01183
G1 X239.130 Y32.756 E7.16021
G1 X239.130 Y33.134 E0.01183
G1 X10.870 Y33.134 E7.16021
M73 Q1 S218
M73 P1 R217
G1 X10.870 Y33.511 E0.01183
G1 X239.130 Y33.511 E7.16021
G1 X239.130 Y33.888 E0.01183
G1 X10.870 Y33.888 E7.16021
G1 X10.870 Y34.265 E0.01183
G1 X239.130 Y34.265 E7.16021
G1 X239.130 Y34.643 E0.01183
G1 X10.870 Y34.643 E7.16021
G1 X10.870 Y35.020 E0.01183
G1 X239.130 Y35.020 E7.16021
G1 X239.130 Y35.397 E0.01183
G1 X10.870 Y35.397 E7.16021
M73 Q2 S217
M73 P2 R215
G1 X10.870 Y35.774 E0.01183
G1 X239.130 Y35.774 E7.16021
G1 X239.130 Y36.152 E0.01183
G1 X10.870 Y36.152 E7.16021
G1 X10.870 Y36.529 E0.01183
G1 X239.130 Y36.529 E7.16021
G1 X239.130 Y36.906 E0.01183
G1 X10.870 Y36.906 E7.16021
G1 X10.870 Y37.283 E0.01183
G1 X239.130 Y37.283 E7.16021
G1 X239.130 Y37.661 E0.01183
G1 X10.870 Y37.661 E7.16021
M73 Q2 S215
M73 P2 R214
G1 X10.870 Y38.038 E0.01183
G1 X239.130 Y38.038 E7.16021
G1 X239.130 Y38.415 E0.01183
G1 X10.870 Y38.415 E7.16021
G1 X10.870 Y38.792 E0.01183
G1 X239.130 Y38.792 E7.16021
G1 X239.130 Y39.170 E0.01183
G1 X10.870 Y39.170 E7.16021
G1 X10.870 Y39.547 E0.01183
G1 X239.130 Y39.547 E7.16021
G1 X239.130 Y39.924 E0.01183
G1 X10.870 Y39.924 E7.16021
M73 Q3 S214
M73 P3 R213
G1 X10.870 Y40.301 E0.01183
G1 X239.130 Y40.301 E7.16021
G1 X239.130 Y40.679 E0.01183
G1 X10.870 Y40.679 E7.16021
G1 X10.870 Y41.056 E0.01183
G1 X239.130 Y41.056 E7.16021
G1 X239.130 Y41.433 E0.01183
G1 X10.870 Y41.433 E7.16021
G1 X10.870 Y41.810 E0.01183
G1 X239.130 Y41.810 E7.16021
G1 X239.130 Y42.188 E0.01183
G1 X10.870 Y42.188 E7.16021
M73 Q3 S213
M73 P3 R212
G1 X10.870 Y42.565 E0.01183
G1 X239.130 Y42.565 E7.16021
G1 X239.130 Y42.942 E0.01183
G1 X10.870 Y42.942 E7.16021
G1 X10.870 Y43.319 E0.01183
G1 X239.130 Y43.319 E7.16021
G1 X239.130 Y43.697 E0.01183
G1 X10.870 Y43.697 E7.16021
G1 X10.870 Y44.074 E0.01183
G1 X239.130 Y44.074 E7.16021
G1 X239.130 Y44.451 E0.01183
G1 X10.870 Y44.451 E7.16021
M73 Q4 S212
M73 P4 R211
G1 X10.870 Y44.828 E0.01183
G1 X239.130 Y44.828 E7.16021
G1 X239.130 Y45.206 E0.01183
G1 X10.870 Y45.206 E7.16021
G1 X10.870 Y45.583 E0.01183
G1 X239.130 Y45.583 E7.16021
G1 X239.130 Y45.960 E0.01183
G1 X10.870 Y45.960 E7.16021
G1 X10.870 Y46.337 E0.01183
G1 X239.130 Y46.337 E7.16021
G1 X239.130 Y46.715 E0.01183
G1 X10.870 Y46.715 E7.16021
M73 Q4 S211
M73 P4 R210
G1 X10.870 Y47.092 E0.01183
G1 X239.130 Y47.092 E7.16021
G1 X239.130 Y47.469 E0.01183
G1 X10.870 Y47.469 E7.16021
G1 X10.870 Y47.846 E0.01183
G1 X239.130 Y47.846 E7.16021
G1 X239.130 Y48.224 E0.01183
G1 X10.870 Y48.224 E7.16021
G1 X10.870 Y48.601 E0.01183
G1 X239.130 Y48.601 E7.16021
G1 X239.130 Y48.978 E0.01183
G1 X10.870 Y48.978 E7.16021
M73 Q5 S210
M73 P5 R209
G1 X10.870 Y49.355 E0.01183
G1 X239.130 Y49.355 E7.16021
G1 X239.130 Y49.733 E0.01183
G1 X10.870 Y49.733 E7.16021
G1 X10.870 Y50.110 E0.01183
G1 X239.130 Y50.110 E7.16021
G1 X239.130 Y50.487 E0.01183
G1 X10.870 Y50.487 E7.16021
G1 X10.870 Y50.864 E0.01183
G1 X239.130 Y50.864 E7.16021
G1 X239.130 Y51.242 E0.01183
G1 X10.870 Y51.242 E7.16021
M73 Q5 S209
M73 P5 R207
G1 X10.870 Y51.619 E0.01183
G1 X239.130 Y51.619 E7.16021
G1 X239.130 Y51.996 E0.01183
G1 X10.870 Y51.996 E7.16021
G1 X10.870 Y52.373 E0.01183
G1 X239.130 Y52.373 E7.16021
G1 X239.130 Y52.751 E0.01183
G1 X10.870 Y52.751 E7.16021
G1 X10.870 Y53.128 E0.01183
G1 X239.130 Y53.128 E7.16021
G1 X239.130 Y53.505 E0.01183
G1 X10.870 Y53.505 E7.16021
M73 Q6 S207
M73 P6 R206
G1 X10.870 Y53.882 E0.01183
G1 X239.130 Y53.882 E7.16021
G1 X239.130 Y54.260 E0.01183
G1 X10.870 Y54.260 E7.16021
G1 X10.870 Y54.637 E0.01183
G1 X239.130 Y54.637 E7.16021
G1 X239.130 Y55.014 E0.01183
G1 X10.870 Y55.014 E7.16021
G1 X10.870 Y55.391 E0.01183
G1 X239.130 Y55.391 E7.16021
G1 X239.130 Y55.769 E0.01183
G1 X10.870 Y55.769 E7.16021
M73 Q6 S206
M73 P6 R205
G1 X10.870 Y56.146 E0.01183
G1 X239.130 Y56.146 E7.16021
G1 X239.130 Y56.523 E0.01183
G1 X10.870 Y56.523 E7.16021
G1 X10.870 Y56.900 E0.01183
G1 X239.130 Y56.900 E7.16021
G1 X239.130 Y57.278 E0.01183
G1 X10.870 Y57.278 E7.16021
G1 X10.870 Y57.655 E0.01183
G1 X239.130 Y57.655 E7.16021
G1 X239.130 Y58.032 E0.01183
G1 X10.870 Y58.032 E7.16021
M73 Q7 S205
M73 P7 R204
G1 X10.870 Y58.409 E0.01183
G1 X239.130 Y58.409 E7.16021
G1 X239.130 Y58.787 E0.01183
G1 X10.870 Y58.787 E7.16021
G1 X10.870 Y59.164 E0.01183
G1 X239.130 Y59.164 E7.16021
G1 X239.130 Y59.541 E0.01183
G1 X10.870 Y59.541 E7.16021
G1 X10.870 Y59.918 E0.01183
G1 X239.130 Y59.918 E7.16021
G1 X239.130 Y60.296 E0.01183
G1 X10.870 Y60.296 E7.16021
M73 Q7 S204
M73 P7 R203
G1 X10.870 Y60.673 E0.01183
G1 X239.130 Y60.673 E7.16021
G1 X239.130 Y61.050 E0.01183
G1 X10.870 Y61.050 E7.16021
G1 X10.870 Y61.427 E0.01183
G1 X239.130 Y61.427 E7.16021
G1 X239.130 Y61.805 E0.01183
G1 X10.870 Y61.805 E7.16021
G1 X10.870 Y62.182 E0.01183
G1 X239.130 Y62.182 E7.16021
G1 X239.130 Y62.559 E0.01183
G1 X10.870 Y62.559 E7.16021
M73 Q8 S203
M73 P8 R202
G1 X10.870 Y62.936 E0.01183
G1 X239.130 Y62.936 E7.16021
G1 X239.130 Y63.314 E0.01183
G1 X10.870 Y63.314 E7.16021
G1 X10.870 Y63.691 E0.01183
G1 X239.130 Y63.691 E7.16021
G1 X239.130 Y64.068 E0.01183
G1 X10.870 Y64.068 E7.16021
G1 X10.870 Y64.445 E0.01183
G1 X239.130 Y64.445 E7.16021
G1 X239.130 Y64.823 E0.01183
G1 X10.870 Y64.823 E7.16021
M73 Q8 S202
M73 P8 R201
G1 X10.870 Y65.200 E0.01183
G1 X239.130 Y65.200 E7.16021
G1 X239.130 Y65.577 E0.01183
G1 X10.870 Y65.577 E7.16021
G1 X10.870 Y65.954 E0.01183
G1 X239.130 Y65.954 E7.16021
G1 X239.130 Y66.332 E0.01183
G1 X10.870 Y66.332 E7.16021
G1 X10.870 Y66.709 E0.01183
G1 X239.130 Y66.709 E7.16021
G1 X239.130 Y67.086 E0.01183
G1 X10.870 Y67.086 E7.16021
M73 Q9 S201
M73 P9 R199
G1 X10.870 Y67.463 E0.01183
G1 X239.130 Y67.463 E7.16021
G1 X239.130 Y67.841 E0.01183
G1 X10.870 Y67.841 E7.16021
G1 X10.870 Y68.218 E0.01183
G1 X239.130 Y68.218 E7.16021
G1 X239.130 Y68.595 E0.01183
G1 X10.870 Y68.595 E7.16021
G1 X10.870 Y68.972 E0.01183
G1 X239.130 Y68.972 E7.16021
G1 X239.130 Y69.350 E0.01183
G1 X10.870 Y69.350 E7.16021
M73 Q9 S199
M73 P9 R198
G1 X10.870 Y69.727 E0.01183
G1 X239.130 Y69.727 E7.16021
G1 X239.130 Y70.104 E0.01183
G1 X10.870 Y70.104 E7.16021
G1 X10.870 Y70.481 E0.01183
G1 X239.130 Y70.481 E7.16021
G1 X239.130 Y70.859 E0.01183
G1 X10.870 Y70.859 E7.16021
G1 X10.870 Y71.236 E0.01183
G1 X239.130 Y71.236 E7.16021
G1 X239.130 Y71.613 E0.01183
G1 X10.870 Y71.613 E7.16021
M73 Q10 S198
M73 P10 R197
G1 X10.870 Y71.990 E0.01183
G1 X239.130 Y71.990 E7.16021
G1 X239.130 Y72.368 E0.01183
G1 X10.870 Y72.368 E7.16021
G1 X10.870 Y72.745 E0.01183
G1 X239.130 Y72.745 E7.16021
G1 X239.130 Y73.122 E0.01183
G1 X10.870 Y73.122 E7.16021
G1 X10.870 Y73.499 E0.01183
G1 X239.130 Y73.499 E7.16021
G1 X239.130 Y73.877 E0.01183
G1 X10.870 Y73.877 E7.16021
M73 Q10 S197
M73 P10 R196
G1 X10.870 Y74.254 E0.01183
G1 X239.130 Y74.254 E7.16021
G1 X239.130 Y74.631 E0.01183
G1 X10.870 Y74.631 E7.16021
G1 X10.870 Y75.008 E0.01183
G1 X239.130 Y75.008 E7.16021
G1 X239.130 Y75.386 E0.01183
G1 X10.870 Y75.386 E7.16021
G1 X10.870 Y75.763 E0.01183
G1 X239.130 Y75.763 E7.16021
G1 X239.130 Y76.140 E0.01183
G1 X10.870 Y76.140 E7.16021
M73 Q11 S196
M73 P11 R195
G1 X10.870 Y76.517 E0.01183
G1 X239.130 Y76.517 E7.16021
G1 X239.130 Y76.895 E0.01183
G1 X10.870 Y76.895 E7.16021
G1 X10.870 Y77.272 E0.01183
G1 X239.130 Y77.272 E7.16021
G1 X239.130 Y77.649 E0.01183
G1 X10.870 Y77.649 E7.16021
G1 X10.870 Y78.026 E0.01183
G1 X239.130 Y78.027 E7.16021
G1 X239.130 Y78.404 E0.01183
G1 X10.870 Y78.404 E7.16021
M73 Q11 S195
M73 P11 R194
G1 X10.870 Y78.781 E0.01183
G1 X239.130 Y78.781 E7.16021
G1 X239.130 Y79.158 E0.01183
G1 X10.870 Y79.158 E7.16021
G1 X10.870 Y79.536 E0.01183
G1 X239.130 Y79.536 E7.16021
G1 X239.130 Y79.913 E0.01183
G1 X10.870 Y79.913 E7.16021
G1 X10.870 Y80.290 E0.01183
G1 X239.130 Y80.290 E7.16021
G1 X239.130 Y80.667 E0.01183
G1 X10.870 Y80.667 E7.16021
M73 Q12 S194
M73 P12 R193
G1 X10.870 Y81.045 E0.01183
G1 X239.130 Y81.045 E7.16021
G1 X239.130 Y81.422 E0.01183
G1 X10.870 Y81.422 E7.16021
G1 X10.870 Y81.799 E0.01183
G1 X239.130 Y81.799 E7.16021
G1 X239.130 Y82.176 E0.01183
G1 X10.870 Y82.176 E7.16021
G1 X10.870 Y82.554 E0.01183
G1 X239.130 Y82.554 E7.16021
G1 X239.130 Y82.931 E0.01183
G1 X10.870 Y82.931 E7.16021
M73 Q12 S193
M73 P12 R191
G1 X10.870 Y83.308 E0.01183
G1 X239.130 Y83.308 E7.16021
G1 X239.130 Y83.685 E0.01183
G1 X10.870 Y83.685 E7.16021
G1 X10.870 Y84.063 E0.01183
G1 X239.130 Y84.063 E7.16021
G1 X239.130 Y84.440 E0.01183
G1 X10.870 Y84.440 E7.16021
G1 X10.870 Y84.817 E0.01183
G1 X239.130 Y84.817 E7.16021
G1 X239.130 Y85.194 E0.01183
G1 X10.870 Y85.194 E7.16021
M73 Q13 S191
M73 P13 R190
G1 X10.870 Y85.572 E0.01183
G1 X239.130 Y85.572 E7.16021
G1 X239.130 Y85.949 E0.01183
G1 X10.870 Y85.949 E7.16021
G1 X10.870 Y86.326 E0.01183
G1 X239.130 Y86.326 E7.16021
G1 X239.130 Y86.703 E0.01183
G1 X10.870 Y86.703 E7.16021
G1 X10.870 Y87.081 E0.01183
G1 X239.130 Y87.081 E7.16021
G1 X239.130 Y87.458 E0.01183
G1 X10.870 Y87.458 E7.16021
M73 Q13 S190
M73 P14 R189
G1 X10.870 Y87.835 E0.01183
G1 X239.130 Y87.835 E7.16021
G1 X239.130 Y88.212 E0.01183
G1 X10.870 Y88.212 E7.16021
G1 X10.870 Y88.590 E0.01183
G1 X239.130 Y88.590 E7.16021
G1 X239.130 Y88.967 E0.01183
G1 X10.870 Y88.967 E7.16021
G1 X10.870 Y89.344 E0.01183
G1 X239.130 Y89.344 E7.16021
G1 X239.130 Y89.721 E0.01183
G1 X10.870 Y89.721 E7.16021
M73 Q14 S189
M73 P14 R188
G1 X10.870 Y90.099 E0.01183
G1 X239.130 Y90.099 E7.16021
G1 X239.130 Y90.476 E0.01183
G1 X10.870 Y90.476 E7.16021
G1 X10.870 Y90.853 E0.01183
G1 X239.130 Y90.853 E7.16021
G1 X239.130 Y91.230 E0.01183
G1 X10.870 Y91.230 E7.16021
G1 X10.870 Y91.608 E0.01183
G1 X239.130 Y91.608 E7.16021
G1 X239.130 Y91.985 E0.01183
G1 X10.870 Y91.985 E7.16021
M73 Q15 S188
M73 P15 R187
G1 X10.870 Y92.362 E0.01183
G1 X239.130 Y92.362 E7.16021
G1 X239.130 Y92.739 E0.01183
G1 X10.870 Y92.739 E7.16021
G1 X10.870 Y93.117 E0.01183
G1 X239.130 Y93.117 E7.16021
G1 X239.130 Y93.494 E0.01183
G1 X10.870 Y93.494 E7.16021
G1 X10.870 Y93.871 E0.01183
G1 X239.130 Y93.871 E7.16021
G1 X239.130 Y94.248 E0.01183
G1 X10.870 Y94.248 E7.16021
M73 Q15 S187
M73 P15 R186
G1 X10.870 Y94.626 E0.01183
G1 X239.130 Y94.626 E7.16021
G1 X239.130 Y95.003 E0.01183
G1 X10.870 Y95.003 E7.16021
G1 X10.870 Y95.380 E0.01183
G1 X239.130 Y95.380 E7.16021
G1 X239.130 Y95.757 E0.01183
G1 X10.870 Y95.757 E7.16021
G1 X10.870 Y96.135 E0.01183
G1 X239.130 Y96.135 E7.16021
G1 X239.130 Y96.512 E0.01183
G1 X10.870 Y96.512 E7.16021
M73 Q16 S186
M73 P16 R185
G1 X10.870 Y96.889 E0.01183
G1 X239.130 Y96.889 E7.16021
G1 X239.130 Y97.266 E0.01183
G1 X10.870 Y97.266 E7.16021
G1 X10.870 Y97.644 E0.01183
G1 X239.130 Y97.644 E7.16021
G1 X239.130 Y98.021 E0.01183
G1 X10.870 Y98.021 E7.16021
G1 X10.870 Y98.398 E0.01183
G1 X239.130 Y98.398 E7.16021
G1 X239.130 Y98.775 E0.01183
G1 X10.870 Y98.775 E7.16021
M73 Q16 S185
M73 P16 R183
G1 X10.870 Y99.153 E0.01183
G1 X239.130 Y99.153 E7.16021
G1 X239.130 Y99.530 E0.01183
G1 X10.870 Y99.530 E7.16021
G1 X10.870 Y99.907 E0.01183
G1 X239.130 Y99.907 E7.16021
G1 X239.130 Y100.284 E0.01183
G1 X10.870 Y100.284 E7.16021
G1 X10.870 Y100.662 E0.01183
G1 X239.130 Y100.662 E7.16021
G1 X239.130 Y101.039 E0.01183
G1 X10.870 Y101.039 E7.16021
M73 Q17 S183
M73 P17 R182
G1 X10.870 Y101.416 E0.01183
G1 X239.130 Y101.416 E7.16021
G1 X239.130 Y101.793 E0.01183
G1 X10.870 Y101.793 E7.16021
G1 X10.870 Y102.171 E0.01183
G1 X239.130 Y102.171 E7.16021
G1 X239.130 Y102.548 E0.01183
G1 X10.870 Y102.548 E7.16021
G1 X10.870 Y102.925 E0.01183
G1 X239.130 Y102.925 E7.16021
G1 X239.130 Y103.302 E0.01183
G1 X10.870 Y103.302 E7.16021
M73 Q17 S182
M73 P17 R181
G1 X10.870 Y103.680 E0.01183
G1 X239.130 Y103.680 E7.16021
G1 X239.130 Y104.057 E0.01183
G1 X10.870 Y104.057 E7.16021
G1 X10.870 Y104.434 E0.01183
G1 X239.130 Y104.434 E7.16021
G1 X239.130 Y104.811 E0.01183
G1 X10.870 Y104.811 E7.16021
G1 X10.870 Y105.189 E0.01183
G1 X239.130 Y105.189 E7.16021
G1 X239.130 Y105.566 E0.01183
G1 X10.870 Y105.566 E7.16021
M73 Q18 S181
M73 P18 R180
G1 X10.870 Y105.943 E0.01183
G1 X239.130 Y105.943 E7.16021
G1 X239.130 Y106.320 E0.01183
G1 X10.870 Y106.320 E7.16021
G1 X10.870 Y106.698 E0.01183
G1 X239.130 Y106.698 E7.16021
G1 X239.130 Y107.075 E0.01183
G1 X10.870 Y107.075 E7.16021
G1 X10.870 Y107.452 E0.01183
G1 X239.130 Y107.452 E7.16021
G1 X239.130 Y107.829 E0.01183
G1 X10.870 Y107.829 E7.16021
M73 Q18 S180
M73 P18 R179
G1 X10.870 Y108.207 E0.01183
G1 X239.130 Y108.207 E7.16021
G1 X239.130 Y108.584 E0.01183
G1 X10.870 Y108.584 E7.16021
G1 X10.870 Y108.961 E0.01183
G1 X239.130 Y108.961 E7.16021
G1 X239.130 Y109.338 E0.01183
G1 X10.870 Y109.338 E7.16021
G1 X10.870 Y109.716 E0.01183
G1 X239.130 Y109.716 E7.16021
G1 X239.130 Y110.093 E0.01183
G1 X10.870 Y110.093 E7.16021
M73 Q19 S179
M73 P19 R178
G1 X10.870 Y110.470 E0.01183
G1 X239.130 Y110.470 E7.16021
G1 X239.130 Y110.847 E0.01183
