; generated by PrusaSlicer 2.1.1 on 2020-10-25 at 09:35:14 UTC

; 

; external perimeters extrusion width = 0.60mm
; perimeters extrusion width = 0.50mm
; infill extrusion width = 0.50mm
; solid infill extrusion width = 0.50mm
; top infill extrusion width = 0.45mm
; first layer extrusion width = 0.42mm

M73 P0 R13
M73 Q0 S13
M201 X1000 Y1000 Z200 E5000 ; sets maximum accelerations, mm/sec^2
M203 X200 Y200 Z12 E120 ; sets maximum feedrates, mm/sec
M204 P1250 R1250 T1250 ; sets acceleration (P, T) and retract acceleration (R), mm/sec^2
M205 X8.00 Y8.00 Z0.40 E4.50 ; sets the jerk limits, mm/sec
M205 S0 T0 ; sets the minimum extruding and travel feed rate, mm/sec
M107
M862.3 P "MK3S" ; printer model check
M862.1 P0.4 ; nozzle diameter check
M115 U3.9.1 ; tell printer latest fw version
G90 ; use absolute coordinates
M83 ; extruder relative mode
M104 S240 ; set extruder temp
M140 S85 ; set bed temp
M190 S85 ; wait for bed temp
M109 S240 ; wait for extruder temp
G28 W ; home all without mesh bed level
G80 ; mesh bed leveling
G1 Y-3.0 F1000.0 ; go outside print area
G92 E0.0
G1 X60.0 E9.0 F1000.0 ; intro line
M73 Q0 S13
M73 P0 R13
G1 X100.0 E12.5 F1000.0 ; intro line
G92 E0.0
M221 S95
G21 ; set units to millimeters
G90 ; use absolute coordinates
M83 ; use relative distances for extrusion
M900 K0.08 ; Filament gcode LA 1.5
M900 K45 ; Filament gcode LA 1.0
;BEFORE_LAYER_CHANGE
G92 E0.0
;0.2


G1 E-1.40000 F2100.00000
G1 Z0.200 F10800.000
;AFTER_LAYER_CHANGE
;0.2
G1 Z0.400
G1 X58.597 Y98.006
G1 Z0.200
G1 E1.40000 F2100.00000
M204 S1000
G1 F1200
G1 X59.290 Y97.822 E0.02247
G1 X185.504 Y97.811 E3.95735
G1 X186.781 Y97.927 E0.04021
G1 X188.166 Y98.324 E0.04518
G1 X189.459 Y99.001 E0.04575
G1 X190.343 Y99.688 E0.03511
G1 X191.314 Y100.772 E0.04563
G1 X192.040 Y102.017 E0.04518
G1 X192.429 Y103.090 E0.03580
G1 X192.673 Y104.539 E0.04608
G1 X192.619 Y105.997 E0.04576
G1 X192.278 Y107.393 E0.04505
G1 X191.815 Y108.433 E0.03568
G1 X191.002 Y109.627 E0.04530
G1 X189.934 Y110.658 E0.04654
G1 X188.716 Y111.428 E0.04518
G1 X187.658 Y111.856 E0.03579
G1 X186.233 Y112.151 E0.04564
G1 X59.467 Y112.188 E3.97465
G1 X58.687 Y112.032 E0.02496
G1 X58.017 Y111.609 E0.02484
G1 X57.541 Y110.975 E0.02484
G1 X57.322 Y110.210 E0.02496
G1 X57.338 Y99.658 E0.33086
G1 X57.565 Y98.978 E0.02247
G1 X58.002 Y98.405 E0.02259
G1 X58.547 Y98.040 E0.02059
G1 F8640
G1 X59.290 Y97.822 E-0.17867
G1 X64.276 Y97.821 E-1.15133
G1 E-0.07000 F2100.00000
G1 Z0.400 F10800.000
G1 X181.300 Y104.710
G1 Z0.200
G1 E1.40000 F2100.00000
G1 F1200
G1 X181.383 Y104.121 E0.01865
G1 X181.542 Y103.563 E0.01819
G1 X181.659 Y103.276 E0.00974
G1 X181.928 Y102.772 E0.01789
G1 X182.096 Y102.522 E0.00944
G1 X182.469 Y102.078 E0.01819
G1 X182.686 Y101.869 E0.00945
G1 X183.145 Y101.509 E0.01830
G1 X183.654 Y101.216 E0.01842
G1 X184.195 Y100.997 E0.01830
G1 X184.485 Y100.914 E0.00944
G1 X185.047 Y100.815 E0.01789
G1 X185.356 Y100.792 E0.00974
G1 X185.936 Y100.812 E0.01819
G1 X186.235 Y100.854 E0.00944
G1 X186.801 Y100.996 E0.01830
G1 X187.342 Y101.214 E0.01830
G1 X187.857 Y101.512 E0.01865
G1 X188.314 Y101.869 E0.01819
G1 X188.531 Y102.078 E0.00945
G1 X188.906 Y102.525 E0.01830
G1 X189.216 Y103.020 E0.01830
G1 X189.458 Y103.563 E0.01865
G1 X189.619 Y104.125 E0.01830
G1 X189.700 Y104.706 E0.01842
G1 X189.700 Y105.290 E0.01830
G1 X189.617 Y105.879 E0.01865
G1 X189.458 Y106.437 E0.01819
G1 X189.345 Y106.716 E0.00944
G1 X189.072 Y107.228 E0.01819
G1 X188.904 Y107.478 E0.00944
G1 X188.531 Y107.922 E0.01819
G1 X188.314 Y108.131 E0.00945
G1 X187.855 Y108.491 E0.01830
G1 X187.346 Y108.784 E0.01842
G1 X186.805 Y109.003 E0.01830
G1 X186.515 Y109.086 E0.00944
G1 X185.953 Y109.185 E0.01789
G1 X185.644 Y109.208 E0.00974
G1 X185.064 Y109.188 E0.01819
G1 X184.765 Y109.146 E0.00944
G1 X184.199 Y109.004 E0.01830
G1 X183.658 Y108.786 E0.01830
G1 X183.143 Y108.488 E0.01865
G1 X182.686 Y108.131 E0.01819
G1 X182.469 Y107.922 E0.00945
G1 X182.094 Y107.475 E0.01830
G1 X181.784 Y106.980 E0.01830
G1 X181.542 Y106.437 E0.01865
G1 X181.381 Y105.875 E0.01830
G1 X181.300 Y105.294 E0.01842
G1 X181.300 Y104.770 E0.01642
G1 X180.968 Y104.486 F10800.000
G1 F8640
G1 X181.383 Y104.121 E-0.15105
G1 X181.542 Y103.563 E-0.13399
G1 X181.659 Y103.276 E-0.07171
G1 X181.928 Y102.772 E-0.13174
G1 X182.096 Y102.522 E-0.06953
G1 X182.469 Y102.078 E-0.13394
G1 X182.686 Y101.869 E-0.06956
G1 X183.145 Y101.509 E-0.13477
G1 X183.654 Y101.216 E-0.13564
G1 X184.195 Y100.997 E-0.13479
G1 X184.485 Y100.914 E-0.06954
G1 X184.885 Y100.843 E-0.09374
G1 E-0.07000 F2100.00000
G1 Z0.400 F10800.000
G1 X184.073 Y100.640
G1 Z0.200
G1 E1.40000 F2100.00000
G1 F1200
G1 X183.489 Y100.876 E0.01975
G1 X182.934 Y101.196 E0.02007
G1 X182.438 Y101.584 E0.01975
G1 X182.193 Y101.820 E0.01068
G1 X181.794 Y102.295 E0.01943
G1 X181.604 Y102.577 E0.01068
G1 X181.317 Y103.115 E0.01911
G1 X181.186 Y103.440 E0.01098
G1 X181.015 Y104.036 E0.01945
G1 X180.923 Y104.690 E0.02071
G1 X180.923 Y105.320 E0.01975
G1 X181.012 Y105.954 E0.02007
G1 X181.185 Y106.559 E0.01975
G1 X181.454 Y107.163 E0.02071
G1 X181.788 Y107.697 E0.01975
G1 X182.193 Y108.180 E0.01975
G1 X182.438 Y108.416 E0.01068
G1 X182.926 Y108.798 E0.01942
G1 X183.498 Y109.128 E0.02071
G1 X184.082 Y109.364 E0.01975
G1 X184.279 Y109.413 E0.00635
G1 X60.087 Y109.413 E3.89394
G1 X60.087 Y100.587 E0.27673
G1 X184.246 Y100.590 E3.89292
G1 X184.130 Y100.623 E0.00379
G1 F8640
G1 X183.489 Y100.876 E-0.15923
G1 X182.934 Y101.196 E-0.14782
G1 X182.438 Y101.584 E-0.14542
G1 X182.193 Y101.820 E-0.07868
G1 X181.794 Y102.295 E-0.14308
G1 X181.604 Y102.577 E-0.07863
G1 X181.317 Y103.115 E-0.14076
G1 X181.186 Y103.440 E-0.08087
G1 X181.015 Y104.036 E-0.14321
G1 X180.923 Y104.690 E-0.15252
G1 X180.923 Y104.949 E-0.05979
G1 E-0.07000 F2100.00000
G1 Z0.400 F10800.000
G1 X59.710 Y109.790
G1 Z0.200
G1 E1.40000 F2100.00000
G1 F1200
G1 X59.710 Y100.210 E0.30037
G1 X185.495 Y100.213 E3.94390
G1 X186.003 Y100.237 E0.01594
G1 X186.328 Y100.282 E0.01029
G1 X186.984 Y100.446 E0.02118
G1 X187.294 Y100.559 E0.01037
G1 X187.596 Y100.693 E0.01037
G1 X188.178 Y101.029 E0.02107
G1 X188.708 Y101.443 E0.02106
G1 X188.943 Y101.670 E0.01025
G1 X189.375 Y102.185 E0.02107
G1 X189.731 Y102.755 E0.02107
G1 X189.874 Y103.048 E0.01025
G1 X190.105 Y103.683 E0.02118
G1 X190.184 Y104.001 E0.01025
G1 X190.278 Y104.670 E0.02118
G1 X190.290 Y104.996 E0.01025
G1 X190.243 Y105.667 E0.02107
G1 X190.103 Y106.324 E0.02107
G1 X190.002 Y106.635 E0.01025
G1 X189.727 Y107.252 E0.02118
G1 X189.564 Y107.535 E0.01025
G1 X189.167 Y108.082 E0.02118
G1 X188.948 Y108.325 E0.01025
G1 X188.446 Y108.777 E0.02118
G1 X188.181 Y108.969 E0.01025
G1 X187.600 Y109.305 E0.02107
G1 X186.977 Y109.556 E0.02107
G1 X186.662 Y109.647 E0.01025
G1 X185.999 Y109.764 E0.02112
G1 X185.495 Y109.790 E0.01583
G1 X59.770 Y109.790 E3.94200
G1 X59.910 Y109.444 F10800.000
G1 F8640
G1 X59.734 Y104.030 E-1.33000
G1 E-0.07000 F2100.00000
G1 Z0.400 F10800.000
G1 X60.200 Y108.537
G1 Z0.200
G1 E1.40000 F2100.00000
G1 F1200
G1 X60.793 Y109.130 E0.02629
G1 X61.326 Y109.130 E0.01673
G1 X60.370 Y108.174 E0.04242
G1 X60.370 Y107.640 E0.01673
G1 X61.860 Y109.130 E0.06608
G1 X62.393 Y109.130 E0.01673
G1 X60.370 Y107.107 E0.08974
G1 X60.370 Y106.573 E0.01673
G1 X62.927 Y109.130 E0.11340
G1 X63.460 Y109.130 E0.01673
G1 X60.370 Y106.040 E0.13705
G1 X60.370 Y105.507 E0.01673
G1 X63.993 Y109.130 E0.16071
G1 X64.527 Y109.130 E0.01673
G1 X60.370 Y104.973 E0.18437
G1 X60.370 Y104.440 E0.01673
G1 X65.060 Y109.130 E0.20803
G1 X65.594 Y109.130 E0.01673
G1 X60.370 Y103.906 E0.23168
G1 X60.370 Y103.373 E0.01673
G1 X66.127 Y109.130 E0.25534
G1 X66.660 Y109.130 E0.01673
G1 X60.370 Y102.840 E0.27900
G1 X60.370 Y102.306 E0.01673
G1 X67.194 Y109.130 E0.30265
G1 X67.727 Y109.130 E0.01673
G1 X60.370 Y101.773 E0.32631
G1 X60.370 Y101.239 E0.01673
G1 X68.261 Y109.130 E0.34997
G1 X68.794 Y109.130 E0.01673
G1 X60.534 Y100.870 E0.36636
G1 X61.067 Y100.870 E0.01673
G1 X69.327 Y109.130 E0.36636
G1 X69.861 Y109.130 E0.01673
G1 X61.601 Y100.870 E0.36636
G1 X62.134 Y100.870 E0.01673
G1 X70.394 Y109.130 E0.36636
G1 X70.928 Y109.130 E0.01673
G1 X62.667 Y100.870 E0.36636
G1 X63.201 Y100.870 E0.01673
G1 X71.461 Y109.130 E0.36636
G1 X71.994 Y109.130 E0.01673
G1 X63.734 Y100.870 E0.36636
M73 Q8 S12
G1 X64.268 Y100.870 E0.01673
G1 X72.528 Y109.130 E0.36636
G1 X73.061 Y109.130 E0.01673
G1 X64.801 Y100.870 E0.36636
M73 P8 R12
G1 X65.334 Y100.870 E0.01673
G1 X73.595 Y109.130 E0.36635
G1 X74.128 Y109.130 E0.01673
G1 X65.868 Y100.870 E0.36635
G1 X66.401 Y100.870 E0.01673
G1 X74.661 Y109.130 E0.36635
G1 X75.195 Y109.130 E0.01673
G1 X66.935 Y100.870 E0.36635
G1 X67.468 Y100.870 E0.01673
G1 X75.728 Y109.130 E0.36635
G1 X76.262 Y109.130 E0.01673
G1 X68.001 Y100.870 E0.36635
G1 X68.535 Y100.870 E0.01673
G1 X76.795 Y109.130 E0.36635
G1 X77.328 Y109.130 E0.01673
G1 X69.068 Y100.870 E0.36635
G1 X69.602 Y100.870 E0.01673
G1 X77.862 Y109.130 E0.36635
G1 X78.395 Y109.130 E0.01673
G1 X70.135 Y100.870 E0.36635
G1 X70.669 Y100.870 E0.01673
G1 X78.929 Y109.130 E0.36635
G1 X79.462 Y109.130 E0.01673
G1 X71.202 Y100.870 E0.36635
G1 X71.735 Y100.870 E0.01673
G1 X79.995 Y109.130 E0.36635
G1 X80.529 Y109.130 E0.01673
G1 X72.269 Y100.870 E0.36635
G1 X72.802 Y100.870 E0.01673
G1 X81.062 Y109.130 E0.36635
G1 X81.595 Y109.130 E0.01673
G1 X73.336 Y100.870 E0.36635
G1 X73.869 Y100.870 E0.01673
G1 X82.129 Y109.130 E0.36635
G1 X82.662 Y109.130 E0.01673
G1 X74.402 Y100.870 E0.36635
G1 X74.936 Y100.870 E0.01673
G1 X83.196 Y109.130 E0.36634
G1 X83.729 Y109.130 E0.01673
G1 X75.469 Y100.870 E0.36634
G1 X76.003 Y100.870 E0.01673
G1 X84.262 Y109.130 E0.36634
G1 X84.796 Y109.130 E0.01673
G1 X76.536 Y100.870 E0.36634
G1 X77.069 Y100.870 E0.01673
G1 X85.329 Y109.130 E0.36634
G1 X85.863 Y109.130 E0.01673
G1 X77.603 Y100.870 E0.36634
G1 X78.136 Y100.870 E0.01673
G1 X86.396 Y109.130 E0.36634
G1 X86.929 Y109.130 E0.01673
G1 X78.670 Y100.870 E0.36634
G1 X79.203 Y100.870 E0.01673
G1 X87.463 Y109.130 E0.36634
G1 X87.996 Y109.130 E0.01673
G1 X79.736 Y100.870 E0.36634
G1 X80.270 Y100.870 E0.01673
G1 X88.530 Y109.130 E0.36634
G1 X89.063 Y109.130 E0.01673
G1 X80.803 Y100.870 E0.36634
G1 X81.337 Y100.870 E0.01673
G1 X89.596 Y109.130 E0.36634
G1 X90.130 Y109.130 E0.01673
G1 X81.870 Y100.870 E0.36634
G1 X82.404 Y100.870 E0.01673
G1 X90.663 Y109.130 E0.36634
G1 X91.197 Y109.130 E0.01673
G1 X82.937 Y100.870 E0.36634
G1 X83.470 Y100.870 E0.01673
G1 X91.730 Y109.130 E0.36634
G1 X92.263 Y109.130 E0.01673
G1 X84.004 Y100.870 E0.36633
G1 X84.537 Y100.870 E0.01673
G1 X92.797 Y109.130 E0.36633
G1 X93.330 Y109.130 E0.01673
G1 X85.071 Y100.870 E0.36633
G1 X85.604 Y100.870 E0.01673
G1 X93.864 Y109.130 E0.36633
G1 X94.397 Y109.130 E0.01673
G1 X86.137 Y100.871 E0.36633
G1 X86.671 Y100.871 E0.01673
G1 X94.930 Y109.130 E0.36633
G1 X95.464 Y109.130 E0.01673
G1 X87.204 Y100.871 E0.36633
G1 X87.738 Y100.871 E0.01673
G1 X95.997 Y109.130 E0.36633
G1 X96.531 Y109.130 E0.01673
G1 X88.271 Y100.871 E0.36633
G1 X88.804 Y100.871 E0.01673
G1 X97.064 Y109.130 E0.36633
G1 X97.597 Y109.130 E0.01673
G1 X89.338 Y100.871 E0.36633
G1 X89.871 Y100.871 E0.01673
G1 X98.131 Y109.130 E0.36633
G1 X98.664 Y109.130 E0.01673
G1 X90.405 Y100.871 E0.36633
G1 X90.938 Y100.871 E0.01673
G1 X99.198 Y109.130 E0.36633
G1 X99.731 Y109.130 E0.01673
G1 X91.472 Y100.871 E0.36633
G1 X92.005 Y100.871 E0.01673
G1 X100.264 Y109.130 E0.36633
G1 X100.798 Y109.130 E0.01673
G1 X92.538 Y100.871 E0.36633
G1 X93.072 Y100.871 E0.01673
G1 X101.331 Y109.130 E0.36632
G1 X101.865 Y109.130 E0.01673
G1 X93.605 Y100.871 E0.36632
G1 X94.139 Y100.871 E0.01673
G1 X102.398 Y109.130 E0.36632
G1 X102.931 Y109.130 E0.01673
G1 X94.672 Y100.871 E0.36632
G1 X95.205 Y100.871 E0.01673
G1 X103.465 Y109.130 E0.36632
G1 X103.998 Y109.130 E0.01673
G1 X95.739 Y100.871 E0.36632
G1 X96.272 Y100.871 E0.01673
G1 X104.532 Y109.130 E0.36632
G1 X105.065 Y109.130 E0.01673
G1 X96.806 Y100.871 E0.36632
G1 X97.339 Y100.871 E0.01673
G1 X105.598 Y109.130 E0.36632
G1 X106.132 Y109.130 E0.01673
G1 X97.872 Y100.871 E0.36632
G1 X98.406 Y100.871 E0.01673
G1 X106.665 Y109.130 E0.36632
G1 X107.199 Y109.130 E0.01673
G1 X98.939 Y100.871 E0.36632
G1 X99.473 Y100.871 E0.01673
G1 X107.732 Y109.130 E0.36632
G1 X108.265 Y109.130 E0.01673
G1 X100.006 Y100.871 E0.36632
G1 X100.539 Y100.871 E0.01673
G1 X108.799 Y109.130 E0.36632
G1 X109.332 Y109.130 E0.01673
G1 X101.073 Y100.871 E0.36632
G1 X101.606 Y100.871 E0.01673
G1 X109.866 Y109.130 E0.36632
G1 X110.399 Y109.130 E0.01673
G1 X102.140 Y100.871 E0.36632
G1 X102.673 Y100.871 E0.01673
G1 X110.932 Y109.130 E0.36631
G1 X111.466 Y109.130 E0.01673
G1 X103.207 Y100.871 E0.36631
G1 X103.740 Y100.871 E0.01673
G1 X111.999 Y109.130 E0.36631
G1 X112.533 Y109.130 E0.01673
G1 X104.273 Y100.871 E0.36631
G1 X104.807 Y100.871 E0.01673
G1 X113.066 Y109.130 E0.36631
G1 X113.599 Y109.130 E0.01673
G1 X105.340 Y100.871 E0.36631
G1 X105.874 Y100.871 E0.01673
G1 X114.133 Y109.130 E0.36631
G1 X114.666 Y109.130 E0.01673
G1 X106.407 Y100.871 E0.36631
G1 X106.940 Y100.871 E0.01673
G1 X115.200 Y109.130 E0.36631
G1 X115.733 Y109.130 E0.01673
G1 X107.474 Y100.871 E0.36631
G1 X108.007 Y100.871 E0.01673
G1 X116.266 Y109.130 E0.36631
G1 X116.800 Y109.130 E0.01673
G1 X108.541 Y100.871 E0.36631
G1 X109.074 Y100.871 E0.01673
G1 X117.333 Y109.130 E0.36631
G1 X117.867 Y109.130 E0.01673
G1 X109.607 Y100.871 E0.36631
G1 X110.141 Y100.871 E0.01673
G1 X118.400 Y109.130 E0.36631
G1 X118.933 Y109.130 E0.01673
G1 X110.674 Y100.871 E0.36631
G1 X111.208 Y100.871 E0.01673
G1 X119.467 Y109.130 E0.36631
G1 X120.000 Y109.130 E0.01673
G1 X111.741 Y100.871 E0.36630
G1 X112.275 Y100.871 E0.01673
G1 X120.534 Y109.130 E0.36630
G1 X121.067 Y109.130 E0.01673
G1 X112.808 Y100.871 E0.36630
G1 X113.341 Y100.871 E0.01673
G1 X121.600 Y109.130 E0.36630
G1 X122.134 Y109.130 E0.01673
G1 X113.875 Y100.871 E0.36630
G1 X114.408 Y100.871 E0.01673
G1 X122.667 Y109.130 E0.36630
G1 X123.201 Y109.130 E0.01673
G1 X114.942 Y100.871 E0.36630
G1 X115.475 Y100.871 E0.01673
G1 X123.734 Y109.130 E0.36630
M73 Q15 S11
G1 X124.267 Y109.130 E0.01673
G1 X116.008 Y100.871 E0.36630
G1 X116.542 Y100.871 E0.01673
G1 X124.801 Y109.130 E0.36630
M73 P15 R11
G1 X125.334 Y109.130 E0.01673
G1 X117.075 Y100.871 E0.36630
G1 X117.609 Y100.871 E0.01673
G1 X125.867 Y109.130 E0.36630
G1 X126.401 Y109.130 E0.01673
G1 X118.142 Y100.871 E0.36630
G1 X118.675 Y100.871 E0.01673
G1 X126.934 Y109.130 E0.36630
G1 X127.468 Y109.130 E0.01673
G1 X119.209 Y100.871 E0.36630
G1 X119.742 Y100.871 E0.01673
G1 X128.001 Y109.130 E0.36630
G1 X128.534 Y109.130 E0.01673
G1 X120.276 Y100.871 E0.36630
G1 X120.809 Y100.871 E0.01673
G1 X129.068 Y109.130 E0.36630
G1 X129.601 Y109.130 E0.01673
G1 X121.343 Y100.871 E0.36629
G1 X121.876 Y100.871 E0.01673
G1 X130.135 Y109.130 E0.36629
G1 X130.668 Y109.130 E0.01673
G1 X122.409 Y100.871 E0.36629
G1 X122.943 Y100.871 E0.01673
G1 X131.201 Y109.130 E0.36629
G1 X131.735 Y109.130 E0.01673
G1 X123.476 Y100.871 E0.36629
G1 X124.010 Y100.871 E0.01673
G1 X132.268 Y109.130 E0.36629
G1 X132.802 Y109.130 E0.01673
G1 X124.543 Y100.871 E0.36629
G1 X125.076 Y100.871 E0.01673
G1 X133.335 Y109.130 E0.36629
G1 X133.868 Y109.130 E0.01673
G1 X125.610 Y100.871 E0.36629
G1 X126.143 Y100.871 E0.01673
G1 X134.402 Y109.130 E0.36629
G1 X134.935 Y109.130 E0.01673
G1 X126.677 Y100.871 E0.36629
G1 X127.210 Y100.872 E0.01673
G1 X135.469 Y109.130 E0.36629
G1 X136.002 Y109.130 E0.01673
G1 X127.743 Y100.872 E0.36629
G1 X128.277 Y100.872 E0.01673
G1 X136.535 Y109.130 E0.36629
G1 X137.069 Y109.130 E0.01673
G1 X128.810 Y100.872 E0.36629
G1 X129.344 Y100.872 E0.01673
G1 X137.602 Y109.130 E0.36629
G1 X138.136 Y109.130 E0.01673
G1 X129.877 Y100.872 E0.36629
G1 X130.410 Y100.872 E0.01673
G1 X138.669 Y109.130 E0.36628
G1 X139.202 Y109.130 E0.01673
G1 X130.944 Y100.872 E0.36628
G1 X131.477 Y100.872 E0.01673
G1 X139.736 Y109.130 E0.36628
G1 X140.269 Y109.130 E0.01673
G1 X132.011 Y100.872 E0.36628
G1 X132.544 Y100.872 E0.01673
G1 X140.803 Y109.130 E0.36628
G1 X141.336 Y109.130 E0.01673
G1 X133.078 Y100.872 E0.36628
G1 X133.611 Y100.872 E0.01673
G1 X141.869 Y109.130 E0.36628
