; generated by PrusaSlicer 2.1.1 on 2020-10-24 at 15:52:50 UTC

; 

; external perimeters extrusion width = 0.45mm
; perimeters extrusion width = 0.45mm
; infill extrusion width = 0.45mm
; solid infill extrusion width = 0.45mm
; top infill extrusion width = 0.40mm
; support material extrusion width = 0.35mm
; first layer extrusion width = 0.42mm

M73 P0 R16
M73 Q0 S16
M201 X1000 Y1000 Z200 E5000 ; sets maximum accelerations, mm/sec^2
M203 X200 Y200 Z12 E120 ; sets maximum feedrates, mm/sec
M204 P1250 R1250 T1250 ; sets acceleration (P, T) and retract acceleration (R), mm/sec^2
M205 X8.00 Y8.00 Z0.40 E4.50 ; sets the jerk limits, mm/sec
M205 S0 T0 ; sets the minimum extruding and travel feed rate, mm/sec
M107
M862.3 P "MK3S" ; printer model check
M862.1 P0.4 ; nozzle diameter check
M115 U3.9.1 ; tell printer latest fw version
G90 ; use absolute coordinates
M83 ; extruder relative mode
M104 S215 ; set extruder temp
M140 S60 ; set bed temp
M190 S60 ; wait for bed temp
M109 S215 ; wait for extruder temp
G28 W ; home all without mesh bed level
G80 ; mesh bed leveling
G1 Y-3.0 F1000.0 ; go outside print area
G92 E0.0
G1 X60.0 E9.0 F1000.0 ; intro line
M73 Q0 S16
M73 P0 R16
G1 X100.0 E12.5 F1000.0 ; intro line
G92 E0.0
M221 S95
G21 ; set units to millimeters
G90 ; use absolute coordinates
M83 ; use relative distances for extrusion
M900 K0.05 ; Filament gcode LA 1.5
M900 K30 ; Filament gcode LA 1.0
;BEFORE_LAYER_CHANGE
G92 E0.0
;0.2


G1 E-0.80000 F2100.00000
G1 Z0.600 F10800.000
;AFTER_LAYER_CHANGE
;0.2
G1 X117.312 Y84.459
G1 Z0.200
G1 E0.80000 F2100.00000
M204 S1000
G1 F1200
G1 X117.695 Y83.956 E0.01980
G1 X118.189 Y83.562 E0.01980
G1 X118.670 Y83.333 E0.01672
G1 X119.188 Y83.207 E0.01672
G1 X120.998 Y83.184 E0.05676
G1 X121.509 Y83.237 E0.01610
G1 X134.644 Y85.980 E0.42072
G1 X135.185 Y86.200 E0.01832
G1 X135.665 Y86.541 E0.01845
G1 X136.053 Y86.978 E0.01832
G1 X136.332 Y87.492 E0.01832
G1 X136.517 Y88.437 E0.03022
G1 X136.516 Y121.641 E1.04108
G1 X136.364 Y122.423 E0.02496
G1 X135.983 Y123.117 E0.02484
G1 X135.408 Y123.662 E0.02484
G1 X134.694 Y124.006 E0.02484
G1 X121.460 Y126.773 E0.42395
G1 X119.438 Y126.814 E0.06339
G1 X118.520 Y126.609 E0.02949
G1 X117.738 Y126.087 E0.02949
G1 X117.197 Y125.318 E0.02949
G1 X116.968 Y124.406 E0.02949
G1 X116.965 Y85.659 E1.21488
G1 X117.065 Y85.035 E0.01980
G1 X117.289 Y84.514 E0.01780
G1 F8640
G1 X117.695 Y83.956 E-0.15930
G1 X118.189 Y83.562 E-0.14583
G1 X118.670 Y83.333 E-0.12313
G1 X119.188 Y83.207 E-0.12313
G1 X120.092 Y83.196 E-0.20862
G1 E-0.04000 F2100.00000
G1 Z0.800 F10800.000
G1 X118.435 Y83.855
G1 Z0.200
G1 E0.80000 F2100.00000
G1 F1200
G1 X119.279 Y83.576 E0.02788
G1 X120.998 Y83.561 E0.05390
G1 X134.526 Y86.338 E0.43300
G1 X134.997 Y86.527 E0.01589
G1 X135.408 Y86.816 E0.01578
G1 X135.745 Y87.195 E0.01589
G1 X135.985 Y87.641 E0.01589
G1 X136.140 Y88.441 E0.02552
G1 X136.139 Y121.630 E1.04064
G1 X136.007 Y122.302 E0.02146
G1 X135.674 Y122.900 E0.02146
G1 X135.176 Y123.364 E0.02134
G1 X134.556 Y123.653 E0.02146
G1 X121.391 Y126.402 E0.42170
G1 X119.449 Y126.437 E0.06089
G1 X118.662 Y126.259 E0.02529
G1 X117.993 Y125.809 E0.02529
G1 X117.533 Y125.146 E0.02529
G1 X117.344 Y124.362 E0.02529
G1 X117.342 Y85.670 E1.21317
G1 X117.431 Y85.126 E0.01726
G1 X117.653 Y84.623 E0.01726
G1 X117.994 Y84.190 E0.01726
G1 X118.387 Y83.891 E0.01549
G1 F8640
G1 X119.279 Y83.576 E-0.21847
G1 X120.998 Y83.561 E-0.39693
G1 X121.612 Y83.687 E-0.14461
G1 E-0.04000 F2100.00000
G1 Z0.800 F10800.000
G1 X120.407 Y89.063
G1 Z0.200
G1 E0.80000 F2100.00000
G1 F1200
G1 X133.221 Y89.063 E0.40177
G1 X133.221 Y120.937 E0.99939
G1 X120.407 Y120.937 E0.40177
G1 X120.407 Y89.123 E0.99751
G1 X120.784 Y89.440 F10800.000
G1 F1200
G1 X132.844 Y89.440 E0.37812
G1 X132.844 Y120.560 E0.97575
G1 X120.784 Y120.560 E0.37812
G1 X120.784 Y89.500 E0.97386
G1 X120.735 Y89.043 F10800.000
G1 X120.407 Y89.037
G1 F1200
G1 X133.365 Y89.037 E0.40627
G1 X133.365 Y120.963 E1.00101
G1 X120.407 Y120.963 E0.40627
G1 X120.407 Y123.663 E0.08466
G1 X120.264 Y123.663 E0.00450
G1 X120.264 Y86.337 E1.17033
G1 X120.407 Y86.337 E0.00450
G1 X120.407 Y88.977 E0.08278
G1 X120.784 Y88.660 F10800.000
G1 F1200
G1 X133.742 Y88.660 E0.40627
G1 X133.742 Y121.340 E1.02466
G1 X120.784 Y121.340 E0.40627
G1 X120.784 Y124.040 E0.08466
G1 X119.887 Y124.040 E0.02815
G1 X119.887 Y85.960 E1.19397
G1 X120.784 Y85.960 E0.02815
G1 X120.784 Y88.600 E0.08278
G1 X120.827 Y89.058 F10800.000
M106 S255
;BEFORE_LAYER_CHANGE
G92 E0.0
;0.35


G1 F8640
G1 X124.076 Y88.615 E-0.76000
G1 E-0.04000 F2100.00000
G1 Z0.800 F10800.000
;AFTER_LAYER_CHANGE
;0.35
M104 S210 ; set temperature
G1 X117.197 Y125.318
G1 Z0.350
G1 E0.80000 F2100.00000
G1 F1509
G1 X116.968 Y124.406 E0.02274
G1 X116.965 Y85.659 E0.93709
G1 X117.065 Y85.035 E0.01527
G1 X117.312 Y84.459 E0.01518
G1 X117.695 Y83.956 E0.01527
G1 X118.189 Y83.562 E0.01527
G1 X118.670 Y83.333 E0.01290
G1 X119.188 Y83.207 E0.01290
G1 X120.998 Y83.184 E0.04378
G1 X121.509 Y83.237 E0.01242
G1 X134.644 Y85.980 E0.32452
G1 X135.185 Y86.200 E0.01413
G1 X135.665 Y86.541 E0.01423
G1 X136.053 Y86.978 E0.01413
G1 X136.332 Y87.492 E0.01413
G1 X136.517 Y88.437 E0.02331
G1 X136.516 Y121.641 E0.80303
G1 X136.364 Y122.423 E0.01925
G1 X135.983 Y123.117 E0.01916
G1 X135.408 Y123.662 E0.01916
G1 X134.694 Y124.006 E0.01916
G1 X121.460 Y126.773 E0.32701
G1 X119.438 Y126.814 E0.04889
G1 X118.520 Y126.609 E0.02274
G1 X117.738 Y126.087 E0.02274
G1 X117.231 Y125.367 E0.02129
G1 F8640
G1 X116.968 Y124.406 E-0.23012
G1 X116.968 Y122.111 E-0.52988
G1 E-0.04000 F2100.00000
G1 Z0.950 F10800.000
G1 X120.690 Y120.575
G1 Z0.350
G1 E0.80000 F2100.00000
M204 S800
G1 F1500
G1 X120.690 Y89.425 E0.81164
G1 X132.780 Y89.425 E0.31500
G1 X132.780 Y120.575 E0.81164
G1 X120.750 Y120.575 E0.31344
M204 S1000
G1 X120.322 Y120.731 F10800.000
G1 F8640
G1 X120.744 Y117.284 E-0.76000
G1 E-0.04000 F2100.00000
G1 Z0.950 F10800.000
G1 X133.197 Y120.907
G1 Z0.350
G1 E0.80000 F2100.00000
M204 S800
G1 F1509
G1 X133.197 Y89.093 E0.82895
G1 X133.230 Y89.093 E0.00084
G1 X133.230 Y120.879 E0.82822
M204 S1000
G1 F8640
G1 X133.226 Y117.588 E-0.76000
G1 E-0.04000 F2100.00000
G1 Z0.950 F10800.000
G1 X120.272 Y123.607
G1 Z0.350
G1 E0.80000 F2100.00000
M204 S800
G1 F1509
G1 X120.240 Y123.607 E0.00084
G1 X120.240 Y86.393 E0.96965
G1 X120.272 Y86.393 E0.00084
G1 X120.272 Y123.547 E0.96809
M204 S1000
G1 F8640
G1 X120.240 Y123.607 E-0.01571
G1 X120.240 Y120.384 E-0.74429
G1 E-0.04000 F2100.00000
G1 Z0.950 F10800.000
G1 X120.690 Y88.675
G1 Z0.350
G1 E0.80000 F2100.00000
M204 S800
G1 F1500
G1 X133.647 Y88.675 E0.33761
G1 X133.647 Y121.325 E0.85072
G1 X120.690 Y121.325 E0.33761
G1 X120.690 Y124.025 E0.07035
G1 X119.822 Y124.025 E0.02261
G1 X119.822 Y85.975 E0.99142
G1 X120.690 Y85.975 E0.02261
G1 X120.690 Y88.615 E0.06879
M204 S1000
G1 X120.731 Y89.073 F10800.000
G1 X120.481 Y89.050
G1 F1509
G1 X132.989 Y89.050 E0.25911
G1 F8640
G1 X129.697 Y89.050 E-0.76000
G1 E-0.04000 F2100.00000
G1 Z0.950 F10800.000
G1 X132.989 Y120.950
G1 Z0.350
G1 E0.80000 F2100.00000
G1 F1509
G1 X120.481 Y120.950 E0.25911
;BEFORE_LAYER_CHANGE
G92 E0.0
;0.5


G1 F8640
G1 X123.773 Y120.950 E-0.76000
G1 E-0.04000 F2100.00000
G1 Z0.950 F10800.000
;AFTER_LAYER_CHANGE
;0.5
G1 X118.520 Y126.609
G1 Z0.500
G1 E0.80000 F2100.00000
G1 F1489
G1 X117.738 Y126.087 E0.02274
G1 X117.197 Y125.318 E0.02274
G1 X116.968 Y124.406 E0.02274
G1 X116.965 Y85.659 E0.93709
M73 Q6 S15
M73 P6 R15
G1 X117.065 Y85.035 E0.01527
G1 X117.312 Y84.459 E0.01518
G1 X117.695 Y83.956 E0.01527
G1 X118.189 Y83.562 E0.01527
G1 X118.670 Y83.333 E0.01290
G1 X119.188 Y83.207 E0.01290
G1 X120.998 Y83.184 E0.04378
G1 X121.509 Y83.237 E0.01242
G1 X134.644 Y85.980 E0.32452
G1 X135.185 Y86.200 E0.01413
G1 X135.665 Y86.541 E0.01423
G1 X136.053 Y86.978 E0.01413
G1 X136.332 Y87.492 E0.01413
G1 X136.517 Y88.437 E0.02331
G1 X136.516 Y121.641 E0.80303
G1 X136.364 Y122.423 E0.01925
G1 X135.983 Y123.117 E0.01916
G1 X135.408 Y123.662 E0.01916
G1 X134.694 Y124.006 E0.01916
G1 X121.460 Y126.773 E0.32701
G1 X119.438 Y126.814 E0.04889
G1 X118.579 Y126.622 E0.02129
G1 F8640
G1 X117.738 Y126.087 E-0.23012
G1 X117.197 Y125.318 E-0.21715
G1 X116.968 Y124.406 E-0.21715
G1 X116.968 Y123.992 E-0.09559
G1 E-0.04000 F2100.00000
G1 Z1.100 F10800.000
G1 X120.622 Y120.575
G1 Z0.500
G1 E0.80000 F2100.00000
M204 S800
G1 F1489
G1 X120.622 Y89.425 E0.81164
G1 X132.712 Y89.425 E0.31500
G1 X132.712 Y120.575 E0.81164
G1 X120.682 Y120.575 E0.31344
M204 S1000
G1 X120.254 Y120.731 F10800.000
G1 F8640
G1 X120.676 Y117.284 E-0.76000
G1 E-0.04000 F2100.00000
G1 Z1.100 F10800.000
G1 X120.204 Y123.607
G1 Z0.500
G1 E0.80000 F2100.00000
M204 S800
G1 F1489
G1 X120.172 Y123.607 E0.00084
G1 X120.172 Y86.393 E0.96965
G1 X120.204 Y86.393 E0.00084
G1 X120.204 Y123.547 E0.96809
M204 S1000
G1 F8640
G1 X120.172 Y123.607 E-0.01571
G1 X120.172 Y120.384 E-0.74429
G1 E-0.04000 F2100.00000
G1 Z1.100 F10800.000
G1 X133.129 Y120.907
G1 Z0.500
G1 E0.80000 F2100.00000
M204 S800
G1 F1489
G1 X133.129 Y89.093 E0.82895
G1 X133.161 Y89.093 E0.00084
G1 X133.161 Y120.879 E0.82822
M204 S1000
G1 F8640
G1 X133.158 Y117.588 E-0.76000
G1 E-0.04000 F2100.00000
G1 Z1.100 F10800.000
G1 X120.622 Y88.675
G1 Z0.500
G1 E0.80000 F2100.00000
M204 S800
G1 F1489
G1 X133.579 Y88.675 E0.33761
G1 X133.579 Y121.325 E0.85072
G1 X120.622 Y121.325 E0.33761
G1 X120.622 Y124.025 E0.07035
G1 X119.754 Y124.025 E0.02261
G1 X119.754 Y85.975 E0.99142
G1 X120.622 Y85.975 E0.02261
G1 X120.622 Y88.615 E0.06879
M204 S1000
G1 X120.663 Y89.073 F10800.000
G1 X120.413 Y89.050
G1 F1489
G1 X132.920 Y89.050 E0.25911
G1 F8640
G1 X129.629 Y89.050 E-0.76000
G1 E-0.04000 F2100.00000
G1 Z1.100 F10800.000
G1 X132.920 Y120.950
G1 Z0.500
G1 E0.80000 F2100.00000
G1 F1489
G1 X120.413 Y120.950 E0.25911
;BEFORE_LAYER_CHANGE
G92 E0.0
;0.65


G1 F8640
G1 X123.705 Y120.950 E-0.76000
G1 E-0.04000 F2100.00000
G1 Z1.100 F10800.000
;AFTER_LAYER_CHANGE
;0.65
G1 X120.554 Y89.425
G1 Z0.650
G1 E0.80000 F2100.00000
M204 S800
G1 F1116
G1 X132.644 Y89.425 E0.31500
G1 X132.644 Y120.575 E0.81164
G1 X120.554 Y120.575 E0.31500
G1 X120.554 Y89.485 E0.81007
M204 S1000
G1 X120.505 Y89.028 F10800.000
G1 F8640
G1 X123.845 Y89.469 E-0.76000
G1 E-0.04000 F2100.00000
G1 Z1.250 F10800.000
G1 X120.136 Y86.393
G1 Z0.650
G1 E0.80000 F2100.00000
M204 S800
G1 F1116
G1 X120.136 Y123.607 E0.96965
G1 X120.104 Y123.607 E0.00084
G1 X120.104 Y86.421 E0.96892
M204 S1000
G1 F8640
G1 X120.107 Y89.712 E-0.76000
G1 E-0.04000 F2100.00000
G1 Z1.250 F10800.000
G1 X133.061 Y89.093
G1 Z0.650
G1 E0.80000 F2100.00000
M204 S800
G1 F1116
G1 X133.093 Y89.093 E0.00084
G1 X133.093 Y120.907 E0.82895
G1 X133.061 Y120.907 E0.00084
G1 X133.061 Y89.153 E0.82738
M204 S1000
G1 F8640
G1 X133.093 Y89.093 E-0.01571
G1 X133.093 Y92.316 E-0.74429
G1 E-0.04000 F2100.00000
G1 Z1.250 F10800.000
G1 X120.554 Y88.675
G1 Z0.650
G1 E0.80000 F2100.00000
M204 S800
G1 F1116
G1 X133.511 Y88.675 E0.33761
G1 X133.511 Y121.325 E0.85072
G1 X120.554 Y121.325 E0.33761
G1 X120.554 Y124.025 E0.07035
G1 X119.686 Y124.025 E0.02261
G1 X119.686 Y85.975 E0.99142
G1 X120.554 Y85.975 E0.02261
G1 X120.554 Y88.615 E0.06879
M204 S1000
G1 X120.595 Y89.073 F10800.000
G1 X120.345 Y89.050
G1 F1116
G1 X132.852 Y89.050 E0.25911
G1 F8640
G1 X129.561 Y89.050 E-0.76000
G1 E-0.04000 F2100.00000
G1 Z1.250 F10800.000
G1 X132.852 Y120.950
G1 Z0.650
G1 E0.80000 F2100.00000
G1 F1116
G1 X120.345 Y120.950 E0.25911
;BEFORE_LAYER_CHANGE
G92 E0.0
;0.8


G1 F8640
G1 X123.636 Y120.950 E-0.76000
G1 E-0.04000 F2100.00000
G1 Z1.250 F10800.000
;AFTER_LAYER_CHANGE
;0.8
G1 X120.486 Y89.425
G1 Z0.800
G1 E0.80000 F2100.00000
M204 S800
G1 F1116
G1 X132.576 Y89.425 E0.31500
G1 X132.576 Y120.575 E0.81164
G1 X120.486 Y120.575 E0.31500
G1 X120.486 Y89.485 E0.81007
M204 S1000
G1 X120.437 Y89.028 F10800.000
G1 F8640
G1 X123.777 Y89.469 E-0.76000
G1 E-0.04000 F2100.00000
G1 Z1.400 F10800.000
G1 X120.068 Y86.393
G1 Z0.800
G1 E0.80000 F2100.00000
M204 S800
G1 F1116
G1 X120.068 Y123.607 E0.96965
G1 X120.036 Y123.607 E0.00084
G1 X120.036 Y86.421 E0.96892
M204 S1000
G1 F8640
G1 X120.039 Y89.712 E-0.76000
G1 E-0.04000 F2100.00000
G1 Z1.400 F10800.000
G1 X132.993 Y89.093
G1 Z0.800
G1 E0.80000 F2100.00000
M204 S800
G1 F1116
G1 X133.025 Y89.093 E0.00084
G1 X133.025 Y120.907 E0.82895
G1 X132.993 Y120.907 E0.00084
G1 X132.993 Y89.153 E0.82738
M204 S1000
G1 F8640
G1 X133.025 Y89.093 E-0.01571
G1 X133.025 Y92.316 E-0.74429
G1 E-0.04000 F2100.00000
G1 Z1.400 F10800.000
G1 X120.486 Y88.675
G1 Z0.800
G1 E0.80000 F2100.00000
M204 S800
G1 F1116
G1 X133.443 Y88.675 E0.33761
G1 X133.443 Y121.325 E0.85072
G1 X120.486 Y121.325 E0.33761
M73 Q13 S14
M73 P12 R14
G1 X120.486 Y124.025 E0.07035
G1 X119.618 Y124.025 E0.02261
G1 X119.618 Y85.975 E0.99142
G1 X120.486 Y85.975 E0.02261
G1 X120.486 Y88.615 E0.06879
M204 S1000
G1 X120.527 Y89.073 F10800.000
G1 X120.277 Y89.050
G1 F1116
G1 X132.784 Y89.050 E0.25911
G1 F8640
G1 X129.493 Y89.050 E-0.76000
G1 E-0.04000 F2100.00000
G1 Z1.400 F10800.000
G1 X132.784 Y120.950
G1 Z0.800
G1 E0.80000 F2100.00000
G1 F1116
G1 X120.277 Y120.950 E0.25911
;BEFORE_LAYER_CHANGE
G92 E0.0
;0.95


G1 F8640
G1 X123.568 Y120.950 E-0.76000
G1 E-0.04000 F2100.00000
G1 Z1.400 F10800.000
;AFTER_LAYER_CHANGE
;0.95
G1 X120.418 Y89.425
G1 Z0.950
G1 E0.80000 F2100.00000
M204 S800
G1 F1116
G1 X132.507 Y89.425 E0.31500
G1 X132.507 Y120.575 E0.81164
G1 X120.418 Y120.575 E0.31500
G1 X120.418 Y89.485 E0.81007
M204 S1000
G1 X120.369 Y89.028 F10800.000
G1 F8640
G1 X123.709 Y89.469 E-0.76000
G1 E-0.04000 F2100.00000
G1 Z1.550 F10800.000
G1 X120.000 Y86.393
G1 Z0.950
G1 E0.80000 F2100.00000
M204 S800
G1 F1116
G1 X120.000 Y123.607 E0.96965
G1 X119.968 Y123.607 E0.00084
G1 X119.968 Y86.421 E0.96892
M204 S1000
G1 F8640
G1 X119.971 Y89.712 E-0.76000
G1 E-0.04000 F2100.00000
G1 Z1.550 F10800.000
G1 X132.925 Y89.093
G1 Z0.950
G1 E0.80000 F2100.00000
M204 S800
G1 F1116
G1 X132.957 Y89.093 E0.00084
G1 X132.957 Y120.907 E0.82895
G1 X132.925 Y120.907 E0.00084
G1 X132.925 Y89.153 E0.82738
M204 S1000
G1 F8640
G1 X132.957 Y89.093 E-0.01571
G1 X132.957 Y92.316 E-0.74429
G1 E-0.04000 F2100.00000
G1 Z1.550 F10800.000
G1 X120.418 Y88.675
G1 Z0.950
G1 E0.80000 F2100.00000
M204 S800
G1 F1116
G1 X133.375 Y88.675 E0.33761
G1 X133.375 Y121.325 E0.85072
G1 X120.418 Y121.325 E0.33761
G1 X120.418 Y124.025 E0.07035
G1 X119.550 Y124.025 E0.02261
G1 X119.550 Y85.975 E0.99142
G1 X120.418 Y85.975 E0.02261
G1 X120.418 Y88.615 E0.06879
M204 S1000
G1 X120.459 Y89.073 F10800.000
G1 X120.209 Y89.050
G1 F1116
G1 X132.716 Y89.050 E0.25911
G1 F8640
G1 X129.425 Y89.050 E-0.76000
G1 E-0.04000 F2100.00000
G1 Z1.550 F10800.000
G1 X132.716 Y120.950
G1 Z0.950
G1 E0.80000 F2100.00000
G1 F1116
G1 X120.209 Y120.950 E0.25911
;BEFORE_LAYER_CHANGE
G92 E0.0
;1.1


G1 F8640
G1 X123.500 Y120.950 E-0.76000
G1 E-0.04000 F2100.00000
G1 Z1.550 F10800.000
;AFTER_LAYER_CHANGE
;1.1
G1 X120.350 Y89.425
G1 Z1.100
G1 E0.80000 F2100.00000
M204 S800
G1 F1116
G1 X132.439 Y89.425 E0.31500
G1 X132.439 Y120.575 E0.81164
G1 X120.350 Y120.575 E0.31500
G1 X120.350 Y89.485 E0.81007
M204 S1000
G1 X120.301 Y89.028 F10800.000
G1 F8640
G1 X123.641 Y89.469 E-0.76000
G1 E-0.04000 F2100.00000
G1 Z1.700 F10800.000
G1 X119.932 Y86.393
G1 Z1.100
G1 E0.80000 F2100.00000
M204 S800
G1 F1116
G1 X119.932 Y123.607 E0.96965
G1 X119.900 Y123.607 E0.00084
G1 X119.900 Y86.421 E0.96892
M204 S1000
G1 F8640
G1 X119.903 Y89.712 E-0.76000
G1 E-0.04000 F2100.00000
G1 Z1.700 F10800.000
G1 X132.857 Y89.093
G1 Z1.100
G1 E0.80000 F2100.00000
M204 S800
G1 F1116
G1 X132.889 Y89.093 E0.00084
G1 X132.889 Y120.907 E0.82895
G1 X132.857 Y120.907 E0.00084
G1 X132.857 Y89.153 E0.82738
M204 S1000
G1 F8640
G1 X132.889 Y89.093 E-0.01571
G1 X132.889 Y92.316 E-0.74429
G1 E-0.04000 F2100.00000
G1 Z1.700 F10800.000
G1 X120.350 Y88.675
G1 Z1.100
G1 E0.80000 F2100.00000
M204 S800
G1 F1116
G1 X133.307 Y88.675 E0.33761
G1 X133.307 Y121.325 E0.85072
G1 X120.350 Y121.325 E0.33761
G1 X120.350 Y124.025 E0.07035
G1 X119.482 Y124.025 E0.02261
G1 X119.482 Y85.975 E0.99142
G1 X120.350 Y85.975 E0.02261
G1 X120.350 Y88.615 E0.06879
M204 S1000
