; generated by PrusaSlicer 2.1.1 on 2021-01-01 at 21:37:16 UTC

; 

; external perimeters extrusion width = 0.60mm
; perimeters extrusion width = 0.50mm
; infill extrusion width = 0.50mm
; solid infill extrusion width = 0.50mm
; top infill extrusion width = 0.45mm
; first layer extrusion width = 0.42mm

M73 P0 R31
M73 Q0 S31
M201 X1000 Y1000 Z200 E5000 ; sets maximum accelerations, mm/sec^2
M203 X200 Y200 Z12 E120 ; sets maximum feedrates, mm/sec
M204 P1250 R1250 T1250 ; sets acceleration (P, T) and retract acceleration (R), mm/sec^2
M205 X8.00 Y8.00 Z0.40 E4.50 ; sets the jerk limits, mm/sec
M205 S0 T0 ; sets the minimum extruding and travel feed rate, mm/sec
M107
M862.3 P "MK3S" ; printer model check
M862.1 P0.4 ; nozzle diameter check
M115 U3.9.1 ; tell printer latest fw version
G90 ; use absolute coordinates
M83 ; extruder relative mode
M104 S230 ; set extruder temp
M140 S85 ; set bed temp
M190 S85 ; wait for bed temp
M109 S230 ; wait for extruder temp
G28 W ; home all without mesh bed level
G80 ; mesh bed leveling
G1 Y-3.0 F1000.0 ; go outside print area
G92 E0.0
G1 X60.0 E9.0 F1000.0 ; intro line
M73 Q0 S31
M73 P0 R31
G1 X100.0 E12.5 F1000.0 ; intro line
G92 E0.0
M221 S95
G21 ; set units to millimeters
G90 ; use absolute coordinates
M83 ; use relative distances for extrusion
M900 K0.08 ; Filament gcode LA 1.5
M900 K45 ; Filament gcode LA 1.0
;BEFORE_LAYER_CHANGE
G92 E0.0
;0.2


G1 E-1.40000 F2100.00000
G1 Z0.200 F10800.000
;AFTER_LAYER_CHANGE
;0.2
G1 Z0.400
G1 X34.652 Y24.157
G1 Z0.200
G1 E1.40000 F2100.00000
M204 S1000
G1 F1200
G1 X44.300 Y20.610 E0.32232
G1 X45.023 Y20.478 E0.02304
G1 X54.950 Y20.478 E0.31126
G1 X55.674 Y20.602 E0.02304
G1 X65.328 Y24.148 E0.32244
G1 X73.505 Y31.006 E0.33463
G1 X78.841 Y40.253 E0.33474
G1 X80.656 Y50.371 E0.32233
G1 X80.655 Y51.099 E0.02281
G1 X78.929 Y60.890 E0.31172
G1 X78.674 Y61.575 E0.02293
G1 X73.508 Y70.458 E0.32220
G1 X65.646 Y77.099 E0.32266
G1 X65.013 Y77.465 E0.02293
G1 X55.343 Y80.953 E0.32233
G1 X44.681 Y80.958 E0.33429
G1 X34.652 Y77.309 E0.33463
G1 X26.481 Y70.450 E0.33451
G1 X21.154 Y61.214 E0.33429
G1 X19.339 Y51.095 E0.32233
G1 X19.340 Y50.368 E0.02281
G1 X21.169 Y40.212 E0.32357
G1 X26.281 Y31.301 E0.32210
G1 X26.759 Y30.737 E0.02315
G1 X34.606 Y24.196 E0.32032
G1 F8640
G1 X40.008 Y22.197 E-1.33000
G1 E-0.07000 F2100.00000
G1 Z0.400 F10800.000
G1 X36.046 Y26.568
G1 Z0.200
G1 E1.40000 F2100.00000
G1 F1200
G1 X45.152 Y23.253 E0.30385
G1 X54.843 Y23.253 E0.30385
G1 X63.950 Y26.568 E0.30385
G1 X71.373 Y32.797 E0.30385
G1 X76.219 Y41.190 E0.30385
G1 X77.902 Y50.733 E0.30385
G1 X76.219 Y60.277 E0.30385
G1 X71.373 Y68.670 E0.30385
G1 X63.950 Y74.899 E0.30385
G1 X54.843 Y78.213 E0.30385
G1 X45.152 Y78.213 E0.30385
G1 X36.046 Y74.899 E0.30385
G1 X28.622 Y68.670 E0.30385
G1 X23.777 Y60.277 E0.30385
G1 X22.094 Y50.733 E0.30385
G1 X23.777 Y41.190 E0.30385
G1 X28.622 Y32.797 E0.30385
G1 X36.000 Y26.606 E0.30197
G1 X35.757 Y26.318 F10800.000
G1 F1200
G1 X35.854 Y26.236 E0.00397
G1 X45.086 Y22.876 E0.30802
G1 X54.910 Y22.876 E0.30802
G1 X64.141 Y26.236 E0.30802
G1 X71.667 Y32.551 E0.30802
G1 X76.579 Y41.059 E0.30802
G1 X78.284 Y50.733 E0.30802
G1 X76.579 Y60.408 E0.30802
G1 X71.667 Y68.916 E0.30802
G1 X64.141 Y75.230 E0.30802
G1 X54.910 Y78.590 E0.30802
G1 X45.086 Y78.590 E0.30802
G1 X35.854 Y75.230 E0.30802
G1 X28.329 Y68.916 E0.30802
G1 X23.417 Y60.408 E0.30802
G1 X21.711 Y50.733 E0.30802
G1 X23.417 Y41.059 E0.30802
G1 X28.329 Y32.551 E0.30802
G1 X35.711 Y26.356 E0.30218
G1 X35.879 Y26.354 F10800.000
G1 F8640
G1 X35.854 Y26.236 E-0.04306
G1 X41.092 Y24.330 E-1.28694
G1 E-0.07000 F2100.00000
G1 Z0.400 F10800.000
G1 X63.695 Y26.596
G1 Z0.200
G1 E1.40000 F2100.00000
G1 F1200
G1 X73.081 Y35.982 E0.41884
G1 F8640
G1 X69.008 Y31.909 E-1.33000
G1 E-0.07000 F2100.00000
G1 Z0.400 F10800.000
G1 X73.814 Y37.251
G1 Z0.200
G1 E1.40000 F2100.00000
G1 F1200
G1 X63.135 Y26.573 E0.47654
G1 X62.292 Y26.265 E0.02833
G1 X74.548 Y38.521 E0.54691
G1 F8640
G1 X70.475 Y34.448 E-1.33000
G1 E-0.07000 F2100.00000
G1 Z0.400 F10800.000
G1 X75.281 Y39.791
G1 Z0.200
G1 E1.40000 F2100.00000
G1 F1200
G1 X61.448 Y25.958 E0.61728
G1 X60.604 Y25.651 E0.02833
G1 X75.550 Y40.597 E0.66696
G1 X75.949 Y41.288 E0.02517
G1 X76.001 Y41.585 E0.00952
G1 X59.760 Y25.344 E0.72474
G1 X58.917 Y25.037 E0.02833
G1 X76.116 Y42.237 E0.76752
G1 X76.231 Y42.888 E0.02088
G1 X58.073 Y24.730 E0.81030
G1 X57.229 Y24.423 E0.02833
G1 X76.346 Y43.540 E0.85308
G1 X76.461 Y44.191 E0.02088
G1 X56.385 Y24.116 E0.89586
G1 X55.541 Y23.809 E0.02833
G1 X76.576 Y44.843 E0.93864
G1 X76.691 Y45.494 E0.02088
G1 X54.732 Y23.536 E0.97987
G1 X54.196 Y23.536 E0.01693
G1 X76.806 Y46.146 E1.00895
G1 X76.920 Y46.798 E0.02088
G1 X53.659 Y23.536 E1.03802
G1 X53.122 Y23.536 E0.01693
G1 X77.035 Y47.449 E1.06710
G1 X77.150 Y48.101 E0.02088
G1 X52.586 Y23.536 E1.09617
G1 X52.049 Y23.536 E0.01693
G1 X77.265 Y48.752 E1.12525
G1 X77.380 Y49.404 E0.02088
G1 X51.512 Y23.536 E1.15432
G1 X50.976 Y23.536 E0.01693
G1 X77.495 Y50.055 E1.18340
G1 X77.610 Y50.707 E0.02088
G1 X50.439 Y23.536 E1.21247
M73 Q3 S30
M73 P3 R30
G1 X49.902 Y23.536 E0.01693
G1 X77.537 Y51.171 E1.23319
G1 X77.457 Y51.627 E0.01462
G1 X49.366 Y23.536 E1.25355
G1 X48.829 Y23.536 E0.01693
G1 X77.376 Y52.083 E1.27391
G1 X77.296 Y52.540 E0.01462
G1 X48.292 Y23.536 E1.29426
G1 X47.756 Y23.536 E0.01693
G1 X77.215 Y52.996 E1.31462
G1 X77.135 Y53.452 E0.01462
G1 X47.219 Y23.536 E1.33498
G1 X46.682 Y23.536 E0.01693
G1 X77.055 Y53.908 E1.35534
G1 X76.974 Y54.365 E0.01462
G1 X46.146 Y23.536 E1.37570
G1 X45.609 Y23.536 E0.01693
G1 X76.894 Y54.821 E1.39606
G1 X76.813 Y55.277 E0.01462
G1 X45.107 Y23.571 E1.41487
G1 X44.714 Y23.714 E0.01321
G1 X76.733 Y55.733 E1.42884
G1 X76.652 Y56.190 E0.01462
G1 X44.320 Y23.857 E1.44281
G1 X43.927 Y24.000 E0.01321
G1 X76.572 Y56.646 E1.45678
G1 X76.491 Y57.102 E0.01462
G1 X43.533 Y24.144 E1.47074
G1 X43.140 Y24.287 E0.01321
G1 X76.411 Y57.558 E1.48471
G1 X76.331 Y58.014 E0.01462
G1 X42.746 Y24.430 E1.49868
G1 X42.353 Y24.573 E0.01321
G1 X76.250 Y58.471 E1.51265
G1 X76.170 Y58.927 E0.01462
G1 X41.959 Y24.717 E1.52662
G1 X41.566 Y24.860 E0.01321
G1 X76.089 Y59.383 E1.54059
G1 X76.009 Y59.839 E0.01462
G1 X41.172 Y25.003 E1.55455
G1 X40.779 Y25.146 E0.01321
G1 X75.899 Y60.266 E1.56720
G1 X75.702 Y60.606 E0.01240
G1 X40.385 Y25.289 E1.57599
G1 X39.992 Y25.433 E0.01321
G1 X75.506 Y60.946 E1.58478
G1 X75.309 Y61.287 E0.01240
G1 X39.599 Y25.576 E1.59357
G1 X39.205 Y25.719 E0.01321
G1 X75.113 Y61.627 E1.60237
G1 X74.916 Y61.967 E0.01240
G1 X38.812 Y25.862 E1.61116
M73 Q6 S29
M73 P6 R29
G1 X38.418 Y26.005 E0.01321
G1 X74.720 Y62.307 E1.61995
G1 X74.524 Y62.648 E0.01240
G1 X38.025 Y26.149 E1.62874
G1 X37.631 Y26.292 E0.01321
G1 X74.327 Y62.988 E1.63754
G1 X74.131 Y63.328 E0.01240
G1 X37.238 Y26.435 E1.64633
G1 X36.844 Y26.578 E0.01321
G1 X73.934 Y63.668 E1.65512
G1 X73.738 Y64.008 E0.01240
G1 X36.451 Y26.721 E1.66391
G1 X36.189 Y26.817 E0.00878
G1 X36.091 Y26.899 E0.00403
G1 X73.541 Y64.349 E1.67118
G1 X73.345 Y64.689 E0.01240
G1 X35.800 Y27.144 E1.67544
G1 X35.508 Y27.388 E0.01202
G1 X73.149 Y65.029 E1.67970
G1 X72.952 Y65.369 E0.01240
G1 X35.216 Y27.633 E1.68395
G1 X34.924 Y27.878 E0.01202
G1 X72.756 Y65.710 E1.68821
G1 X72.559 Y66.050 E0.01240
G1 X34.632 Y28.123 E1.69246
G1 X34.341 Y28.368 E0.01202
G1 X72.363 Y66.390 E1.69672
G1 X72.166 Y66.730 E0.01240
G1 X34.049 Y28.613 E1.70098
G1 X33.757 Y28.858 E0.01202
G1 X71.970 Y67.071 E1.70523
G1 X71.774 Y67.411 E0.01240
G1 X33.465 Y29.102 E1.70949
G1 X33.173 Y29.347 E0.01202
G1 X71.577 Y67.751 E1.71374
G1 X71.381 Y68.091 E0.01240
G1 X32.882 Y29.592 E1.71800
G1 X32.590 Y29.837 E0.01202
G1 X71.184 Y68.432 E1.72226
G1 X71.153 Y68.485 E0.00195
G1 X70.907 Y68.691 E0.01013
G1 X32.298 Y30.082 E1.72293
G1 X32.006 Y30.327 E0.01202
G1 X70.616 Y68.936 E1.72293
G1 X70.324 Y69.181 E0.01202
G1 X31.714 Y30.572 E1.72293
G1 X31.422 Y30.816 E0.01202
G1 X70.032 Y69.426 E1.72293
M73 Q10 S28
M73 P10 R28
G1 X69.740 Y69.671 E0.01202
G1 X31.131 Y31.061 E1.72293
G1 X30.839 Y31.306 E0.01202
G1 X69.448 Y69.916 E1.72293
G1 X69.157 Y70.161 E0.01202
G1 X30.547 Y31.551 E1.72293
G1 X30.255 Y31.796 E0.01202
G1 X68.865 Y70.405 E1.72293
G1 X68.573 Y70.650 E0.01202
G1 X29.963 Y32.041 E1.72293
G1 X29.672 Y32.286 E0.01202
G1 X68.281 Y70.895 E1.72293
G1 X67.989 Y71.140 E0.01202
G1 X29.380 Y32.530 E1.72293
G1 X29.088 Y32.775 E0.01202
G1 X67.697 Y71.385 E1.72293
G1 X67.406 Y71.630 E0.01202
G1 X28.811 Y33.035 E1.72226
G1 X28.615 Y33.375 E0.01240
G1 X67.114 Y71.875 E1.71800
G1 X66.822 Y72.119 E0.01202
G1 X28.418 Y33.716 E1.71374
G1 X28.222 Y34.056 E0.01240
G1 X66.530 Y72.364 E1.70949
G1 X66.238 Y72.609 E0.01202
G1 X28.025 Y34.396 E1.70523
G1 X27.829 Y34.736 E0.01240
G1 X65.947 Y72.854 E1.70098
G1 X65.655 Y73.099 E0.01202
G1 X27.633 Y35.077 E1.69672
G1 X27.436 Y35.417 E0.01240
G1 X65.363 Y73.344 E1.69246
G1 X65.071 Y73.589 E0.01202
G1 X27.240 Y35.757 E1.68821
G1 X27.043 Y36.097 E0.01240
G1 X64.779 Y73.833 E1.68395
G1 X64.488 Y74.078 E0.01202
G1 X26.847 Y36.438 E1.67969
G1 X26.650 Y36.778 E0.01240
G1 X64.196 Y74.323 E1.67544
G1 X63.904 Y74.568 E0.01202
G1 X26.454 Y37.118 E1.67118
G1 X26.258 Y37.458 E0.01240
G1 X63.544 Y74.745 E1.66391
M73 Q13 S27
M73 P13 R27
G1 X63.151 Y74.889 E0.01321
G1 X26.061 Y37.799 E1.65512
G1 X25.865 Y38.139 E0.01240
G1 X62.758 Y75.032 E1.64633
G1 X62.364 Y75.175 E0.01321
G1 X25.668 Y38.479 E1.63753
G1 X25.472 Y38.819 E0.01240
G1 X61.971 Y75.318 E1.62874
G1 X61.577 Y75.461 E0.01321
G1 X25.275 Y39.159 E1.61995
G1 X25.079 Y39.500 E0.01240
G1 X61.184 Y75.605 E1.61116
G1 X60.790 Y75.748 E0.01321
G1 X24.882 Y39.840 E1.60236
G1 X24.686 Y40.180 E0.01240
G1 X60.397 Y75.891 E1.59357
G1 X60.003 Y76.034 E0.01321
G1 X24.490 Y40.520 E1.58478
G1 X24.293 Y40.861 E0.01240
G1 X59.610 Y76.177 E1.57599
G1 X59.216 Y76.321 E0.01321
G1 X24.097 Y41.201 E1.56720
G1 X24.047 Y41.288 E0.00317
G1 X23.987 Y41.627 E0.01088
G1 X58.823 Y76.464 E1.55455
G1 X58.429 Y76.607 E0.01321
G1 X23.906 Y42.084 E1.54058
G1 X23.826 Y42.540 E0.01462
G1 X58.036 Y76.750 E1.52661
G1 X57.643 Y76.893 E0.01321
G1 X23.745 Y42.996 E1.51265
G1 X23.665 Y43.452 E0.01462
G1 X57.249 Y77.037 E1.49868
G1 X56.856 Y77.180 E0.01321
G1 X23.584 Y43.909 E1.48471
G1 X23.504 Y44.365 E0.01462
G1 X56.462 Y77.323 E1.47074
G1 X56.069 Y77.466 E0.01321
G1 X23.424 Y44.821 E1.45677
G1 X23.343 Y45.277 E0.01462
G1 X55.675 Y77.609 E1.44280
G1 X55.282 Y77.753 E0.01321
G1 X23.263 Y45.734 E1.42884
G1 X23.182 Y46.190 E0.01462
G1 X54.888 Y77.896 E1.41487
G1 X54.793 Y77.930 E0.00319
G1 X54.386 Y77.930 E0.01284
G1 X23.102 Y46.646 E1.39605
G1 X23.021 Y47.102 E0.01462
G1 X53.850 Y77.930 E1.37569
G1 X53.313 Y77.930 E0.01693
G1 X22.941 Y47.558 E1.35534
M73 Q16 S26
M73 P16 R26
G1 X22.860 Y48.015 E0.01462
G1 X52.776 Y77.930 E1.33498
G1 X52.240 Y77.930 E0.01693
G1 X22.780 Y48.471 E1.31462
G1 X22.699 Y48.927 E0.01462
G1 X51.703 Y77.930 E1.29426
G1 X51.166 Y77.930 E0.01693
G1 X22.619 Y49.383 E1.27390
G1 X22.539 Y49.840 E0.01462
G1 X50.630 Y77.930 E1.25354
G1 X50.093 Y77.930 E0.01693
G1 X22.458 Y50.296 E1.23318
G1 X22.386 Y50.760 E0.01483
G1 X49.556 Y77.930 E1.21247
G1 X49.020 Y77.930 E0.01693
G1 X22.501 Y51.412 E1.18339
G1 X22.615 Y52.063 E0.02088
G1 X48.483 Y77.930 E1.15432
G1 X47.946 Y77.930 E0.01693
G1 X22.730 Y52.715 E1.12524
G1 X22.845 Y53.366 E0.02088
G1 X47.410 Y77.930 E1.09617
G1 X46.873 Y77.930 E0.01693
G1 X22.960 Y54.018 E1.06709
G1 X23.075 Y54.669 E0.02088
G1 X46.336 Y77.930 E1.03801
G1 X45.799 Y77.930 E0.01693
G1 X23.190 Y55.321 E1.00894
G1 X23.305 Y55.972 E0.02088
G1 X45.263 Y77.930 E0.97986
G1 X45.202 Y77.930 E0.00192
G1 X44.454 Y77.658 E0.02513
G1 X23.420 Y56.624 E0.93863
G1 X23.535 Y57.276 E0.02088
G1 X43.610 Y77.351 E0.89585
G1 X42.766 Y77.044 E0.02833
G1 X23.649 Y57.927 E0.85307
G1 X23.764 Y58.579 E0.02088
G1 X41.922 Y76.737 E0.81029
G1 X41.079 Y76.430 E0.02833
G1 X23.879 Y59.230 E0.76751
G1 X23.994 Y59.882 E0.02088
G1 X40.235 Y76.123 E0.72473
G1 X39.391 Y75.815 E0.02833
G1 X23.982 Y60.406 E0.68763
G1 F8640
G1 X28.055 Y64.479 E-1.33000
G1 E-0.07000 F2100.00000
G1 Z0.400 F10800.000
G1 X24.715 Y61.676
G1 Z0.200
G1 E1.40000 F2100.00000
G1 F1200
G1 X38.831 Y75.792 E0.62993
G1 X37.987 Y75.485 F10800.000
G1 F1200
G1 X25.448 Y62.946 E0.55956
G1 F8640
G1 X29.521 Y67.019 E-1.33000
G1 E-0.07000 F2100.00000
G1 Z0.400 F10800.000
G1 X26.181 Y64.216
G1 Z0.200
G1 E1.40000 F2100.00000
G1 F1200
G1 X37.144 Y75.178 E0.48919
G1 X36.300 Y74.871 F10800.000
G1 F1200
G1 X26.914 Y65.485 E0.41883
G1 F8640
G1 X30.987 Y69.558 E-1.33000
G1 E-0.07000 F2100.00000
G1 Z0.400 F10800.000
G1 X27.647 Y66.755
G1 Z0.200
G1 E1.40000 F2100.00000
G1 F1200
G1 X33.545 Y72.653 E0.26319
G1 F8640
G1 X29.472 Y68.580 E-1.33000
G1 E-0.07000 F2100.00000
G1 Z0.400 F10800.000
G1 X72.348 Y34.712
G1 Z0.200
G1 E1.40000 F2100.00000
G1 F1200
G1 X66.449 Y28.813 E0.26323
;BEFORE_LAYER_CHANGE
G92 E0.0
;0.5


G1 F8640
G1 X70.522 Y32.886 E-1.33000
G1 E-0.07000 F2100.00000
G1 Z0.400 F10800.000
G1 Z0.500
;AFTER_LAYER_CHANGE
;0.5
M104 S240 ; set temperature
M140 S90 ; set bed temperature
G1 Z0.700
G1 X73.505 Y31.006
G1 Z0.500
G1 E1.40000 F2100.00000
G1 F2700
G1 X78.841 Y40.253 E0.47353
G1 X80.656 Y50.371 E0.45597
G1 X80.655 Y51.099 E0.03227
G1 X78.929 Y60.890 E0.44097
G1 X78.674 Y61.575 E0.03243
G1 X73.508 Y70.458 E0.45580
G1 X65.646 Y77.099 E0.45645
G1 X65.013 Y77.465 E0.03243
G1 X55.343 Y80.953 E0.45597
G1 X44.681 Y80.958 E0.47289
G1 X34.652 Y77.309 E0.47337
G1 X26.481 Y70.450 E0.47321
G1 X21.154 Y61.214 E0.47289
G1 X19.339 Y51.095 E0.45597
G1 X19.340 Y50.368 E0.03227
G1 X21.169 Y40.212 E0.45773
G1 X26.281 Y31.301 E0.45565
G1 X26.759 Y30.737 E0.03275
G1 X34.652 Y24.157 E0.45580
G1 X44.300 Y20.610 E0.45596
G1 X45.023 Y20.478 E0.03259
G1 X54.950 Y20.478 E0.44032
G1 X55.674 Y20.602 E0.03259
G1 X65.328 Y24.148 E0.45614
G1 X73.459 Y30.967 E0.47071
G1 F8640
G1 X76.348 Y35.951 E-1.33000
G1 E-0.07000 F2100.00000
G1 Z0.700 F10800.000
G1 X71.219 Y32.927
G1 Z0.500
G1 E1.40000 F2100.00000
M204 S800
G1 F3000
G1 X76.029 Y41.259 E0.52273
G1 X77.700 Y50.733 E0.52273
G1 X76.029 Y60.208 E0.52273
G1 X71.219 Y68.540 E0.52273
G1 X63.849 Y74.724 E0.52273
G1 X54.808 Y78.015 E0.52273
G1 X45.187 Y78.015 E0.52273
G1 X36.147 Y74.724 E0.52273
G1 X28.777 Y68.540 E0.52273
G1 X23.966 Y60.208 E0.52273
G1 X22.295 Y50.733 E0.52273
G1 X23.966 Y41.259 E0.52273
G1 X28.777 Y32.927 E0.52273
G1 X36.147 Y26.743 E0.52273
G1 X45.187 Y23.452 E0.52273
G1 X54.808 Y23.452 E0.52273
G1 X63.849 Y26.743 E0.52273
G1 X71.173 Y32.888 E0.51947
M204 S1000
G1 X71.485 Y32.516 F10800.000
M204 S800
G1 F2100
G1 X71.597 Y32.610 E0.00973
G1 X76.493 Y41.090 E0.65416
G1 X78.193 Y50.733 E0.65417
G1 X76.493 Y60.377 E0.65417
G1 X71.597 Y68.857 E0.65416
G1 X64.095 Y75.151 E0.65417
G1 X54.894 Y78.500 E0.65417
G1 X45.102 Y78.500 E0.65417
G1 X35.900 Y75.151 E0.65417
G1 X28.399 Y68.857 E0.65417
G1 X23.503 Y60.377 E0.65416
G1 X21.802 Y50.733 E0.65417
G1 X23.503 Y41.090 E0.65417
G1 X28.399 Y32.610 E0.65416
G1 X35.900 Y26.315 E0.65417
G1 X45.102 Y22.966 E0.65417
G1 X54.894 Y22.966 E0.65417
G1 X64.095 Y26.315 E0.65417
G1 X71.439 Y32.478 E0.64043
M204 S1000
G1 X71.468 Y32.661 F10800.000
G1 F8640
G1 X71.597 Y32.610 E-0.04748
G1 X74.374 Y37.420 E-1.28252
G1 E-0.07000 F2100.00000
G1 Z0.700 F10800.000
G1 X75.710 Y60.499
G1 Z0.500
G1 E1.40000 F2100.00000
G1 F3667.24
G1 X60.351 Y75.858 E1.18200
G1 F8640
G1 X64.424 Y71.785 E-1.33000
G1 E-0.07000 F2100.00000
G1 Z0.700 F10800.000
G1 X61.321 Y75.505
G1 Z0.500
G1 E1.40000 F2100.00000
G1 F3667.24
G1 X74.868 Y61.959 E1.04248
M73 Q19 S25
M73 P19 R25
G1 F8640
G1 X70.795 Y66.032 E-1.33000
G1 E-0.07000 F2100.00000
G1 Z0.700 F10800.000
G1 X74.025 Y63.419
G1 Z0.500
G1 E1.40000 F2100.00000
G1 F3667.24
G1 X62.292 Y75.152 E0.90296
G1 F8640
G1 X66.364 Y71.079 E-1.33000
G1 E-0.07000 F2100.00000
G1 Z0.700 F10800.000
G1 X63.262 Y74.799
G1 Z0.500
G1 E1.40000 F2100.00000
G1 F3667.24
G1 X73.182 Y64.879 E0.76344
G1 F8640
G1 X69.109 Y68.952 E-1.33000
G1 E-0.07000 F2100.00000
G1 Z0.700 F10800.000
G1 X72.339 Y66.338
G1 Z0.500
G1 E1.40000 F2100.00000
G1 F3667.24
G1 X65.558 Y73.119 E0.52183
G1 F8640
G1 X69.631 Y69.046 E-1.33000
