; generated by PrusaSlicer 2.1.1 on 2021-01-01 at 16:42:06 UTC

; 

; external perimeters extrusion width = 0.60mm
; perimeters extrusion width = 0.50mm
; infill extrusion width = 0.50mm
; solid infill extrusion width = 0.50mm
; top infill extrusion width = 0.45mm
; first layer extrusion width = 0.42mm

M73 P0 R267
M73 Q0 S270
M201 X1000 Y1000 Z200 E5000 ; sets maximum accelerations, mm/sec^2
M203 X200 Y200 Z12 E120 ; sets maximum feedrates, mm/sec
M204 P1250 R1250 T1250 ; sets acceleration (P, T) and retract acceleration (R), mm/sec^2
M205 X8.00 Y8.00 Z0.40 E4.50 ; sets the jerk limits, mm/sec
M205 S0 T0 ; sets the minimum extruding and travel feed rate, mm/sec
M107
M862.3 P "MK3S" ; printer model check
M862.1 P0.4 ; nozzle diameter check
M115 U3.9.1 ; tell printer latest fw version
G90 ; use absolute coordinates
M83 ; extruder relative mode
M104 S230 ; set extruder temp
M140 S85 ; set bed temp
M190 S85 ; wait for bed temp
M109 S230 ; wait for extruder temp
G28 W ; home all without mesh bed level
G80 ; mesh bed leveling
G1 Y-3.0 F1000.0 ; go outside print area
G92 E0.0
G1 X60.0 E9.0 F1000.0 ; intro line
M73 Q0 S270
M73 P0 R267
G1 X100.0 E12.5 F1000.0 ; intro line
G92 E0.0
M221 S95
G21 ; set units to millimeters
G90 ; use absolute coordinates
M83 ; use relative distances for extrusion
M900 K0.08 ; Filament gcode LA 1.5
M900 K45 ; Filament gcode LA 1.0
;BEFORE_LAYER_CHANGE
G92 E0.0
;0.2


G1 E-1.40000 F2100.00000
G1 Z0.200 F10800.000
;AFTER_LAYER_CHANGE
;0.2
G1 Z0.400
G1 X41.431 Y6.800
G1 Z0.200
G1 E1.40000 F2100.00000
M204 S1000
G1 F1200
G1 X41.762 Y6.176 E0.02213
G1 X42.108 Y5.815 E0.01567
G1 X42.526 Y5.542 E0.01567
G1 X42.996 Y5.372 E0.01567
G1 X43.492 Y5.311 E0.01567
G1 X193.508 Y5.311 E4.70367
G1 X194.058 Y5.383 E0.01737
G1 X194.575 Y5.591 E0.01749
G1 X195.020 Y5.921 E0.01737
G1 X195.368 Y6.352 E0.01737
G1 X208.401 Y28.925 E0.81725
G1 X208.609 Y29.434 E0.01726
G1 X208.684 Y29.980 E0.01726
G1 X208.677 Y180.168 E4.70905
G1 X208.588 Y180.641 E0.01510
G1 X208.399 Y181.080 E0.01498
G1 X195.246 Y203.825 E0.82381
G1 X194.900 Y204.186 E0.01567
G1 X194.478 Y204.460 E0.01578
G1 X194.009 Y204.630 E0.01567
G1 X193.512 Y204.689 E0.01567
G1 X43.497 Y204.689 E4.70361
G1 X42.805 Y204.574 E0.02202
G1 X42.181 Y204.243 E0.02213
G1 X41.818 Y203.894 E0.01578
G1 X41.546 Y203.475 E0.01567
G1 X41.375 Y203.006 E0.01567
G1 X41.316 Y202.506 E0.01578
G1 X41.316 Y7.496 E6.11439
G1 X41.422 Y6.859 E0.02025
G1 F8640
G1 X41.762 Y6.176 E-0.17619
G1 X42.108 Y5.815 E-0.11536
G1 X42.526 Y5.542 E-0.11536
G1 X42.996 Y5.372 E-0.11536
G1 X43.492 Y5.312 E-0.11536
G1 X46.490 Y5.312 E-0.69235
G1 E-0.07000 F2100.00000
G1 Z0.400 F10800.000
G1 X44.092 Y108.087
G1 Z0.200
G1 E1.40000 F2100.00000
G1 F1200
G1 X193.166 Y108.087 E4.67411
G1 X205.817 Y130.000 E0.79335
G1 X193.166 Y151.913 E0.79335
G1 X44.092 Y151.913 E4.67411
G1 X44.092 Y108.147 E1.37225
M73 Q0 S269
G1 X43.715 Y107.710 F10800.000
G1 F1200
G1 X193.384 Y107.710 E4.69276
M73 P0 R266
G1 X206.253 Y130.000 E0.80701
G1 X193.384 Y152.290 E0.80701
G1 X43.715 Y152.290 E4.69276
G1 X43.715 Y107.770 E1.39589
G1 X44.113 Y107.749 F10800.000
G1 F8640
G1 X49.475 Y107.768 E-1.33000
G1 E-0.07000 F2100.00000
G1 Z0.400 F10800.000
G1 X44.205 Y151.037
G1 Z0.200
G1 E1.40000 F2100.00000
G1 F1200
G1 X44.798 Y151.630 E0.02629
G1 X45.331 Y151.630 E0.01673
G1 X44.375 Y150.674 E0.04242
G1 X44.375 Y150.140 E0.01673
G1 X45.864 Y151.630 E0.06608
G1 X46.398 Y151.630 E0.01673
G1 X44.375 Y149.607 E0.08974
G1 X44.375 Y149.073 E0.01673
G1 X46.931 Y151.630 E0.11340
G1 X47.465 Y151.630 E0.01673
G1 X44.375 Y148.540 E0.13706
G1 X44.375 Y148.007 E0.01673
G1 X47.998 Y151.630 E0.16071
G1 X48.532 Y151.630 E0.01673
G1 X44.375 Y147.473 E0.18437
G1 X44.375 Y146.940 E0.01673
G1 X49.065 Y151.630 E0.20803
G1 X49.598 Y151.630 E0.01673
G1 X44.375 Y146.406 E0.23169
G1 X44.375 Y145.873 E0.01673
G1 X50.132 Y151.630 E0.25535
G1 X50.665 Y151.630 E0.01673
G1 X44.375 Y145.340 E0.27901
G1 X44.375 Y144.806 E0.01673
G1 X51.199 Y151.630 E0.30267
G1 X51.732 Y151.630 E0.01673
G1 X44.375 Y144.273 E0.32633
G1 X44.375 Y143.739 E0.01673
G1 X52.265 Y151.630 E0.34999
G1 X52.799 Y151.630 E0.01673
G1 X44.375 Y143.206 E0.37364
G1 X44.375 Y142.673 E0.01673
G1 X53.332 Y151.630 E0.39730
G1 X53.866 Y151.630 E0.01673
G1 X44.375 Y142.139 E0.42096
G1 X44.375 Y141.606 E0.01673
G1 X54.399 Y151.630 E0.44462
G1 X54.933 Y151.630 E0.01673
G1 X44.375 Y141.072 E0.46828
G1 X44.375 Y140.539 E0.01673
G1 X55.466 Y151.630 E0.49194
G1 X55.999 Y151.630 E0.01673
G1 X44.375 Y140.005 E0.51560
G1 X44.375 Y139.472 E0.01673
G1 X56.533 Y151.630 E0.53926
G1 X57.066 Y151.630 E0.01673
G1 X44.375 Y138.939 E0.56292
G1 X44.375 Y138.405 E0.01673
G1 X57.600 Y151.630 E0.58657
G1 X58.133 Y151.630 E0.01673
G1 X44.375 Y137.872 E0.61023
G1 X44.375 Y137.338 E0.01673
G1 X58.666 Y151.630 E0.63389
G1 X59.200 Y151.630 E0.01673
G1 X44.375 Y136.805 E0.65755
G1 X44.375 Y136.272 E0.01673
G1 X59.733 Y151.630 E0.68121
G1 X60.267 Y151.630 E0.01673
G1 X44.375 Y135.738 E0.70487
G1 X44.375 Y135.205 E0.01673
G1 X60.800 Y151.630 E0.72853
G1 X61.334 Y151.630 E0.01673
G1 X44.375 Y134.671 E0.75219
G1 X44.375 Y134.138 E0.01673
G1 X61.867 Y151.630 E0.77584
G1 X62.400 Y151.630 E0.01673
G1 X44.375 Y133.604 E0.79950
G1 X44.375 Y133.071 E0.01673
G1 X62.934 Y151.630 E0.82316
G1 X63.467 Y151.630 E0.01673
G1 X44.375 Y132.538 E0.84682
G1 X44.375 Y132.004 E0.01673
G1 X64.001 Y151.630 E0.87048
G1 X64.534 Y151.630 E0.01673
G1 X44.375 Y131.471 E0.89414
G1 X44.375 Y130.937 E0.01673
G1 X65.067 Y151.630 E0.91780
G1 X65.601 Y151.630 E0.01673
G1 X44.375 Y130.404 E0.94146
G1 X44.375 Y129.871 E0.01673
G1 X66.134 Y151.630 E0.96512
G1 X66.668 Y151.630 E0.01673
G1 X44.375 Y129.337 E0.98877
G1 X44.375 Y128.804 E0.01673
G1 X67.201 Y151.630 E1.01243
G1 X67.734 Y151.630 E0.01673
G1 X44.375 Y128.270 E1.03609
G1 X44.375 Y127.737 E0.01673
G1 X68.268 Y151.630 E1.05975
M73 Q0 S268
G1 X68.801 Y151.630 E0.01673
G1 X44.375 Y127.203 E1.08341
G1 X44.375 Y126.670 E0.01673
G1 X69.335 Y151.630 E1.10707
G1 X69.868 Y151.630 E0.01673
G1 X44.375 Y126.137 E1.13073
G1 X44.375 Y125.603 E0.01673
G1 X70.402 Y151.630 E1.15439
M73 P0 R265
G1 X70.935 Y151.630 E0.01673
G1 X44.375 Y125.070 E1.17805
G1 X44.375 Y124.536 E0.01673
G1 X71.468 Y151.630 E1.20170
G1 X72.002 Y151.630 E0.01673
G1 X44.375 Y124.003 E1.22536
G1 X44.375 Y123.470 E0.01673
G1 X72.535 Y151.630 E1.24902
G1 X73.069 Y151.630 E0.01673
G1 X44.375 Y122.936 E1.27268
G1 X44.375 Y122.403 E0.01673
G1 X73.602 Y151.630 E1.29634
G1 X74.135 Y151.630 E0.01673
G1 X44.375 Y121.869 E1.32000
G1 X44.375 Y121.336 E0.01673
G1 X74.669 Y151.630 E1.34366
G1 X75.202 Y151.630 E0.01673
G1 X44.375 Y120.803 E1.36732
G1 X44.375 Y120.269 E0.01673
G1 X75.736 Y151.630 E1.39097
G1 X76.269 Y151.630 E0.01673
G1 X44.375 Y119.736 E1.41463
G1 X44.375 Y119.202 E0.01673
G1 X76.803 Y151.630 E1.43829
G1 X77.336 Y151.630 E0.01673
G1 X44.375 Y118.669 E1.46195
G1 X44.375 Y118.135 E0.01673
G1 X77.869 Y151.630 E1.48561
G1 X78.403 Y151.630 E0.01673
G1 X44.375 Y117.602 E1.50927
G1 X44.375 Y117.069 E0.01673
G1 X78.936 Y151.630 E1.53293
G1 X79.470 Y151.630 E0.01673
G1 X44.375 Y116.535 E1.55659
G1 X44.375 Y116.002 E0.01673
G1 X80.003 Y151.630 E1.58025
G1 X80.536 Y151.630 E0.01673
G1 X44.375 Y115.468 E1.60390
G1 X44.375 Y114.935 E0.01673
G1 X81.070 Y151.630 E1.62756
G1 X81.603 Y151.630 E0.01673
G1 X44.375 Y114.402 E1.65122
G1 X44.375 Y113.868 E0.01673
G1 X82.137 Y151.630 E1.67488
G1 X82.670 Y151.630 E0.01673
G1 X44.375 Y113.335 E1.69854
M73 Q1 S267
G1 X44.375 Y112.801 E0.01673
G1 X83.204 Y151.630 E1.72220
G1 X83.737 Y151.630 E0.01673
G1 X44.375 Y112.268 E1.74586
G1 X44.375 Y111.734 E0.01673
G1 X84.270 Y151.630 E1.76952
M73 P1 R264
G1 X84.804 Y151.630 E0.01673
G1 X44.375 Y111.201 E1.79318
G1 X44.375 Y110.668 E0.01673
G1 X85.337 Y151.630 E1.81683
G1 X85.871 Y151.630 E0.01673
G1 X44.375 Y110.134 E1.84049
G1 X44.375 Y109.601 E0.01673
G1 X86.404 Y151.630 E1.86415
G1 X86.937 Y151.630 E0.01673
G1 X44.375 Y109.067 E1.88781
G1 X44.375 Y108.534 E0.01673
G1 X87.471 Y151.630 E1.91147
G1 X88.004 Y151.630 E0.01673
G1 X44.744 Y108.370 E1.91875
G1 X45.277 Y108.370 E0.01673
G1 X88.538 Y151.630 E1.91875
G1 X89.071 Y151.630 E0.01673
G1 X45.811 Y108.370 E1.91875
G1 X46.344 Y108.370 E0.01673
G1 X89.604 Y151.630 E1.91875
G1 X90.138 Y151.630 E0.01673
G1 X46.878 Y108.370 E1.91875
G1 X47.411 Y108.370 E0.01673
G1 X90.671 Y151.630 E1.91875
G1 X91.205 Y151.630 E0.01673
G1 X47.944 Y108.370 E1.91875
G1 X48.478 Y108.370 E0.01673
G1 X91.738 Y151.630 E1.91875
G1 X92.272 Y151.630 E0.01673
G1 X49.011 Y108.370 E1.91875
G1 X49.545 Y108.370 E0.01673
G1 X92.805 Y151.630 E1.91875
G1 X93.338 Y151.630 E0.01673
G1 X50.078 Y108.370 E1.91875
M73 Q1 S266
G1 X50.612 Y108.370 E0.01673
G1 X93.872 Y151.630 E1.91875
G1 X94.405 Y151.630 E0.01673
G1 X51.145 Y108.370 E1.91875
G1 X51.678 Y108.370 E0.01673
G1 X94.939 Y151.630 E1.91875
M73 P1 R263
G1 X95.472 Y151.630 E0.01673
G1 X52.212 Y108.370 E1.91875
G1 X52.745 Y108.370 E0.01673
G1 X96.005 Y151.630 E1.91875
G1 X96.539 Y151.630 E0.01673
G1 X53.279 Y108.370 E1.91875
G1 X53.812 Y108.370 E0.01673
G1 X97.072 Y151.630 E1.91875
G1 X97.606 Y151.630 E0.01673
G1 X54.345 Y108.370 E1.91875
G1 X54.879 Y108.370 E0.01673
G1 X98.139 Y151.630 E1.91875
G1 X98.673 Y151.630 E0.01673
G1 X55.412 Y108.370 E1.91875
G1 X55.946 Y108.370 E0.01673
G1 X99.206 Y151.630 E1.91875
G1 X99.739 Y151.630 E0.01673
G1 X56.479 Y108.370 E1.91875
G1 X57.013 Y108.370 E0.01673
G1 X100.273 Y151.630 E1.91875
G1 X100.806 Y151.630 E0.01673
G1 X57.546 Y108.370 E1.91875
G1 X58.079 Y108.370 E0.01673
G1 X101.340 Y151.630 E1.91875
G1 X101.873 Y151.630 E0.01673
G1 X58.613 Y108.370 E1.91875
G1 X59.146 Y108.370 E0.01673
G1 X102.406 Y151.630 E1.91875
G1 X102.940 Y151.630 E0.01673
G1 X59.680 Y108.370 E1.91875
G1 X60.213 Y108.370 E0.01673
G1 X103.473 Y151.630 E1.91875
G1 X104.007 Y151.630 E0.01673
G1 X60.746 Y108.370 E1.91875
M73 Q1 S265
G1 X61.280 Y108.370 E0.01673
G1 X104.540 Y151.630 E1.91875
G1 X105.074 Y151.630 E0.01673
G1 X61.813 Y108.370 E1.91875
G1 X62.347 Y108.370 E0.01673
G1 X105.607 Y151.630 E1.91875
M73 P1 R262
G1 X106.140 Y151.630 E0.01673
G1 X62.880 Y108.370 E1.91875
G1 X63.413 Y108.370 E0.01673
G1 X106.674 Y151.630 E1.91875
G1 X107.207 Y151.630 E0.01673
G1 X63.947 Y108.370 E1.91875
G1 X64.480 Y108.370 E0.01673
G1 X107.741 Y151.630 E1.91875
G1 X108.274 Y151.630 E0.01673
G1 X65.014 Y108.370 E1.91875
G1 X65.547 Y108.370 E0.01673
G1 X108.807 Y151.630 E1.91875
G1 X109.341 Y151.630 E0.01673
G1 X66.081 Y108.370 E1.91875
G1 X66.614 Y108.370 E0.01673
G1 X109.874 Y151.630 E1.91875
G1 X110.408 Y151.630 E0.01673
G1 X67.147 Y108.370 E1.91875
G1 X67.681 Y108.370 E0.01673
G1 X110.941 Y151.630 E1.91875
G1 X111.474 Y151.630 E0.01673
G1 X68.214 Y108.370 E1.91875
G1 X68.748 Y108.370 E0.01673
G1 X112.008 Y151.630 E1.91875
G1 X112.541 Y151.630 E0.01673
G1 X69.281 Y108.370 E1.91875
G1 X69.814 Y108.370 E0.01673
G1 X113.075 Y151.630 E1.91875
G1 X113.608 Y151.630 E0.01673
G1 X70.348 Y108.370 E1.91875
G1 X70.881 Y108.370 E0.01673
G1 X114.142 Y151.630 E1.91875
G1 X114.675 Y151.630 E0.01673
G1 X71.415 Y108.370 E1.91875
M73 Q2 S264
G1 X71.948 Y108.370 E0.01673
G1 X115.208 Y151.630 E1.91875
G1 X115.742 Y151.630 E0.01673
G1 X72.482 Y108.370 E1.91875
G1 X73.015 Y108.370 E0.01673
G1 X116.275 Y151.630 E1.91875
M73 P2 R261
G1 X116.809 Y151.630 E0.01673
G1 X73.548 Y108.370 E1.91875
G1 X74.082 Y108.370 E0.01673
G1 X117.342 Y151.630 E1.91875
G1 X117.875 Y151.630 E0.01673
G1 X74.615 Y108.370 E1.91875
G1 X75.149 Y108.370 E0.01673
G1 X118.409 Y151.630 E1.91875
G1 X118.942 Y151.630 E0.01673
G1 X75.682 Y108.370 E1.91875
G1 X76.215 Y108.370 E0.01673
G1 X119.476 Y151.630 E1.91875
G1 X120.009 Y151.630 E0.01673
G1 X76.749 Y108.370 E1.91875
G1 X77.282 Y108.370 E0.01673
G1 X120.543 Y151.630 E1.91875
G1 X121.076 Y151.630 E0.01673
G1 X77.816 Y108.370 E1.91875
G1 X78.349 Y108.370 E0.01673
G1 X121.609 Y151.630 E1.91875
G1 X122.143 Y151.630 E0.01673
G1 X78.882 Y108.370 E1.91875
G1 X79.416 Y108.370 E0.01673
G1 X122.676 Y151.630 E1.91875
G1 X123.210 Y151.630 E0.01673
G1 X79.949 Y108.370 E1.91875
G1 X80.483 Y108.370 E0.01673
G1 X123.743 Y151.630 E1.91875
G1 X124.276 Y151.630 E0.01673
G1 X81.016 Y108.370 E1.91875
G1 X81.550 Y108.370 E0.01673
G1 X124.810 Y151.630 E1.91875
G1 X125.343 Y151.630 E0.01673
G1 X82.083 Y108.370 E1.91875
M73 Q2 S263
G1 X82.616 Y108.370 E0.01673
G1 X125.877 Y151.630 E1.91875
G1 X126.410 Y151.630 E0.01673
G1 X83.150 Y108.370 E1.91875
G1 X83.683 Y108.370 E0.01673
G1 X126.943 Y151.630 E1.91875
M73 P2 R260
G1 X127.477 Y151.630 E0.01673
G1 X84.217 Y108.370 E1.91875
G1 X84.750 Y108.370 E0.01673
G1 X128.010 Y151.630 E1.91875
G1 X128.544 Y151.630 E0.01673
G1 X85.283 Y108.370 E1.91875
G1 X85.817 Y108.370 E0.01673
G1 X129.077 Y151.630 E1.91875
G1 X129.611 Y151.630 E0.01673
G1 X86.350 Y108.370 E1.91875
G1 X86.884 Y108.370 E0.01673
G1 X130.144 Y151.630 E1.91875
G1 X130.677 Y151.630 E0.01673
G1 X87.417 Y108.370 E1.91875
G1 X87.951 Y108.370 E0.01673
G1 X131.211 Y151.630 E1.91875
G1 X131.744 Y151.630 E0.01673
G1 X88.484 Y108.370 E1.91875
G1 X89.017 Y108.370 E0.01673
G1 X132.278 Y151.630 E1.91875
G1 X132.811 Y151.630 E0.01673
G1 X89.551 Y108.370 E1.91875
G1 X90.084 Y108.370 E0.01673
G1 X133.344 Y151.630 E1.91875
G1 X133.878 Y151.630 E0.01673
G1 X90.618 Y108.370 E1.91875
G1 X91.151 Y108.370 E0.01673
G1 X134.411 Y151.630 E1.91875
G1 X134.945 Y151.630 E0.01673
G1 X91.684 Y108.370 E1.91875
G1 X92.218 Y108.370 E0.01673
G1 X135.478 Y151.630 E1.91875
G1 X136.012 Y151.630 E0.01673
G1 X92.751 Y108.370 E1.91875
M73 Q3 S262
G1 X93.285 Y108.370 E0.01673
G1 X136.545 Y151.630 E1.91875
G1 X137.078 Y151.630 E0.01673
G1 X93.818 Y108.370 E1.91875
G1 X94.352 Y108.370 E0.01673
G1 X137.612 Y151.630 E1.91875
M73 P3 R259
G1 X138.145 Y151.630 E0.01673
G1 X94.885 Y108.370 E1.91875
G1 X95.418 Y108.370 E0.01673
G1 X138.679 Y151.630 E1.91875
G1 X139.212 Y151.630 E0.01673
G1 X95.952 Y108.370 E1.91875
G1 X96.485 Y108.370 E0.01673
G1 X139.745 Y151.630 E1.91875
G1 X140.279 Y151.630 E0.01673
G1 X97.019 Y108.370 E1.91875
G1 X97.552 Y108.370 E0.01673
G1 X140.812 Y151.630 E1.91875
G1 X141.346 Y151.630 E0.01673
G1 X98.085 Y108.370 E1.91875
G1 X98.619 Y108.370 E0.01673
G1 X141.879 Y151.630 E1.91875
G1 X142.413 Y151.630 E0.01673
G1 X99.152 Y108.370 E1.91875
G1 X99.686 Y108.370 E0.01673
G1 X142.946 Y151.630 E1.91875
G1 X143.479 Y151.630 E0.01673
G1 X100.219 Y108.370 E1.91875
G1 X100.752 Y108.370 E0.01673
G1 X144.013 Y151.630 E1.91875
G1 X144.546 Y151.630 E0.01673
G1 X101.286 Y108.370 E1.91875
G1 X101.819 Y108.370 E0.01673
G1 X145.080 Y151.630 E1.91875
G1 X145.613 Y151.630 E0.01673
G1 X102.353 Y108.370 E1.91875
G1 X102.886 Y108.370 E0.01673
G1 X146.146 Y151.630 E1.91875
G1 X146.680 Y151.630 E0.01673
G1 X103.420 Y108.370 E1.91875
M73 Q3 S261
G1 X103.953 Y108.370 E0.01673
G1 X147.213 Y151.630 E1.91875
G1 X147.747 Y151.630 E0.01673
G1 X104.486 Y108.370 E1.91875
G1 X105.020 Y108.370 E0.01673
G1 X148.280 Y151.630 E1.91875
M73 P3 R258
G1 X148.813 Y151.630 E0.01673
G1 X105.553 Y108.370 E1.91875
G1 X106.087 Y108.370 E0.01673
G1 X149.347 Y151.630 E1.91875
G1 X149.880 Y151.630 E0.01673
G1 X106.620 Y108.370 E1.91875
G1 X107.153 Y108.370 E0.01673
G1 X150.414 Y151.630 E1.91875
G1 X150.947 Y151.630 E0.01673
G1 X107.687 Y108.370 E1.91875
G1 X108.220 Y108.370 E0.01673
G1 X151.481 Y151.630 E1.91875
G1 X152.014 Y151.630 E0.01673
G1 X108.754 Y108.370 E1.91875
G1 X109.287 Y108.370 E0.01673
G1 X152.547 Y151.630 E1.91875
G1 X153.081 Y151.630 E0.01673
G1 X109.821 Y108.370 E1.91875
G1 X110.354 Y108.370 E0.01673
G1 X153.614 Y151.630 E1.91875
G1 X154.148 Y151.630 E0.01673
G1 X110.887 Y108.370 E1.91875
G1 X111.421 Y108.370 E0.01673
G1 X154.681 Y151.630 E1.91875
G1 X155.214 Y151.630 E0.01673
G1 X111.954 Y108.370 E1.91875
G1 X112.488 Y108.370 E0.01673
G1 X155.748 Y151.630 E1.91875
G1 X156.281 Y151.630 E0.01673
G1 X113.021 Y108.370 E1.91875
G1 X113.554 Y108.370 E0.01673
G1 X156.815 Y151.630 E1.91875
G1 X157.348 Y151.630 E0.01673
G1 X114.088 Y108.370 E1.91875
M73 Q3 S260
G1 X114.621 Y108.370 E0.01673
G1 X157.882 Y151.630 E1.91875
G1 X158.415 Y151.630 E0.01673
G1 X115.155 Y108.370 E1.91875
