; generated by PrusaSlicer 2.1.1 on 2021-01-01 at 13:32:12 UTC

; 

; external perimeters extrusion width = 0.60mm
; perimeters extrusion width = 0.50mm
; infill extrusion width = 0.50mm
; solid infill extrusion width = 0.50mm
; top infill extrusion width = 0.45mm
; first layer extrusion width = 0.42mm

M73 P0 R140
M73 Q0 S140
M201 X1000 Y1000 Z200 E5000 ; sets maximum accelerations, mm/sec^2
M203 X200 Y200 Z12 E120 ; sets maximum feedrates, mm/sec
M204 P1250 R1250 T1250 ; sets acceleration (P, T) and retract acceleration (R), mm/sec^2
M205 X8.00 Y8.00 Z0.40 E4.50 ; sets the jerk limits, mm/sec
M205 S0 T0 ; sets the minimum extruding and travel feed rate, mm/sec
M107
M862.3 P "MK3S" ; printer model check
M862.1 P0.4 ; nozzle diameter check
M115 U3.9.1 ; tell printer latest fw version
G90 ; use absolute coordinates
M83 ; extruder relative mode
M104 S230 ; set extruder temp
M140 S85 ; set bed temp
M190 S85 ; wait for bed temp
M109 S230 ; wait for extruder temp
G28 W ; home all without mesh bed level
G80 ; mesh bed leveling
G1 Y-3.0 F1000.0 ; go outside print area
G92 E0.0
G1 X60.0 E9.0 F1000.0 ; intro line
M73 Q0 S140
M73 P0 R140
G1 X100.0 E12.5 F1000.0 ; intro line
G92 E0.0
M221 S95
G21 ; set units to millimeters
G90 ; use absolute coordinates
M83 ; use relative distances for extrusion
M900 K0.08 ; Filament gcode LA 1.5
M900 K45 ; Filament gcode LA 1.0
;BEFORE_LAYER_CHANGE
G92 E0.0
;0.2


G1 E-1.40000 F2100.00000
G1 Z0.200 F10800.000
;AFTER_LAYER_CHANGE
;0.2
G1 Z0.400
G1 X80.193 Y88.674
G1 Z0.200
G1 E1.40000 F2100.00000
M204 S1000
G1 F1200
G1 X88.257 Y74.646 E0.50733
G1 X88.738 Y74.077 E0.02338
G1 X101.157 Y63.700 E0.50743
G1 X116.350 Y58.135 E0.50732
G1 X117.081 Y58.003 E0.02326
G1 X132.905 Y58.003 E0.49615
G1 X133.639 Y58.131 E0.02338
G1 X148.836 Y63.696 E0.50744
G1 X161.533 Y74.348 E0.51963
G1 X169.816 Y88.698 E0.51952
G1 X172.657 Y104.631 E0.50744
G1 X172.657 Y105.373 E0.02326
G1 X169.908 Y120.960 E0.49626
G1 X169.651 Y121.656 E0.02327
G1 X161.530 Y135.655 E0.50743
G1 X149.151 Y146.085 E0.50755
G1 X148.509 Y146.457 E0.02326
G1 X133.290 Y151.962 E0.50744
G1 X116.728 Y151.966 E0.51929
G1 X101.154 Y146.299 E0.51963
G1 X88.463 Y135.647 E0.51952
G1 X80.184 Y121.302 E0.51929
G1 X77.343 Y105.369 E0.50744
G1 X77.343 Y104.627 E0.02326
G1 X80.183 Y88.733 E0.50623
G1 F8640
G1 X83.047 Y83.736 E-1.33000
G1 E-0.07000 F2100.00000
G1 Z0.400 F10800.000
G1 X105.913 Y123.413
G1 Z0.200
G1 E1.40000 F2100.00000
G1 F1200
G1 X144.087 Y123.413 E1.19692
G1 X144.087 Y136.587 E0.41307
G1 X105.913 Y136.587 E1.19692
G1 X105.913 Y123.473 E0.41119
G1 X106.290 Y123.790 F10800.000
G1 F1200
G1 X143.710 Y123.790 E1.17328
G1 X143.710 Y136.210 E0.38942
G1 X106.290 Y136.210 E1.17328
G1 X106.290 Y123.850 E0.38754
G1 X106.128 Y123.424 F10800.000
G1 F8640
G1 X112.050 Y123.841 E-1.33000
G1 E-0.07000 F2100.00000
G1 Z0.400 F10800.000
G1 X99.510 Y112.323
G1 Z0.200
G1 E1.40000 F2100.00000
G1 F1200
G1 X88.101 Y105.736 E0.41307
G1 X95.601 Y92.746 E0.47031
G1 X92.137 Y90.746 E0.12542
G1 X96.224 Y83.667 E0.25630
G1 X99.688 Y85.667 E0.12542
G1 X107.188 Y72.677 E0.47031
G1 X118.597 Y79.264 E0.41307
G1 X99.540 Y112.271 E1.19504
G1 X99.372 Y111.808 F10800.000
G1 F1200
G1 X88.616 Y105.598 E0.38942
G1 X96.116 Y92.608 E0.47031
G1 X92.652 Y90.608 E0.12542
G1 X96.362 Y84.182 E0.23265
G1 X99.826 Y86.182 E0.12542
G1 X107.326 Y73.192 E0.47031
G1 X118.082 Y79.402 E0.38942
G1 X99.402 Y111.756 E1.17140
G1 X99.210 Y112.174 F10800.000
G1 F8640
G1 X94.400 Y108.901 E-1.33000
G1 E-0.07000 F2100.00000
G1 Z0.400 F10800.000
G1 X142.812 Y72.677
G1 Z0.200
G1 E1.40000 F2100.00000
G1 F1200
G1 X161.899 Y105.736 E1.19692
G1 X150.490 Y112.323 E0.41307
G1 X131.403 Y79.264 E1.19692
G1 X142.760 Y72.707 E0.41119
G1 X142.674 Y73.192 F10800.000
G1 F1200
G1 X161.384 Y105.598 E1.17328
G1 X150.628 Y111.808 E0.38942
G1 X131.918 Y79.402 E1.17328
G1 X142.622 Y73.222 E0.38754
G1 X142.909 Y72.869 F10800.000
G1 F8640
G1 X145.510 Y78.205 E-1.33000
G1 E-0.07000 F2100.00000
G1 Z0.400 F10800.000
G1 X147.452 Y66.112
G1 Z0.200
G1 E1.40000 F2100.00000
G1 F1200
G1 X159.398 Y76.136 E0.48897
G1 X167.196 Y89.642 E0.48897
G1 X169.904 Y105.000 E0.48897
G1 X167.196 Y120.358 E0.48897
G1 X159.398 Y133.864 E0.48897
G1 X147.452 Y143.888 E0.48897
G1 X132.797 Y149.222 E0.48897
G1 X117.203 Y149.222 E0.48897
G1 X102.548 Y143.888 E0.48897
G1 X90.602 Y133.864 E0.48897
M73 Q0 S139
M73 P0 R139
G1 X82.804 Y120.358 E0.48897
G1 X80.096 Y105.000 E0.48897
G1 X82.804 Y89.642 E0.48897
G1 X90.602 Y76.136 E0.48897
G1 X102.548 Y66.112 E0.48897
G1 X117.203 Y60.778 E0.48897
G1 X132.797 Y60.778 E0.48897
G1 X147.396 Y66.092 E0.48709
G1 X147.525 Y65.737 F10800.000
G1 F1200
G1 X147.643 Y65.780 E0.00397
G1 X159.692 Y75.890 E0.49314
G1 X167.556 Y89.511 E0.49314
G1 X170.287 Y105.000 E0.49314
G1 X167.556 Y120.489 E0.49314
G1 X159.692 Y134.110 E0.49314
G1 X147.643 Y144.220 E0.49314
G1 X132.864 Y149.599 E0.49314
G1 X117.136 Y149.599 E0.49314
G1 X102.357 Y144.220 E0.49314
G1 X90.308 Y134.110 E0.49314
G1 X82.444 Y120.489 E0.49314
G1 X79.713 Y105.000 E0.49314
G1 X82.444 Y89.511 E0.49314
G1 X90.308 Y75.890 E0.49314
G1 X102.357 Y65.780 E0.49314
G1 X117.136 Y60.401 E0.49314
G1 X132.864 Y60.401 E0.49314
G1 X147.468 Y65.717 E0.48729
G1 X147.554 Y65.860 F10800.000
G1 X147.840 Y66.585
G1 F1200
G1 X161.831 Y80.577 E0.62239
G1 F8640
G1 X157.758 Y76.504 E-1.33000
G1 E-0.07000 F2100.00000
G1 Z0.400 F10800.000
G1 X161.101 Y79.311
G1 Z0.200
G1 E1.40000 F2100.00000
G1 F1200
G1 X151.165 Y69.375 E0.44197
G1 F8640
G1 X155.238 Y73.448 E-1.33000
G1 E-0.07000 F2100.00000
G1 Z0.400 F10800.000
G1 X154.490 Y72.165
G1 Z0.200
G1 E1.40000 F2100.00000
G1 F1200
G1 X160.370 Y78.045 E0.26155
G1 F8640
G1 X156.297 Y73.972 E-1.33000
G1 E-0.07000 F2100.00000
G1 Z0.400 F10800.000
G1 X162.562 Y81.843
G1 Z0.200
G1 E1.40000 F2100.00000
G1 F1200
G1 X146.950 Y66.230 E0.69448
G1 X146.109 Y65.924 E0.02815
G1 X163.293 Y83.108 E0.76441
G1 F8640
G1 X159.220 Y79.035 E-1.33000
G1 E-0.07000 F2100.00000
G1 Z0.400 F10800.000
G1 X164.024 Y84.374
G1 Z0.200
G1 E1.40000 F2100.00000
G1 F1200
G1 X145.268 Y65.618 E0.83433
G1 X144.427 Y65.312 E0.02815
G1 X164.755 Y85.640 E0.90425
G1 F8640
G1 X160.682 Y81.567 E-1.33000
G1 E-0.07000 F2100.00000
G1 Z0.400 F10800.000
G1 X165.485 Y86.906
G1 Z0.200
G1 E1.40000 F2100.00000
G1 F1200
G1 X143.585 Y65.006 E0.97418
G1 X142.744 Y64.700 E0.02815
G1 X166.216 Y88.171 E1.04410
G1 F8640
G1 X162.143 Y84.098 E-1.33000
G1 E-0.07000 F2100.00000
G1 Z0.400 F10800.000
G1 X166.947 Y89.437
G1 Z0.200
G1 E1.40000 F2100.00000
G1 F1200
G1 X141.903 Y64.393 E1.11403
G1 X141.062 Y64.087 E0.02815
G1 X166.971 Y89.996 E1.15252
G1 X167.086 Y90.646 E0.02074
G1 X140.221 Y63.781 E1.19503
G1 X139.380 Y63.475 E0.02815
G1 X167.200 Y91.295 E1.23754
G1 X167.315 Y91.945 E0.02074
G1 X138.539 Y63.169 E1.28005
G1 X137.698 Y62.863 E0.02815
G1 X167.429 Y92.594 E1.32256
G1 X167.544 Y93.244 E0.02074
G1 X136.857 Y62.557 E1.36507
G1 X136.015 Y62.250 E0.02815
G1 X167.658 Y93.893 E1.40758
G1 X167.773 Y94.543 E0.02074
G1 X135.174 Y61.944 E1.45009
G1 X134.333 Y61.638 E0.02815
G1 X167.887 Y95.192 E1.49260
G1 X168.002 Y95.842 E0.02074
G1 X133.492 Y61.332 E1.53511
G1 X132.748 Y61.061 E0.02492
G1 X132.686 Y61.061 E0.00193
G1 X168.116 Y96.491 E1.57605
G1 X168.231 Y97.141 E0.02074
G1 X132.151 Y61.061 E1.60495
M73 Q1 S138
M73 P1 R138
G1 X131.616 Y61.061 E0.01683
G1 X168.345 Y97.790 E1.63384
G1 X168.460 Y98.440 E0.02074
G1 X143.278 Y73.258 E1.12019
G1 X142.656 Y72.636 F10800.000
G1 F1200
G1 X131.081 Y61.061 E0.51488
G1 X130.546 Y61.061 E0.01683
G1 X142.193 Y72.707 E0.51807
G1 X141.853 Y72.903 E0.01232
G1 X130.011 Y61.061 E0.52678
G1 X129.476 Y61.061 E0.01683
G1 X141.514 Y73.099 E0.53549
G1 X141.175 Y73.295 E0.01232
G1 X128.941 Y61.061 E0.54420
G1 X128.406 Y61.061 E0.01683
G1 X140.836 Y73.491 E0.55291
G1 X140.497 Y73.686 E0.01232
G1 X127.871 Y61.061 E0.56162
G1 X127.336 Y61.061 E0.01683
G1 X140.158 Y73.882 E0.57033
G1 X139.818 Y74.078 E0.01232
G1 X126.801 Y61.061 E0.57904
G1 X126.266 Y61.061 E0.01683
G1 X139.479 Y74.274 E0.58775
G1 X139.140 Y74.470 E0.01232
G1 X125.731 Y61.061 E0.59646
G1 X125.197 Y61.061 E0.01683
G1 X138.801 Y74.666 E0.60517
G1 X138.462 Y74.861 E0.01232
G1 X124.662 Y61.061 E0.61388
G1 X124.127 Y61.061 E0.01683
G1 X138.123 Y75.057 E0.62259
G1 X137.784 Y75.253 E0.01232
G1 X123.592 Y61.061 E0.63130
G1 X123.057 Y61.061 E0.01683
G1 X137.444 Y75.449 E0.64001
G1 X137.105 Y75.645 E0.01232
G1 X122.522 Y61.061 E0.64873
G1 X121.987 Y61.061 E0.01683
G1 X136.766 Y75.840 E0.65744
G1 X136.427 Y76.036 E0.01232
G1 X121.452 Y61.061 E0.66615
G1 X120.917 Y61.061 E0.01683
G1 X136.088 Y76.232 E0.67486
G1 X135.749 Y76.428 E0.01232
G1 X120.382 Y61.061 E0.68357
G1 X119.847 Y61.061 E0.01683
G1 X135.409 Y76.624 E0.69228
G1 X135.070 Y76.820 E0.01232
G1 X119.312 Y61.061 E0.70099
G1 X118.777 Y61.061 E0.01683
G1 X134.731 Y77.015 E0.70970
G1 X134.392 Y77.211 E0.01232
G1 X118.242 Y61.061 E0.71841
G1 X117.707 Y61.061 E0.01683
G1 X134.053 Y77.407 E0.72712
G1 X133.714 Y77.603 E0.01232
G1 X117.193 Y61.083 E0.73487
G1 X116.801 Y61.225 E0.01313
G1 X133.374 Y77.799 E0.73723
G1 X133.035 Y77.994 E0.01232
G1 X116.409 Y61.368 E0.73959
G1 X116.017 Y61.511 E0.01313
G1 X132.696 Y78.190 E0.74195
G1 X132.357 Y78.386 E0.01232
G1 X115.625 Y61.654 E0.74432
G1 X115.232 Y61.796 E0.01313
G1 X132.018 Y78.582 E0.74668
G1 X131.679 Y78.778 E0.01232
G1 X114.840 Y61.939 E0.74904
G1 X114.448 Y62.082 E0.01313
G1 X131.339 Y78.973 E0.75140
G1 X131.016 Y79.160 E0.01174
G1 X131.050 Y79.219 E0.00215
G1 X114.056 Y62.225 E0.75599
G1 X113.663 Y62.367 E0.01313
G1 X132.245 Y80.949 E0.82656
G1 F8640
G1 X128.172 Y76.876 E-1.33000
G1 E-0.07000 F2100.00000
G1 Z0.400 F10800.000
G1 X132.976 Y82.215
G1 Z0.200
G1 E1.40000 F2100.00000
G1 F1200
G1 X113.271 Y62.510 E0.87652
G1 X112.879 Y62.653 E0.01313
G1 X133.706 Y83.480 E0.92647
G1 F8640
G1 X129.633 Y79.407 E-1.33000
G1 E-0.07000 F2100.00000
G1 Z0.400 F10800.000
G1 X134.437 Y84.746
G1 Z0.200
G1 E1.40000 F2100.00000
G1 F1200
G1 X112.487 Y62.796 E0.97643
G1 X112.095 Y62.938 E0.01313
G1 X135.168 Y86.012 E1.02638
G1 F8640
G1 X131.095 Y81.939 E-1.33000
G1 E-0.07000 F2100.00000
G1 Z0.400 F10800.000
G1 X135.899 Y87.278
G1 Z0.200
G1 E1.40000 F2100.00000
G1 F1200
G1 X111.702 Y63.081 E1.07634
G1 X111.310 Y63.224 E0.01313
G1 X136.630 Y88.543 E1.12629
G1 F8640
G1 X132.557 Y84.470 E-1.33000
G1 E-0.07000 F2100.00000
G1 Z0.400 F10800.000
G1 X137.360 Y89.809
G1 Z0.200
G1 E1.40000 F2100.00000
G1 F1200
G1 X110.918 Y63.367 E1.17625
G1 X110.526 Y63.509 E0.01313
G1 X138.091 Y91.075 E1.22620
G1 F8640
G1 X134.018 Y87.002 E-1.33000
G1 E-0.07000 F2100.00000
G1 Z0.400 F10800.000
G1 X138.822 Y92.341
G1 Z0.200
G1 E1.40000 F2100.00000
G1 F1200
G1 X110.133 Y63.652 E1.27616
M73 Q2 S137
M73 P2 R137
G1 X109.741 Y63.795 E0.01313
G1 X139.553 Y93.606 E1.32611
G1 F8640
G1 X135.480 Y89.533 E-1.33000
G1 E-0.07000 F2100.00000
G1 Z0.400 F10800.000
G1 X140.284 Y94.872
G1 Z0.200
G1 E1.40000 F2100.00000
G1 F1200
G1 X109.349 Y63.938 E1.37607
G1 X108.957 Y64.080 E0.01313
G1 X141.014 Y96.138 E1.42602
G1 F8640
G1 X136.941 Y92.065 E-1.33000
G1 E-0.07000 F2100.00000
G1 Z0.400 F10800.000
G1 X141.745 Y97.404
G1 Z0.200
G1 E1.40000 F2100.00000
G1 F1200
G1 X108.565 Y64.223 E1.47598
G1 X108.172 Y64.366 E0.01313
G1 X142.476 Y98.669 E1.52593
G1 F8640
G1 X138.403 Y94.597 E-1.33000
G1 E-0.07000 F2100.00000
G1 Z0.400 F10800.000
G1 X143.207 Y99.935
G1 Z0.200
G1 E1.40000 F2100.00000
G1 F1200
G1 X107.780 Y64.509 E1.57589
G1 X107.388 Y64.651 E0.01313
G1 X143.937 Y101.201 E1.62584
G1 F8640
G1 X139.865 Y97.128 E-1.33000
G1 E-0.07000 F2100.00000
G1 Z0.400 F10800.000
G1 X144.668 Y102.467
G1 Z0.200
G1 E1.40000 F2100.00000
G1 F1200
G1 X106.996 Y64.794 E1.67580
G1 X106.603 Y64.937 E0.01313
G1 X145.399 Y103.733 E1.72575
G1 F8640
G1 X141.326 Y99.660 E-1.33000
G1 E-0.07000 F2100.00000
G1 Z0.400 F10800.000
G1 X146.130 Y104.998
G1 Z0.200
G1 E1.40000 F2100.00000
G1 F1200
G1 X106.211 Y65.080 E1.77571
G1 X105.819 Y65.222 E0.01313
G1 X146.861 Y106.264 E1.82566
G1 F8640
G1 X142.788 Y102.191 E-1.33000
G1 E-0.07000 F2100.00000
G1 Z0.400 F10800.000
G1 X147.591 Y107.530
G1 Z0.200
G1 E1.40000 F2100.00000
G1 F1200
G1 X105.427 Y65.365 E1.87562
G1 X105.035 Y65.508 E0.01313
G1 X118.745 Y79.218 E0.60986
G1 F8640
G1 X114.672 Y75.145 E-1.33000
G1 E-0.07000 F2100.00000
G1 Z0.400 F10800.000
G1 X117.479 Y78.487
G1 Z0.200
G1 E1.40000 F2100.00000
G1 F1200
G1 X104.642 Y65.651 E0.57101
G1 X104.250 Y65.793 E0.01313
G1 X116.213 Y77.756 E0.53215
G1 F8640
G1 X112.140 Y73.683 E-1.33000
G1 E-0.07000 F2100.00000
G1 Z0.400 F10800.000
G1 X114.947 Y77.026
G1 Z0.200
G1 E1.40000 F2100.00000
G1 F1200
G1 X103.858 Y65.936 E0.49329
G1 X103.466 Y66.079 E0.01313
G1 X113.682 Y76.295 E0.45443
G1 F8640
G1 X109.609 Y72.222 E-1.33000
G1 E-0.07000 F2100.00000
G1 Z0.400 F10800.000
G1 X112.416 Y75.564
G1 Z0.200
G1 E1.40000 F2100.00000
G1 F1200
G1 X103.074 Y66.222 E0.41557
G1 X102.684 Y66.367 E0.01308
G1 X111.150 Y74.833 E0.37660
G1 F8640
G1 X107.077 Y70.760 E-1.33000
G1 E-0.07000 F2100.00000
G1 Z0.400 F10800.000
G1 X109.884 Y74.102
G1 Z0.200
G1 E1.40000 F2100.00000
G1 F1200
G1 X102.393 Y66.611 E0.33323
G1 X102.102 Y66.855 E0.01194
G1 X108.618 Y73.372 E0.28987
G1 F8640
G1 X104.546 Y69.299 E-1.33000
G1 E-0.07000 F2100.00000
G1 Z0.400 F10800.000
G1 X107.353 Y72.641
G1 Z0.200
G1 E1.40000 F2100.00000
G1 F1200
G1 X101.811 Y67.099 E0.24650
G1 X101.520 Y67.344 E0.01194
G1 X106.859 Y72.682 E0.23747
G1 X106.663 Y73.021 E0.01232
G1 X101.230 Y67.588 E0.24169
G1 X100.939 Y67.832 E0.01194
G1 X106.467 Y73.360 E0.24592
G1 X106.271 Y73.699 E0.01232
G1 X100.648 Y68.076 E0.25015
G1 X100.357 Y68.320 E0.01194
G1 X106.075 Y74.038 E0.25438
G1 X105.880 Y74.378 E0.01232
G1 X100.066 Y68.564 E0.25861
G1 X99.775 Y68.808 E0.01194
G1 X105.684 Y74.717 E0.26284
G1 X105.488 Y75.056 E0.01232
G1 X99.484 Y69.052 E0.26707
G1 X99.193 Y69.296 E0.01194
G1 X105.292 Y75.395 E0.27130
G1 X105.096 Y75.734 E0.01232
G1 X98.902 Y69.540 E0.27553
G1 X98.612 Y69.784 E0.01194
G1 X104.901 Y76.073 E0.27976
G1 X104.705 Y76.413 E0.01232
G1 X98.321 Y70.028 E0.28399
G1 X98.030 Y70.273 E0.01194
G1 X104.509 Y76.752 E0.28822
G1 X104.313 Y77.091 E0.01232
G1 X97.739 Y70.517 E0.29245
G1 X97.448 Y70.761 E0.01194
G1 X104.117 Y77.430 E0.29667
G1 X103.922 Y77.769 E0.01232
G1 X97.157 Y71.005 E0.30090
G1 X96.866 Y71.249 E0.01194
G1 X103.726 Y78.108 E0.30513
G1 X103.530 Y78.448 E0.01232
G1 X96.575 Y71.493 E0.30936
G1 X96.284 Y71.737 E0.01194
G1 X103.334 Y78.787 E0.31359
G1 X103.138 Y79.126 E0.01232
G1 X95.994 Y71.981 E0.31782
G1 X95.703 Y72.225 E0.01194
G1 X102.942 Y79.465 E0.32205
G1 X102.747 Y79.804 E0.01232
G1 X95.412 Y72.469 E0.32628
G1 X95.121 Y72.713 E0.01194
G1 X102.551 Y80.143 E0.33051
G1 X102.355 Y80.483 E0.01232
G1 X94.830 Y72.958 E0.33474
G1 X94.539 Y73.202 E0.01194
G1 X102.159 Y80.822 E0.33897
G1 X101.963 Y81.161 E0.01232
G1 X94.248 Y73.446 E0.34320
G1 X93.957 Y73.690 E0.01194
G1 X101.768 Y81.500 E0.34742
G1 X101.572 Y81.839 E0.01232
G1 X93.666 Y73.934 E0.35165
G1 X93.376 Y74.178 E0.01194
G1 X101.376 Y82.178 E0.35588
G1 X101.180 Y82.517 E0.01232
G1 X93.085 Y74.422 E0.36011
G1 X92.794 Y74.666 E0.01194
G1 X100.984 Y82.857 E0.36434
G1 X100.788 Y83.196 E0.01232
G1 X92.503 Y74.910 E0.36857
G1 X92.212 Y75.154 E0.01194
G1 X100.593 Y83.535 E0.37280
G1 X100.397 Y83.874 E0.01232
G1 X91.921 Y75.398 E0.37703
M73 Q2 S136
M73 P2 R136
G1 X91.630 Y75.642 E0.01194
G1 X100.201 Y84.213 E0.38126
G1 X100.005 Y84.552 E0.01232
G1 X91.339 Y75.887 E0.38549
G1 X91.048 Y76.131 E0.01194
G1 X99.809 Y84.892 E0.38972
G1 X99.614 Y85.231 E0.01232
G1 X90.779 Y76.396 E0.39301
G1 X90.583 Y76.735 E0.01232
G1 X98.969 Y85.121 E0.37304
G1 F8640
G1 X94.896 Y81.048 E-1.33000
G1 E-0.07000 F2100.00000
G1 Z0.400 F10800.000
G1 X97.703 Y84.390
G1 Z0.200
G1 E1.40000 F2100.00000
G1 F1200
G1 X90.387 Y77.074 E0.32545
G1 X90.191 Y77.413 E0.01232
G1 X96.098 Y83.320 E0.26276
G1 X95.902 Y83.659 E0.01232
G1 X89.995 Y77.752 E0.26276
G1 X89.799 Y78.091 E0.01232
G1 X95.706 Y83.998 E0.26276
G1 X95.511 Y84.338 E0.01232
G1 X89.604 Y78.431 E0.26276
G1 X89.408 Y78.770 E0.01232
G1 X95.315 Y84.677 E0.26276
G1 X95.119 Y85.016 E0.01232
G1 X89.212 Y79.109 E0.26276
