; generated by PrusaSlicer 2.1.1 on 2020-12-05 at 09:45:07 UTC

; 

; external perimeters extrusion width = 0.60mm
; perimeters extrusion width = 0.50mm
; infill extrusion width = 0.50mm
; solid infill extrusion width = 0.50mm
; top infill extrusion width = 0.45mm
; support material extrusion width = 0.38mm
; first layer extrusion width = 0.42mm

M73 P0 R20
M73 Q0 S20
M201 X1000 Y1000 Z200 E5000 ; sets maximum accelerations, mm/sec^2
M203 X200 Y200 Z12 E120 ; sets maximum feedrates, mm/sec
M204 P1250 R1250 T1250 ; sets acceleration (P, T) and retract acceleration (R), mm/sec^2
M205 X8.00 Y8.00 Z0.40 E4.50 ; sets the jerk limits, mm/sec
M205 S0 T0 ; sets the minimum extruding and travel feed rate, mm/sec
M107
M862.3 P "MK3S" ; printer model check
M862.1 P0.4 ; nozzle diameter check
M115 U3.9.1 ; tell printer latest fw version
G90 ; use absolute coordinates
M83 ; extruder relative mode
M104 S230 ; set extruder temp
M140 S85 ; set bed temp
M190 S85 ; wait for bed temp
M109 S230 ; wait for extruder temp
G28 W ; home all without mesh bed level
G80 ; mesh bed leveling
G1 Y-3.0 F1000.0 ; go outside print area
G92 E0.0
G1 X60.0 E9.0 F1000.0 ; intro line
M73 Q0 S20
M73 P0 R20
G1 X100.0 E12.5 F1000.0 ; intro line
G92 E0.0
M221 S95
G21 ; set units to millimeters
G90 ; use absolute coordinates
M83 ; use relative distances for extrusion
M900 K0.08 ; Filament gcode LA 1.5
M900 K45 ; Filament gcode LA 1.0
;BEFORE_LAYER_CHANGE
G92 E0.0
;0.2


G1 E-1.40000 F2100.00000
G1 Z0.200 F10800.000
;AFTER_LAYER_CHANGE
;0.2
G1 Z0.400
G1 X74.651 Y84.483
G1 Z0.200
G1 E1.40000 F2100.00000
M204 S1000
G1 F1200
G1 X75.421 Y84.313 E0.02473
G1 X162.916 Y81.343 E2.74491
G1 X175.725 Y81.342 E0.40164
G1 X176.616 Y81.532 E0.02855
G1 X177.352 Y82.067 E0.02855
G1 X179.175 Y84.698 E0.10035
G1 X179.474 Y85.509 E0.02709
G1 X179.500 Y103.551 E0.56569
G1 X179.315 Y104.413 E0.02766
G1 X178.928 Y105.008 E0.02225
G1 X176.530 Y107.459 E0.10750
G1 X156.959 Y125.132 E0.82681
G1 X156.350 Y125.517 E0.02259
G1 X155.503 Y125.689 E0.02709
G1 X75.467 Y125.688 E2.50947
G1 X74.845 Y125.588 E0.01976
G1 X74.274 Y125.313 E0.01987
G1 X73.808 Y124.889 E0.01976
G1 X73.483 Y124.349 E0.01976
G1 X73.311 Y123.510 E0.02687
G1 X73.312 Y86.434 E1.16247
G1 X73.420 Y85.821 E0.01953
G1 X73.695 Y85.262 E0.01953
G1 X74.117 Y84.804 E0.01953
G1 X74.599 Y84.514 E0.01765
G1 F8640
G1 X75.421 Y84.313 E-0.19531
G1 X80.332 Y84.146 E-1.13469
G1 E-0.07000 F2100.00000
G1 Z0.400 F10800.000
G1 X153.178 Y85.677
G1 Z0.200
G1 E1.40000 F2100.00000
G1 F1200
G1 X153.178 Y86.011 E0.01050
G1 X153.933 Y86.011 E0.02365
G1 X153.933 Y85.846 E0.00517
G1 X154.687 Y85.846 E0.02365
G1 X154.687 Y86.011 E0.00517
G1 X155.441 Y86.011 E0.02365
G1 X155.441 Y85.846 E0.00517
G1 X156.195 Y85.846 E0.02365
G1 X156.195 Y88.469 E0.08224
G1 X156.949 Y88.469 E0.02365
G1 X156.949 Y85.846 E0.08224
G1 X157.703 Y85.846 E0.02365
G1 X157.703 Y88.469 E0.08224
G1 X158.457 Y88.469 E0.02365
G1 X158.457 Y85.846 E0.08224
G1 X159.212 Y85.846 E0.02365
G1 X159.212 Y88.469 E0.08224
G1 X159.966 Y88.469 E0.02365
G1 X159.966 Y85.846 E0.08224
G1 X160.720 Y85.846 E0.02365
G1 X160.720 Y88.469 E0.08224
G1 X161.474 Y88.469 E0.02365
G1 X161.474 Y85.846 E0.08224
G1 X162.228 Y85.846 E0.02365
G1 X162.228 Y88.469 E0.08224
G1 X162.982 Y88.469 E0.02365
G1 X162.982 Y83.531 E0.15484
G1 X163.737 Y83.531 E0.02365
G1 X163.737 Y88.469 E0.15484
G1 X164.491 Y88.469 E0.02365
G1 X164.491 Y83.531 E0.15484
G1 X165.245 Y83.531 E0.02365
G1 X165.245 Y88.469 E0.15484
G1 X165.463 Y88.469 E0.00683
G1 X165.463 Y86.154 E0.07260
G1 X165.999 Y86.154 E0.01682
G1 X165.999 Y83.531 E0.08224
G1 X166.753 Y83.531 E0.02365
G1 X166.753 Y86.154 E0.08224
G1 X167.507 Y86.154 E0.02365
G1 X167.507 Y83.531 E0.08224
G1 X168.262 Y83.531 E0.02365
G1 X168.262 Y86.154 E0.08224
G1 X169.016 Y86.154 E0.02365
G1 X169.016 Y83.531 E0.08224
G1 X169.770 Y83.531 E0.02365
G1 X169.770 Y86.154 E0.08224
G1 X170.524 Y86.154 E0.02365
G1 X170.524 Y83.531 E0.08224
G1 X171.278 Y83.531 E0.02365
G1 X171.278 Y86.154 E0.08224
G1 X172.032 Y86.154 E0.02365
G1 X172.032 Y83.531 E0.08224
G1 X172.787 Y83.531 E0.02365
G1 X172.787 Y86.154 E0.08224
G1 X173.102 Y86.154 E0.00990
G1 X173.102 Y88.469 E0.07260
G1 X173.541 Y88.469 E0.01374
G1 X173.541 Y83.531 E0.15484
G1 X174.295 Y83.531 E0.02365
G1 X174.295 Y88.469 E0.15484
G1 X175.049 Y88.469 E0.02365
G1 X175.049 Y83.531 E0.15484
G1 X175.725 Y83.531 E0.02120
G1 X175.725 Y85.846 E0.07260
G1 X175.803 Y85.846 E0.00244
G1 X175.803 Y103.363 E0.54922
G1 X176.557 Y103.363 E0.02365
G1 X176.557 Y85.846 E0.54922
G1 X177.311 Y85.846 E0.02365
G1 X177.311 Y103.533 E0.55454
G1 F8640
G1 X177.311 Y97.773 E-1.33000
G1 E-0.07000 F2100.00000
G1 Z0.400 F10800.000
G1 X175.049 Y105.848
G1 Z0.200
G1 E1.40000 F2100.00000
G1 F1200
G1 X175.049 Y100.740 E0.16016
G1 X174.295 Y100.740 E0.02365
G1 X174.295 Y105.678 E0.15484
G1 X173.541 Y105.679 E0.02365
G1 X173.541 Y100.740 E0.15484
G1 X173.102 Y100.740 E0.01374
G1 X173.102 Y103.056 E0.07260
G1 X172.787 Y103.056 E0.00990
G1 X172.787 Y105.679 E0.08224
G1 X172.032 Y105.679 E0.02365
G1 X172.032 Y103.056 E0.08224
G1 X171.278 Y103.056 E0.02365
G1 X171.278 Y105.679 E0.08224
G1 X171.094 Y105.679 E0.00578
G1 X171.094 Y107.994 E0.07260
G1 X170.524 Y107.994 E0.01787
G1 X170.524 Y103.056 E0.15484
G1 X169.770 Y103.056 E0.02365
G1 X169.770 Y107.994 E0.15484
G1 X169.016 Y107.994 E0.02365
G1 X169.016 Y103.056 E0.15484
G1 X168.471 Y103.056 E0.01708
G1 X168.471 Y105.371 E0.07260
G1 X168.262 Y105.371 E0.00657
G1 X168.262 Y107.994 E0.08224
G1 X167.507 Y107.994 E0.02365
G1 X167.507 Y105.371 E0.08224
G1 X166.753 Y105.371 E0.02365
G1 X166.753 Y107.994 E0.08224
G1 X165.999 Y107.994 E0.02365
G1 X165.999 Y105.371 E0.08224
G1 X165.463 Y105.371 E0.01682
G1 X165.463 Y103.056 E0.07260
G1 X165.245 Y103.056 E0.00683
G1 X165.245 Y107.994 E0.15484
G1 X164.491 Y107.994 E0.02365
G1 X164.491 Y103.056 E0.15484
G1 X163.737 Y103.056 E0.02365
G1 X163.737 Y107.994 E0.15484
G1 X162.982 Y107.994 E0.02365
G1 X162.982 Y103.056 E0.15484
G1 X162.228 Y103.056 E0.02365
G1 X162.228 Y105.679 E0.08224
G1 X161.474 Y105.679 E0.02365
G1 X161.474 Y103.056 E0.08224
G1 X160.720 Y103.056 E0.02365
G1 X160.720 Y105.679 E0.08224
G1 X159.966 Y105.679 E0.02365
G1 X159.966 Y103.056 E0.08224
G1 X159.212 Y103.056 E0.02365
G1 X159.212 Y105.679 E0.08224
G1 X158.457 Y105.679 E0.02365
G1 X158.457 Y103.056 E0.08224
G1 X157.703 Y103.056 E0.02365
G1 X157.703 Y105.679 E0.08224
G1 X156.949 Y105.679 E0.02365
G1 X156.949 Y103.056 E0.08224
G1 X156.195 Y103.056 E0.02365
G1 X156.195 Y105.679 E0.08224
G1 X155.441 Y105.679 E0.02365
G1 X155.441 Y103.989 E0.05299
G1 X154.687 Y103.989 E0.02365
G1 X154.687 Y105.679 E0.05299
G1 X153.933 Y105.679 E0.02365
G1 X153.933 Y103.989 E0.05299
G1 X153.178 Y103.989 E0.02365
G1 X153.178 Y105.848 E0.05831
G1 F8640
G1 X153.178 Y103.989 E-0.42940
G1 X153.933 Y103.989 E-0.17414
G1 X153.933 Y105.679 E-0.39022
G1 X154.687 Y105.679 E-0.17414
G1 X154.687 Y104.976 E-0.16211
G1 E-0.07000 F2100.00000
G1 Z0.400 F10800.000
G1 X156.949 Y93.624
G1 Z0.200
G1 E1.40000 F2100.00000
G1 F1200
G1 X156.949 Y97.732 E0.12881
G1 X157.703 Y97.732 E0.02365
G1 X157.703 Y93.793 E0.12349
G1 X158.457 Y93.793 E0.02365
G1 X158.457 Y97.732 E0.12349
G1 X159.212 Y97.732 E0.02365
G1 X159.212 Y93.793 E0.12349
G1 X159.966 Y93.793 E0.02365
G1 X159.966 Y97.732 E0.12349
G1 X160.720 Y97.732 E0.02365
G1 X160.720 Y93.793 E0.12349
G1 X161.474 Y93.793 E0.02365
G1 X161.474 Y97.732 E0.12349
G1 X162.228 Y97.732 E0.02365
G1 X162.228 Y93.793 E0.12349
G1 X162.982 Y93.793 E0.02365
G1 X162.982 Y97.732 E0.12349
G1 X163.737 Y97.732 E0.02365
G1 X163.737 Y93.793 E0.12349
G1 X164.491 Y93.793 E0.02365
G1 X164.491 Y97.732 E0.12349
G1 X165.245 Y97.732 E0.02365
G1 X165.245 Y93.793 E0.12349
G1 X165.999 Y93.793 E0.02365
G1 X165.999 Y97.732 E0.12349
G1 X166.753 Y97.732 E0.02365
G1 X166.753 Y93.793 E0.12349
G1 X167.507 Y93.793 E0.02365
G1 X167.507 Y97.732 E0.12349
G1 X168.262 Y97.732 E0.02365
G1 X168.262 Y93.793 E0.12349
G1 X169.016 Y93.793 E0.02365
G1 X169.016 Y97.732 E0.12349
G1 X169.770 Y97.732 E0.02365
G1 X169.770 Y93.793 E0.12349
G1 X170.524 Y93.793 E0.02365
G1 X170.524 Y97.732 E0.12349
G1 X171.278 Y97.732 E0.02365
G1 X171.278 Y93.793 E0.12349
G1 X172.032 Y93.793 E0.02365
G1 X172.032 Y97.732 E0.12349
G1 X172.787 Y97.732 E0.02365
G1 X172.787 Y93.793 E0.12349
G1 X173.541 Y93.793 E0.02365
G1 X173.541 Y97.732 E0.12349
G1 X174.295 Y97.732 E0.02365
G1 X174.295 Y93.793 E0.12349
G1 X175.049 Y93.793 E0.02365
G1 X175.049 Y97.901 E0.12881
G1 F8640
G1 X175.049 Y93.793 E-0.94859
G1 X174.295 Y93.793 E-0.17414
G1 X174.295 Y94.691 E-0.20727
G1 E-0.07000 F2100.00000
G1 Z0.400 F10800.000
G1 X175.014 Y100.536
G1 Z0.200
G1 E1.40000 F2100.00000
G1 F1200
G1 X175.014 Y98.078 E0.06889
G1 X174.499 Y98.078 E0.01445
G1 X174.499 Y100.394 E0.06490
G1 X173.983 Y100.394 E0.01445
G1 X173.983 Y98.078 E0.06490
G1 X173.468 Y98.078 E0.01445
G1 X173.468 Y100.394 E0.06490
G1 X172.952 Y100.394 E0.01445
G1 X172.952 Y98.078 E0.06490
G1 X172.436 Y98.078 E0.01445
G1 X172.436 Y102.709 E0.12981
G1 X171.921 Y102.709 E0.01445
G1 X171.921 Y98.078 E0.12981
G1 X171.405 Y98.078 E0.01445
G1 X171.405 Y102.709 E0.12981
G1 X170.890 Y102.709 E0.01445
G1 X170.890 Y98.078 E0.12981
G1 X170.374 Y98.078 E0.01445
G1 X170.374 Y102.709 E0.12981
G1 X169.858 Y102.709 E0.01445
G1 X169.858 Y98.078 E0.12981
G1 X169.343 Y98.078 E0.01445
G1 X169.343 Y102.709 E0.12981
G1 X168.827 Y102.709 E0.01445
G1 X168.827 Y98.078 E0.12981
G1 X168.311 Y98.078 E0.01445
G1 X168.311 Y102.709 E0.12981
G1 X168.125 Y102.709 E0.00523
G1 X168.125 Y105.025 E0.06490
G1 X167.796 Y105.025 E0.00922
G1 X167.796 Y98.078 E0.19471
G1 X167.280 Y98.078 E0.01445
G1 X167.280 Y105.025 E0.19471
G1 X166.765 Y105.025 E0.01445
G1 X166.765 Y98.078 E0.19471
G1 X166.249 Y98.078 E0.01445
G1 X166.249 Y105.025 E0.19471
G1 X165.809 Y105.025 E0.01233
G1 X165.809 Y102.709 E0.06490
G1 X165.733 Y102.709 E0.00212
G1 X165.733 Y98.078 E0.12981
G1 X165.218 Y98.078 E0.01445
G1 X165.218 Y102.709 E0.12981
G1 X164.702 Y102.709 E0.01445
G1 X164.702 Y98.078 E0.12981
G1 X164.186 Y98.078 E0.01445
G1 X164.186 Y102.709 E0.12981
G1 X163.671 Y102.709 E0.01445
G1 X163.671 Y98.078 E0.12981
G1 X163.155 Y98.078 E0.01445
G1 X163.155 Y102.709 E0.12981
G1 X162.640 Y102.709 E0.01445
G1 X162.640 Y98.078 E0.12981
G1 X162.124 Y98.078 E0.01445
G1 X162.124 Y102.709 E0.12981
G1 X161.608 Y102.709 E0.01445
G1 X161.608 Y98.078 E0.12981
G1 X161.093 Y98.078 E0.01445
G1 X161.093 Y102.709 E0.12981
G1 X160.577 Y102.709 E0.01445
G1 X160.577 Y98.078 E0.12981
G1 X160.062 Y98.078 E0.01445
G1 X160.062 Y102.709 E0.12981
G1 X159.546 Y102.709 E0.01445
G1 X159.546 Y98.078 E0.12981
G1 X159.030 Y98.078 E0.01445
G1 X159.030 Y102.709 E0.12981
G1 X158.515 Y102.709 E0.01445
G1 X158.515 Y98.078 E0.12981
G1 X157.999 Y98.078 E0.01445
G1 X157.999 Y102.709 E0.12981
G1 X157.483 Y102.709 E0.01445
G1 X157.483 Y98.078 E0.12981
G1 X156.968 Y98.078 E0.01445
G1 X156.968 Y102.709 E0.12981
G1 X156.452 Y102.709 E0.01445
G1 X156.452 Y88.816 E0.38942
G1 X156.968 Y88.816 E0.01445
G1 X156.968 Y93.447 E0.12981
G1 X157.483 Y93.447 E0.01445
G1 X157.483 Y88.816 E0.12981
G1 X157.999 Y88.816 E0.01445
G1 X157.999 Y93.447 E0.12981
G1 X158.515 Y93.447 E0.01445
G1 X158.515 Y88.816 E0.12981
G1 X159.030 Y88.816 E0.01445
G1 X159.030 Y93.447 E0.12981
G1 X159.546 Y93.447 E0.01445
G1 X159.546 Y88.816 E0.12981
G1 X160.062 Y88.816 E0.01445
G1 X160.062 Y93.447 E0.12981
G1 X160.577 Y93.447 E0.01445
G1 X160.577 Y88.816 E0.12981
G1 X161.093 Y88.816 E0.01445
G1 X161.093 Y93.447 E0.12981
G1 X161.608 Y93.447 E0.01445
G1 X161.608 Y88.816 E0.12981
G1 X162.124 Y88.816 E0.01445
G1 X162.124 Y93.447 E0.12981
G1 X162.640 Y93.447 E0.01445
G1 X162.640 Y88.816 E0.12981
G1 X163.155 Y88.816 E0.01445
G1 X163.155 Y93.447 E0.12981
G1 X163.671 Y93.447 E0.01445
G1 X163.671 Y88.816 E0.12981
G1 X164.186 Y88.816 E0.01445
G1 X164.186 Y93.447 E0.12981
G1 X164.702 Y93.447 E0.01445
G1 X164.702 Y88.816 E0.12981
G1 X165.218 Y88.816 E0.01445
G1 X165.218 Y93.447 E0.12981
G1 X165.733 Y93.447 E0.01445
G1 X165.733 Y88.816 E0.12981
G1 X165.809 Y88.816 E0.00212
G1 X165.809 Y86.500 E0.06490
G1 X166.249 Y86.500 E0.01233
G1 X166.249 Y93.447 E0.19471
G1 X166.765 Y93.447 E0.01445
G1 X166.765 Y86.500 E0.19471
G1 X167.280 Y86.500 E0.01445
G1 X167.280 Y93.447 E0.19471
G1 X167.796 Y93.447 E0.01445
G1 X167.796 Y86.500 E0.19471
G1 X168.311 Y86.500 E0.01445
G1 X168.311 Y93.447 E0.19471
M73 Q5 S19
G1 X168.827 Y93.447 E0.01445
G1 X168.827 Y86.500 E0.19471
M73 P5 R19
G1 X169.343 Y86.500 E0.01445
G1 X169.343 Y93.447 E0.19471
G1 X169.858 Y93.447 E0.01445
G1 X169.858 Y86.500 E0.19471
G1 X170.374 Y86.500 E0.01445
G1 X170.374 Y93.447 E0.19471
G1 X170.890 Y93.447 E0.01445
G1 X170.890 Y86.500 E0.19471
G1 X171.405 Y86.500 E0.01445
G1 X171.405 Y93.447 E0.19471
G1 X171.921 Y93.447 E0.01445
G1 X171.921 Y86.500 E0.19471
G1 X172.436 Y86.500 E0.01445
G1 X172.436 Y93.447 E0.19471
G1 X172.952 Y93.447 E0.01445
G1 X172.952 Y88.816 E0.12981
G1 X173.468 Y88.816 E0.01445
G1 X173.468 Y93.447 E0.12981
G1 X173.983 Y93.447 E0.01445
G1 X173.983 Y88.816 E0.12981
G1 X174.499 Y88.816 E0.01445
G1 X174.499 Y93.447 E0.12981
G1 X175.014 Y93.447 E0.01445
G1 X175.014 Y88.674 E0.13379
G1 F8640
G1 X175.014 Y93.447 E-1.10217
G1 X174.499 Y93.447 E-0.11906
G1 X174.499 Y92.976 E-0.10877
G1 E-0.07000 F2100.00000
G1 Z0.400 F10800.000
G1 X154.913 Y107.087
G1 Z0.200
G1 E1.40000 F2100.00000
G1 F1200
G1 X154.913 Y122.913 E0.49621
G1 X120.950 Y122.913 E1.06487
G1 X116.976 Y118.938 E0.17624
G1 X116.904 Y118.749 E0.00634
G1 X116.652 Y118.402 E0.01346
G1 X116.389 Y118.182 E0.01075
G1 X116.105 Y118.030 E0.01010
G1 X115.874 Y117.955 E0.00760
G1 X115.545 Y117.909 E0.01042
G1 X115.115 Y117.954 E0.01358
G1 X114.704 Y118.121 E0.01390
G1 X114.354 Y118.393 E0.01390
G1 X114.094 Y118.752 E0.01390
G1 X113.942 Y119.169 E0.01390
G1 X113.911 Y119.611 E0.01390
G1 X114.003 Y120.045 E0.01390
G1 X114.206 Y120.427 E0.01358
G1 X114.436 Y120.682 E0.01075
G1 X114.705 Y120.877 E0.01042
G1 X114.999 Y121.008 E0.01010
G1 X115.234 Y121.067 E0.00760
G1 X115.555 Y121.089 E0.01010
G1 X115.885 Y121.043 E0.01042
G1 X115.973 Y121.011 E0.00296
G1 X117.876 Y122.913 E0.08434
G1 X113.950 Y122.913 E0.12307
G1 X109.976 Y118.938 E0.17624
G1 X109.904 Y118.749 E0.00634
G1 X109.652 Y118.402 E0.01346
G1 X109.389 Y118.182 E0.01075
G1 X109.105 Y118.030 E0.01010
G1 X108.874 Y117.955 E0.00760
G1 X108.545 Y117.909 E0.01042
G1 X108.115 Y117.954 E0.01358
G1 X107.704 Y118.121 E0.01390
G1 X107.354 Y118.393 E0.01390
G1 X107.094 Y118.752 E0.01390
G1 X106.942 Y119.169 E0.01390
G1 X106.911 Y119.611 E0.01390
G1 X107.003 Y120.045 E0.01390
G1 X107.206 Y120.427 E0.01358
G1 X107.436 Y120.682 E0.01075
G1 X107.705 Y120.877 E0.01042
G1 X107.999 Y121.008 E0.01010
G1 X108.234 Y121.067 E0.00760
G1 X108.555 Y121.089 E0.01010
G1 X108.885 Y121.043 E0.01042
G1 X108.973 Y121.011 E0.00296
G1 X110.876 Y122.913 E0.08434
G1 X106.950 Y122.913 E0.12307
G1 X102.976 Y118.938 E0.17624
G1 X102.904 Y118.749 E0.00634
G1 X102.658 Y118.410 E0.01313
G1 X102.470 Y118.241 E0.00792
G1 X102.197 Y118.071 E0.01010
G1 X101.885 Y117.957 E0.01043
G1 X101.545 Y117.909 E0.01075
G1 X101.115 Y117.954 E0.01357
G1 X100.704 Y118.121 E0.01390
G1 X100.354 Y118.393 E0.01390
G1 X100.094 Y118.752 E0.01390
G1 X99.942 Y119.169 E0.01390
G1 X99.911 Y119.611 E0.01390
G1 X100.003 Y120.045 E0.01390
G1 X100.207 Y120.427 E0.01358
G1 X100.436 Y120.682 E0.01075
G1 X100.705 Y120.877 E0.01042
G1 X100.999 Y121.008 E0.01011
G1 X101.234 Y121.067 E0.00760
G1 X101.555 Y121.089 E0.01010
G1 X101.885 Y121.043 E0.01042
G1 X101.973 Y121.011 E0.00296
G1 X103.876 Y122.913 E0.08434
G1 X99.950 Y122.913 E0.12307
G1 X95.976 Y118.938 E0.17624
G1 X95.904 Y118.749 E0.00634
G1 X95.658 Y118.410 E0.01313
G1 X95.470 Y118.241 E0.00792
G1 X95.197 Y118.071 E0.01010
G1 X94.885 Y117.957 E0.01043
G1 X94.545 Y117.909 E0.01075
G1 X94.115 Y117.954 E0.01357
G1 X93.704 Y118.121 E0.01390
G1 X93.354 Y118.393 E0.01390
G1 X93.094 Y118.752 E0.01390
G1 X92.942 Y119.169 E0.01390
G1 X92.911 Y119.611 E0.01390
G1 X93.003 Y120.045 E0.01390
G1 X93.207 Y120.427 E0.01358
G1 X93.436 Y120.682 E0.01075
G1 X93.705 Y120.877 E0.01042
