; generated by PrusaSlicer 2.1.1 on 2020-11-21 at 13:42:40 UTC

; 

; external perimeters extrusion width = 0.60mm
; perimeters extrusion width = 0.50mm
; infill extrusion width = 0.50mm
; solid infill extrusion width = 0.50mm
; top infill extrusion width = 0.45mm
; support material extrusion width = 0.38mm
; first layer extrusion width = 0.42mm

M73 P0 R19
M73 Q0 S19
M201 X1000 Y1000 Z200 E5000 ; sets maximum accelerations, mm/sec^2
M203 X200 Y200 Z12 E120 ; sets maximum feedrates, mm/sec
M204 P1250 R1250 T1250 ; sets acceleration (P, T) and retract acceleration (R), mm/sec^2
M205 X8.00 Y8.00 Z0.40 E4.50 ; sets the jerk limits, mm/sec
M205 S0 T0 ; sets the minimum extruding and travel feed rate, mm/sec
M107
M862.3 P "MK3S" ; printer model check
M862.1 P0.4 ; nozzle diameter check
M115 U3.9.1 ; tell printer latest fw version
G90 ; use absolute coordinates
M83 ; extruder relative mode
M104 S230 ; set extruder temp
M140 S85 ; set bed temp
M190 S85 ; wait for bed temp
M109 S230 ; wait for extruder temp
G28 W ; home all without mesh bed level
G80 ; mesh bed leveling
G1 Y-3.0 F1000.0 ; go outside print area
G92 E0.0
G1 X60.0 E9.0 F1000.0 ; intro line
M73 Q0 S19
M73 P0 R19
G1 X100.0 E12.5 F1000.0 ; intro line
G92 E0.0
M221 S95
G21 ; set units to millimeters
G90 ; use absolute coordinates
M83 ; use relative distances for extrusion
M900 K0.08 ; Filament gcode LA 1.5
M900 K45 ; Filament gcode LA 1.0
;BEFORE_LAYER_CHANGE
G92 E0.0
;0.2


G1 E-1.40000 F2100.00000
G1 Z0.200 F10800.000
;AFTER_LAYER_CHANGE
;0.2
G1 Z0.400
G1 X83.425 Y84.289
G1 Z0.200
G1 E1.40000 F2100.00000
M204 S1000
G1 F1200
G1 X83.860 Y83.945 E0.01737
G1 X84.363 Y83.723 E0.01726
G1 X84.903 Y83.633 E0.01714
G1 X156.050 Y81.041 E2.23224
G1 X165.473 Y81.875 E0.29661
G1 X166.028 Y82.076 E0.01851
G1 X166.509 Y82.418 E0.01851
G1 X166.881 Y82.876 E0.01851
G1 X167.118 Y83.421 E0.01862
G1 X170.886 Y103.291 E0.63410
G1 X170.887 Y128.137 E0.77906
G1 X170.799 Y128.670 E0.01692
G1 X170.584 Y129.164 E0.01692
G1 X170.254 Y129.591 E0.01692
G1 X169.830 Y129.925 E0.01692
G1 X169.309 Y130.152 E0.01783
G1 X168.743 Y130.238 E0.01794
G1 X162.566 Y130.066 E0.19376
G1 X84.862 Y125.955 E2.43974
G1 X84.339 Y125.860 E0.01669
G1 X83.857 Y125.643 E0.01658
G1 X83.441 Y125.317 E0.01658
G1 X83.113 Y124.897 E0.01669
G1 X82.883 Y124.366 E0.01817
G1 X82.800 Y123.788 E0.01828
G1 X82.801 Y85.780 E1.19172
G1 X82.880 Y85.235 E0.01726
G1 X83.093 Y84.728 E0.01726
G1 X83.389 Y84.337 E0.01538
G1 F8640
G1 X83.860 Y83.945 E-0.14139
G1 X84.363 Y83.723 E-0.12709
G1 X84.903 Y83.633 E-0.12626
G1 X88.950 Y83.486 E-0.93526
G1 E-0.07000 F2100.00000
G1 Z0.400 F10800.000
G1 X162.667 Y103.247
G1 Z0.200
G1 E1.40000 F2100.00000
G1 F1200
G1 X162.667 Y105.282 E0.06379
G1 X163.421 Y105.282 E0.02365
G1 X163.421 Y103.417 E0.05847
G1 X164.176 Y103.417 E0.02365
G1 X164.176 Y105.282 E0.05847
G1 X164.930 Y105.282 E0.02365
G1 X164.930 Y103.417 E0.05847
G1 X165.684 Y103.417 E0.02365
G1 X165.684 Y106.209 E0.08756
G1 F8640
G1 X165.684 Y103.417 E-0.64480
G1 X164.930 Y103.417 E-0.17414
G1 X164.930 Y105.282 E-0.43063
G1 X164.581 Y105.282 E-0.08044
G1 E-0.07000 F2100.00000
G1 Z0.400 F10800.000
G1 X161.816 Y108.586
G1 Z0.200
G1 E1.40000 F2100.00000
G1 F1200
G1 X161.816 Y123.812 E0.42677
G1 X162.332 Y123.812 E0.01445
G1 X162.332 Y108.728 E0.42279
G1 X162.847 Y108.728 E0.01445
G1 X162.847 Y123.812 E0.42279
G1 X163.363 Y123.812 E0.01445
G1 X163.363 Y108.728 E0.42279
G1 X163.879 Y108.728 E0.01445
G1 X163.879 Y123.812 E0.42279
G1 X164.394 Y123.812 E0.01445
G1 X164.394 Y108.728 E0.42279
G1 X164.910 Y108.728 E0.01445
G1 X164.910 Y123.812 E0.42279
G1 X165.179 Y123.812 E0.00753
G1 X165.426 Y124.059 E0.00979
G1 X165.426 Y108.481 E0.43663
G1 X165.447 Y108.460 E0.00084
G1 X165.447 Y106.386 E0.05813
G1 X165.941 Y106.386 E0.01386
G1 X165.941 Y125.053 E0.52320
G1 F8640
G1 X165.941 Y119.293 E-1.33000
G1 E-0.07000 F2100.00000
G1 Z0.400 F10800.000
G1 X162.667 Y127.089
G1 Z0.200
G1 E1.40000 F2100.00000
G1 F1200
G1 X162.667 Y127.880 E0.02480
G1 X163.421 Y127.880 E0.02365
G1 X163.421 Y127.259 E0.01948
G1 X164.176 Y127.259 E0.02365
G1 X164.176 Y127.880 E0.01948
G1 X164.930 Y127.880 E0.02365
G1 X164.930 Y127.259 E0.01948
G1 X165.191 Y127.259 E0.00820
G1 X165.477 Y126.973 E0.01269
G1 X165.477 Y125.257 E0.05378
G1 X165.684 Y125.257 E0.00647
G1 X165.684 Y127.880 E0.08224
G1 X166.438 Y127.880 E0.02365
G1 X166.438 Y103.417 E0.76703
G1 X167.192 Y103.417 E0.02365
G1 X167.192 Y127.880 E0.76703
G1 X167.946 Y127.880 E0.02365
G1 X167.946 Y103.417 E0.76703
G1 X168.701 Y103.417 E0.02365
G1 X168.701 Y128.050 E0.77235
G1 F8640
G1 X168.701 Y122.290 E-1.33000
G1 E-0.07000 F2100.00000
G1 Z0.400 F10800.000
G1 X164.402 Y126.183
G1 Z0.200
G1 E1.40000 F2100.00000
G1 F1200
G1 X152.576 Y126.183 E0.37079
G1 X152.576 Y123.183 E0.09406
G1 X129.939 Y123.183 E0.70976
G1 X126.575 Y119.819 E0.14919
G1 X126.522 Y119.342 E0.01505
G1 X126.389 Y119.014 E0.01108
G1 X126.141 Y118.672 E0.01325
G1 X125.886 Y118.458 E0.01043
G1 X125.676 Y118.337 E0.00760
G1 X125.374 Y118.227 E0.01010
G1 X125.034 Y118.179 E0.01075
G1 X124.604 Y118.225 E0.01357
G1 X124.193 Y118.391 E0.01390
G1 X123.843 Y118.664 E0.01390
G1 X123.583 Y119.022 E0.01390
G1 X123.431 Y119.439 E0.01390
G1 X123.400 Y119.881 E0.01390
G1 X123.490 Y120.305 E0.01357
G1 X123.640 Y120.613 E0.01075
G1 X123.839 Y120.867 E0.01010
G1 X124.026 Y121.036 E0.00792
G1 X124.383 Y121.242 E0.01292
G1 X124.703 Y121.334 E0.01043
G1 X124.957 Y121.360 E0.00801
G1 X125.033 Y121.352 E0.00239
G1 X126.865 Y123.183 E0.08122
G1 X122.939 Y123.183 E0.12307
G1 X119.575 Y119.819 E0.14919
G1 X119.522 Y119.342 E0.01505
G1 X119.389 Y119.014 E0.01108
G1 X119.141 Y118.672 E0.01325
G1 X118.886 Y118.458 E0.01043
G1 X118.676 Y118.337 E0.00759
G1 X118.374 Y118.227 E0.01010
G1 X118.034 Y118.179 E0.01075
G1 X117.604 Y118.225 E0.01357
G1 X117.193 Y118.391 E0.01390
G1 X116.843 Y118.664 E0.01390
G1 X116.583 Y119.022 E0.01390
G1 X116.434 Y119.429 E0.01357
G1 X116.398 Y119.781 E0.01108
G1 X116.458 Y120.209 E0.01357
G1 X116.634 Y120.605 E0.01357
G1 X116.839 Y120.867 E0.01043
G1 X117.026 Y121.036 E0.00792
G1 X117.383 Y121.242 E0.01292
G1 X117.703 Y121.334 E0.01043
G1 X117.957 Y121.360 E0.00801
G1 X118.033 Y121.352 E0.00239
G1 X119.865 Y123.183 E0.08122
G1 X115.939 Y123.183 E0.12307
G1 X112.575 Y119.819 E0.14919
G1 X112.520 Y119.331 E0.01538
G1 X112.344 Y118.936 E0.01358
G1 X112.139 Y118.674 E0.01042
G1 X111.959 Y118.512 E0.00759
G1 X111.686 Y118.341 E0.01010
G1 X111.374 Y118.227 E0.01043
G1 X111.034 Y118.179 E0.01075
G1 X110.604 Y118.225 E0.01357
G1 X110.193 Y118.391 E0.01390
G1 X109.843 Y118.664 E0.01390
G1 X109.583 Y119.022 E0.01390
G1 X109.431 Y119.439 E0.01390
G1 X109.401 Y119.871 E0.01357
G1 X109.462 Y120.219 E0.01108
G1 X109.630 Y120.595 E0.01292
G1 X109.778 Y120.800 E0.00791
G1 X110.017 Y121.031 E0.01042
G1 X110.383 Y121.242 E0.01325
G1 X110.703 Y121.334 E0.01043
G1 X110.957 Y121.360 E0.00801
G1 X111.033 Y121.352 E0.00239
G1 X112.865 Y123.183 E0.08122
G1 X108.939 Y123.183 E0.12308
G1 X105.575 Y119.819 E0.14919
G1 X105.520 Y119.331 E0.01538
G1 X105.344 Y118.936 E0.01358
G1 X105.139 Y118.674 E0.01042
G1 X104.959 Y118.512 E0.00759
G1 X104.686 Y118.341 E0.01010
G1 X104.374 Y118.227 E0.01043
G1 X104.034 Y118.179 E0.01075
G1 X103.604 Y118.225 E0.01357
G1 X103.193 Y118.391 E0.01390
G1 X102.843 Y118.664 E0.01390
G1 X102.583 Y119.022 E0.01390
G1 X102.431 Y119.439 E0.01390
G1 X102.401 Y119.871 E0.01357
G1 X102.462 Y120.219 E0.01108
G1 X102.630 Y120.595 E0.01292
G1 X102.778 Y120.800 E0.00791
G1 X103.017 Y121.031 E0.01042
G1 X103.383 Y121.242 E0.01325
G1 X103.703 Y121.334 E0.01043
G1 X103.957 Y121.360 E0.00801
G1 X104.033 Y121.352 E0.00239
G1 X105.864 Y123.183 E0.08122
G1 X101.939 Y123.183 E0.12307
G1 X98.575 Y119.819 E0.14919
G1 X98.520 Y119.331 E0.01538
G1 X98.344 Y118.936 E0.01358
G1 X98.139 Y118.674 E0.01042
G1 X97.959 Y118.512 E0.00759
G1 X97.686 Y118.341 E0.01010
G1 X97.374 Y118.227 E0.01043
G1 X97.034 Y118.179 E0.01075
G1 X96.604 Y118.225 E0.01357
G1 X96.193 Y118.391 E0.01390
G1 X95.843 Y118.664 E0.01390
G1 X95.583 Y119.022 E0.01390
G1 X95.431 Y119.439 E0.01390
G1 X95.401 Y119.871 E0.01357
G1 X95.462 Y120.219 E0.01108
G1 X95.630 Y120.595 E0.01292
G1 X95.778 Y120.800 E0.00791
G1 X96.017 Y121.031 E0.01042
G1 X96.383 Y121.242 E0.01325
G1 X96.703 Y121.334 E0.01043
G1 X96.957 Y121.360 E0.00801
G1 X97.033 Y121.352 E0.00239
G1 X98.864 Y123.183 E0.08122
G1 X94.939 Y123.183 E0.12307
G1 X91.575 Y119.819 E0.14918
G1 X91.520 Y119.331 E0.01538
G1 X91.344 Y118.936 E0.01358
G1 X91.139 Y118.674 E0.01042
G1 X90.959 Y118.512 E0.00759
G1 X90.686 Y118.341 E0.01010
G1 X90.374 Y118.227 E0.01043
G1 X90.034 Y118.179 E0.01075
G1 X89.604 Y118.225 E0.01357
G1 X89.193 Y118.391 E0.01390
G1 X88.843 Y118.664 E0.01390
G1 X88.583 Y119.022 E0.01390
G1 X88.431 Y119.439 E0.01390
G1 X88.401 Y119.871 E0.01357
G1 X88.462 Y120.219 E0.01108
G1 X88.630 Y120.595 E0.01292
G1 X88.778 Y120.800 E0.00791
G1 X89.017 Y121.031 E0.01042
G1 X89.374 Y121.237 E0.01293
G1 X89.614 Y121.315 E0.00792
G1 X89.947 Y121.361 E0.01052
G1 X90.033 Y121.352 E0.00272
G1 X91.864 Y123.183 E0.08122
G1 X85.576 Y123.183 E0.19717
G1 X85.576 Y109.357 E0.43350
G1 X91.864 Y109.357 E0.19717
G1 X90.033 Y111.189 E0.08122
G1 X89.955 Y111.180 E0.00244
G1 X89.693 Y111.209 E0.00828
G1 X89.383 Y111.299 E0.01013
G1 X89.017 Y111.510 E0.01323
G1 X88.778 Y111.741 E0.01042
G1 X88.630 Y111.945 E0.00791
G1 X88.462 Y112.322 E0.01292
G1 X88.401 Y112.670 E0.01108
G1 X88.431 Y113.102 E0.01357
G1 X88.579 Y113.508 E0.01357
G1 X88.777 Y113.801 E0.01107
G1 X89.098 Y114.091 E0.01357
G1 X89.497 Y114.285 E0.01390
G1 X89.923 Y114.360 E0.01357
G1 X90.265 Y114.336 E0.01075
G1 X90.585 Y114.245 E0.01042
G1 X90.878 Y114.089 E0.01043
G1 X91.133 Y113.875 E0.01042
G1 X91.344 Y113.605 E0.01075
G1 X91.520 Y113.209 E0.01358
G1 X91.575 Y112.722 E0.01538
G1 X94.939 Y109.357 E0.14919
G1 X98.864 Y109.357 E0.12307
G1 X97.033 Y111.189 E0.08122
G1 X96.955 Y111.180 E0.00244
G1 X96.693 Y111.209 E0.00828
G1 X96.383 Y111.299 E0.01013
G1 X96.017 Y111.510 E0.01323
G1 X95.778 Y111.741 E0.01042
G1 X95.630 Y111.945 E0.00791
G1 X95.462 Y112.322 E0.01292
G1 X95.401 Y112.670 E0.01108
G1 X95.431 Y113.102 E0.01357
G1 X95.579 Y113.508 E0.01357
G1 X95.777 Y113.801 E0.01107
G1 X96.098 Y114.091 E0.01357
G1 X96.497 Y114.285 E0.01390
G1 X96.923 Y114.360 E0.01357
G1 X97.265 Y114.336 E0.01075
G1 X97.585 Y114.245 E0.01043
G1 X97.878 Y114.089 E0.01043
G1 X98.133 Y113.875 E0.01042
G1 X98.344 Y113.605 E0.01075
G1 X98.520 Y113.209 E0.01358
G1 X98.575 Y112.722 E0.01538
G1 X101.939 Y109.357 E0.14919
G1 X105.864 Y109.357 E0.12307
G1 X104.033 Y111.189 E0.08122
G1 X103.955 Y111.180 E0.00244
G1 X103.693 Y111.209 E0.00828
G1 X103.383 Y111.299 E0.01013
G1 X103.017 Y111.510 E0.01323
G1 X102.778 Y111.741 E0.01042
G1 X102.630 Y111.945 E0.00791
G1 X102.462 Y112.322 E0.01292
G1 X102.401 Y112.670 E0.01108
G1 X102.431 Y113.102 E0.01357
G1 X102.579 Y113.508 E0.01357
G1 X102.777 Y113.801 E0.01107
G1 X103.098 Y114.091 E0.01357
G1 X103.497 Y114.285 E0.01390
G1 X103.923 Y114.360 E0.01357
G1 X104.265 Y114.336 E0.01075
G1 X104.585 Y114.245 E0.01042
G1 X104.878 Y114.089 E0.01043
G1 X105.133 Y113.875 E0.01042
G1 X105.344 Y113.605 E0.01075
G1 X105.520 Y113.209 E0.01358
G1 X105.575 Y112.722 E0.01538
G1 X108.939 Y109.357 E0.14919
G1 X112.865 Y109.357 E0.12308
G1 X111.033 Y111.189 E0.08122
G1 X110.955 Y111.180 E0.00245
G1 X110.693 Y111.209 E0.00828
G1 X110.383 Y111.299 E0.01013
G1 X110.017 Y111.510 E0.01323
G1 X109.778 Y111.741 E0.01042
G1 X109.630 Y111.945 E0.00791
G1 X109.462 Y112.322 E0.01292
G1 X109.401 Y112.670 E0.01108
G1 X109.431 Y113.102 E0.01357
G1 X109.579 Y113.508 E0.01357
G1 X109.777 Y113.801 E0.01107
G1 X110.098 Y114.091 E0.01357
G1 X110.497 Y114.285 E0.01390
G1 X110.923 Y114.360 E0.01357
G1 X111.265 Y114.336 E0.01075
G1 X111.585 Y114.245 E0.01043
G1 X111.878 Y114.089 E0.01043
G1 X112.133 Y113.875 E0.01042
G1 X112.344 Y113.605 E0.01075
G1 X112.520 Y113.209 E0.01358
G1 X112.575 Y112.722 E0.01538
G1 X115.939 Y109.357 E0.14919
G1 X119.865 Y109.357 E0.12307
G1 X118.033 Y111.189 E0.08122
G1 X117.957 Y111.180 E0.00239
G1 X117.703 Y111.207 E0.00801
G1 X117.382 Y111.299 E0.01047
G1 X117.010 Y111.516 E0.01351
G1 X116.778 Y111.741 E0.01014
G1 X116.630 Y111.945 E0.00789
G1 X116.458 Y112.331 E0.01325
G1 X116.398 Y112.760 E0.01357
G1 X116.434 Y113.111 E0.01108
G1 X116.583 Y113.518 E0.01357
G1 X116.843 Y113.877 E0.01390
G1 X117.185 Y114.144 E0.01362
G1 X117.517 Y114.290 E0.01134
G1 X117.924 Y114.360 E0.01296
G1 X118.265 Y114.336 E0.01072
G1 X118.585 Y114.245 E0.01042
G1 X118.878 Y114.089 E0.01042
G1 X119.133 Y113.875 E0.01042
G1 X119.344 Y113.605 E0.01075
G1 X119.520 Y113.209 E0.01357
G1 X119.575 Y112.722 E0.01538
G1 X122.939 Y109.357 E0.14919
G1 X126.865 Y109.357 E0.12307
G1 X125.033 Y111.189 E0.08122
G1 X124.957 Y111.180 E0.00239
G1 X124.703 Y111.207 E0.00801
G1 X124.382 Y111.299 E0.01047
G1 X124.010 Y111.516 E0.01351
G1 X123.778 Y111.741 E0.01014
G1 X123.630 Y111.945 E0.00789
G1 X123.458 Y112.331 E0.01325
G1 X123.396 Y112.770 E0.01390
G1 X123.458 Y113.209 E0.01390
G1 X123.634 Y113.605 E0.01357
G1 X123.851 Y113.883 E0.01108
G1 X124.193 Y114.150 E0.01357
G1 X124.604 Y114.316 E0.01390
G1 X125.034 Y114.361 E0.01357
G1 X125.365 Y114.315 E0.01048
G1 X125.603 Y114.236 E0.00786
G1 X125.879 Y114.088 E0.00981
G1 X126.140 Y113.869 E0.01070
G1 X126.384 Y113.535 E0.01296
G1 X126.521 Y113.200 E0.01134
G1 X126.575 Y112.722 E0.01510
G1 X129.939 Y109.357 E0.14919
G1 X152.576 Y109.357 E0.70976
G1 X152.576 Y106.357 E0.09406
G1 X164.402 Y106.357 E0.37079
G1 X164.402 Y107.683 E0.04157
G1 X154.402 Y107.683 E0.31354
G1 X154.402 Y124.857 E0.53848
G1 X164.402 Y124.857 E0.31354
G1 X164.402 Y126.123 E0.03969
G1 F8640
G1 X158.642 Y126.152 E-1.33000
G1 E-0.07000 F2100.00000
G1 Z0.400 F10800.000
G1 X154.779 Y108.060
G1 Z0.200
G1 E1.40000 F2100.00000
G1 F1200
G1 X154.779 Y124.480 E0.51484
G1 X164.779 Y124.480 E0.31354
G1 X164.779 Y126.560 E0.06522
G1 X152.199 Y126.560 E0.39444
G1 X152.199 Y123.560 E0.09406
G1 X129.783 Y123.560 E0.70284
G1 X126.176 Y119.954 E0.15993
G1 X126.201 Y119.769 E0.00582
G1 X126.155 Y119.440 E0.01044
G1 X126.057 Y119.198 E0.00817
G1 X125.863 Y118.931 E0.01034
G1 X125.669 Y118.769 E0.00794
G1 X125.516 Y118.680 E0.00553
G1 X125.282 Y118.595 E0.00782
G1 X125.028 Y118.559 E0.00806
G1 X124.696 Y118.594 E0.01046
G1 X124.383 Y118.721 E0.01058
G1 X124.117 Y118.928 E0.01058
G1 X123.919 Y119.201 E0.01058
G1 X123.803 Y119.518 E0.01058
G1 X123.780 Y119.855 E0.01058
G1 X123.849 Y120.181 E0.01046
G1 X123.962 Y120.412 E0.00806
G1 X124.115 Y120.609 E0.00782
G1 X124.249 Y120.729 E0.00564
G1 X124.532 Y120.892 E0.01023
G1 X124.775 Y120.962 E0.00794
G1 X124.955 Y120.981 E0.00568
G1 X125.171 Y120.956 E0.00680
G1 X127.775 Y123.560 E0.11547
G1 X122.783 Y123.560 E0.15651
G1 X119.176 Y119.954 E0.15993
G1 X119.201 Y119.769 E0.00582
G1 X119.155 Y119.440 E0.01044
G1 X119.057 Y119.198 E0.00817
G1 X118.863 Y118.931 E0.01034
G1 X118.669 Y118.769 E0.00794
G1 X118.516 Y118.680 E0.00553
G1 X118.282 Y118.595 E0.00782
G1 X118.028 Y118.559 E0.00806
G1 X117.696 Y118.594 E0.01046
G1 X117.383 Y118.721 E0.01058
G1 X117.117 Y118.928 E0.01058
G1 X116.919 Y119.201 E0.01058
G1 X116.805 Y119.515 E0.01046
G1 X116.777 Y119.774 E0.00817
G1 X116.824 Y120.104 E0.01046
G1 X116.960 Y120.409 E0.01046
G1 X117.115 Y120.609 E0.00794
G1 X117.249 Y120.729 E0.00564
G1 X117.532 Y120.892 E0.01023
G1 X117.775 Y120.962 E0.00794
G1 X117.955 Y120.981 E0.00568
G1 X118.171 Y120.956 E0.00680
G1 X120.775 Y123.560 E0.11547
G1 X115.783 Y123.560 E0.15651
G1 X112.176 Y119.954 E0.15993
G1 X112.201 Y119.770 E0.00582
G1 X112.154 Y119.436 E0.01056
G1 X112.018 Y119.131 E0.01046
G1 X111.862 Y118.932 E0.00794
G1 X111.732 Y118.814 E0.00552
G1 X111.520 Y118.682 E0.00782
G1 X111.282 Y118.595 E0.00794
G1 X111.028 Y118.559 E0.00805
G1 X110.696 Y118.594 E0.01046
G1 X110.383 Y118.721 E0.01058
G1 X110.117 Y118.928 E0.01058
G1 X109.919 Y119.201 E0.01058
G1 X109.803 Y119.518 E0.01058
G1 X109.780 Y119.851 E0.01046
G1 X109.825 Y120.108 E0.00817
G1 X109.958 Y120.406 E0.01023
G1 X110.064 Y120.551 E0.00564
G1 X110.246 Y120.727 E0.00794
