; generated by PrusaSlicer 2.1.1 on 2020-08-02 at 17:00:56 UTC

; 

; external perimeters extrusion width = 0.45mm
; perimeters extrusion width = 0.45mm
; infill extrusion width = 0.45mm
; solid infill extrusion width = 0.45mm
; top infill extrusion width = 0.40mm
; first layer extrusion width = 0.42mm

M73 P0 R18
M73 Q0 S18
M201 X1000 Y1000 Z200 E5000 ; sets maximum accelerations, mm/sec^2
M203 X200 Y200 Z12 E120 ; sets maximum feedrates, mm/sec
M204 P1250 R1250 T1250 ; sets acceleration (P, T) and retract acceleration (R), mm/sec^2
M205 X8.00 Y8.00 Z0.40 E4.50 ; sets the jerk limits, mm/sec
M205 S0 T0 ; sets the minimum extruding and travel feed rate, mm/sec
M107
M862.3 P "MK3S" ; printer model check
M862.1 P0.4 ; nozzle diameter check
M115 U3.9.0 ; tell printer latest fw version
G90 ; use absolute coordinates
M83 ; extruder relative mode
M104 S215 ; set extruder temp
M140 S60 ; set bed temp
M190 S60 ; wait for bed temp
M109 S215 ; wait for extruder temp
G28 W ; home all without mesh bed level
G80 ; mesh bed leveling
G1 Y-3.0 F1000.0 ; go outside print area
G92 E0.0
G1 X60.0 E9.0 F1000.0 ; intro line
M73 Q0 S18
M73 P0 R18
G1 X100.0 E12.5 F1000.0 ; intro line
G92 E0.0
M221 S95
G21 ; set units to millimeters
G90 ; use absolute coordinates
M83 ; use relative distances for extrusion
M900 K0.06 ; Filament gcode LA 1.5
M900 K30 ; Filament gcode LA 1.0
;BEFORE_LAYER_CHANGE
G92 E0.0
;0.2


G1 E-0.80000 F2100.00000
G1 Z0.600 F10800.000
;AFTER_LAYER_CHANGE
;0.2
G1 X84.780 Y88.880
G1 Z0.200
G1 E0.80000 F2100.00000
M204 S1000
G1 F1200
G1 X85.256 Y88.551 E0.01817
G1 X85.735 Y88.373 E0.01601
G1 X86.242 Y88.311 E0.01601
G1 X139.570 Y88.311 E1.67206
G1 X140.386 Y88.471 E0.02608
G1 X141.087 Y88.926 E0.02620
G1 X141.566 Y89.611 E0.02620
G1 X141.753 Y90.425 E0.02620
G1 X141.753 Y115.595 E0.78920
G1 X141.652 Y116.162 E0.01805
G1 X141.407 Y116.683 E0.01805
G1 X141.035 Y117.122 E0.01805
G1 X140.561 Y117.449 E0.01805
G1 X140.082 Y117.627 E0.01601
G1 X139.576 Y117.689 E0.01601
G1 X86.215 Y117.688 E1.67309
G1 X85.631 Y117.599 E0.01851
G1 X85.093 Y117.357 E0.01851
G1 X84.639 Y116.980 E0.01851
G1 X84.302 Y116.495 E0.01851
G1 X84.125 Y116.020 E0.01589
G1 X84.063 Y115.520 E0.01578
G1 X84.064 Y90.427 E0.78679
G1 X84.161 Y89.852 E0.01828
G1 X84.404 Y89.326 E0.01817
G1 X84.741 Y88.926 E0.01640
G1 F8640
G1 X85.256 Y88.551 E-0.14720
G1 X85.735 Y88.373 E-0.11788
G1 X86.242 Y88.311 E-0.11788
G1 X87.875 Y88.311 E-0.37704
G1 E-0.04000 F2100.00000
G1 Z0.800 F10800.000
G1 X86.838 Y91.087
G1 Z0.200
G1 E0.80000 F2100.00000
G1 F1200
G1 X110.664 Y91.087 E0.74704
G1 X110.664 Y114.913 E0.74704
G1 X86.838 Y114.913 E0.74704
G1 X86.838 Y91.147 E0.74516
G1 X86.461 Y90.710 F10800.000
G1 F1200
G1 X111.041 Y90.710 E0.77069
G1 X111.041 Y115.290 E0.77069
G1 X86.461 Y115.290 E0.77069
G1 X86.461 Y90.770 E0.76881
G1 X86.848 Y90.814 F10800.000
G1 F8640
G1 X89.753 Y90.762 E-0.76000
G1 E-0.04000 F2100.00000
G1 Z0.800 F10800.000
G1 X87.720 Y114.800
G1 Z0.200
G1 E0.80000 F2100.00000
G1 F1200
G1 X87.121 Y114.201 E0.02673
G1 X87.121 Y113.664 E0.01697
G1 X88.087 Y114.630 E0.04315
G1 X88.624 Y114.630 E0.01697
G1 X87.121 Y113.127 E0.06715
G1 X87.121 Y112.590 E0.01697
G1 X89.162 Y114.630 E0.09114
G1 X89.699 Y114.630 E0.01697
G1 X87.121 Y112.053 E0.11514
G1 X87.121 Y111.515 E0.01697
G1 X90.236 Y114.630 E0.13914
G1 X90.773 Y114.630 E0.01697
G1 X87.121 Y110.978 E0.16313
G1 X87.121 Y110.441 E0.01697
G1 X91.310 Y114.630 E0.18713
G1 X91.848 Y114.630 E0.01697
G1 X87.121 Y109.904 E0.21113
G1 X87.121 Y109.366 E0.01697
G1 X92.385 Y114.630 E0.23512
G1 X92.922 Y114.630 E0.01697
G1 X87.121 Y108.829 E0.25912
G1 X87.121 Y108.292 E0.01697
G1 X93.459 Y114.630 E0.28312
G1 X93.996 Y114.630 E0.01697
G1 X87.121 Y107.755 E0.30711
G1 X87.121 Y107.218 E0.01697
G1 X94.534 Y114.630 E0.33111
G1 X95.071 Y114.630 E0.01697
G1 X87.121 Y106.680 E0.35511
G1 X87.121 Y106.143 E0.01697
G1 X95.608 Y114.630 E0.37910
G1 X96.145 Y114.630 E0.01697
G1 X87.121 Y105.606 E0.40310
G1 X87.121 Y105.069 E0.01697
G1 X96.682 Y114.630 E0.42710
G1 X97.220 Y114.630 E0.01697
G1 X87.121 Y104.532 E0.45110
G1 X87.121 Y103.994 E0.01697
G1 X97.757 Y114.630 E0.47509
G1 X98.294 Y114.630 E0.01697
G1 X87.121 Y103.457 E0.49909
G1 X87.121 Y102.920 E0.01697
G1 X98.831 Y114.630 E0.52309
G1 X99.369 Y114.630 E0.01697
G1 X87.121 Y102.383 E0.54708
G1 X87.121 Y101.846 E0.01697
G1 X99.906 Y114.630 E0.57108
G1 X100.443 Y114.630 E0.01697
G1 X87.121 Y101.308 E0.59508
G1 X87.121 Y100.771 E0.01697
G1 X100.980 Y114.630 E0.61907
G1 X101.517 Y114.630 E0.01697
G1 X87.121 Y100.234 E0.64307
G1 X87.121 Y99.697 E0.01697
G1 X102.055 Y114.630 E0.66707
G1 X102.592 Y114.630 E0.01697
G1 X87.121 Y99.159 E0.69106
G1 X87.121 Y98.622 E0.01697
G1 X103.129 Y114.630 E0.71506
G1 X103.666 Y114.630 E0.01697
G1 X87.121 Y98.085 E0.73906
G1 X87.121 Y97.548 E0.01697
G1 X104.203 Y114.630 E0.76305
G1 X104.741 Y114.630 E0.01697
G1 X87.121 Y97.011 E0.78705
G1 X87.121 Y96.473 E0.01697
G1 X105.278 Y114.630 E0.81105
G1 X105.815 Y114.630 E0.01697
G1 X87.121 Y95.936 E0.83505
G1 X87.121 Y95.399 E0.01697
G1 X106.352 Y114.630 E0.85904
G1 X106.890 Y114.630 E0.01697
G1 X87.121 Y94.862 E0.88304
G1 X87.121 Y94.325 E0.01697
G1 X107.427 Y114.630 E0.90704
G1 X107.964 Y114.630 E0.01697
G1 X87.121 Y93.787 E0.93103
G1 X87.121 Y93.250 E0.01697
G1 X108.501 Y114.630 E0.95503
G1 X109.038 Y114.630 E0.01697
G1 X87.121 Y92.713 E0.97903
G1 X87.121 Y92.176 E0.01697
G1 X109.576 Y114.630 E1.00302
G1 X110.113 Y114.630 E0.01697
G1 X87.121 Y91.639 E1.02702
M73 Q5 S17
G1 X87.121 Y91.370 E0.00849
G1 X87.390 Y91.370 E0.00848
G1 X110.381 Y114.362 E1.02702
M73 P6 R17
G1 X110.381 Y113.824 E0.01697
G1 X87.927 Y91.370 E1.00303
G1 X88.464 Y91.370 E0.01697
G1 X110.381 Y113.287 E0.97903
G1 X110.381 Y112.750 E0.01697
G1 X89.001 Y91.370 E0.95503
G1 X89.539 Y91.370 E0.01697
G1 X110.381 Y112.213 E0.93104
G1 X110.381 Y111.676 E0.01697
G1 X90.076 Y91.370 E0.90704
G1 X90.613 Y91.370 E0.01697
G1 X110.381 Y111.138 E0.88304
G1 X110.381 Y110.601 E0.01697
G1 X91.150 Y91.370 E0.85905
G1 X91.687 Y91.370 E0.01697
G1 X110.381 Y110.064 E0.83505
G1 X110.381 Y109.527 E0.01697
G1 X92.225 Y91.370 E0.81105
G1 X92.762 Y91.370 E0.01697
G1 X110.381 Y108.989 E0.78706
G1 X110.381 Y108.452 E0.01697
G1 X93.299 Y91.370 E0.76306
G1 X93.836 Y91.370 E0.01697
G1 X110.381 Y107.915 E0.73906
G1 X110.381 Y107.378 E0.01697
G1 X94.373 Y91.370 E0.71506
G1 X94.911 Y91.370 E0.01697
G1 X110.381 Y106.841 E0.69107
G1 X110.381 Y106.303 E0.01697
G1 X95.448 Y91.370 E0.66707
G1 X95.985 Y91.370 E0.01697
G1 X110.381 Y105.766 E0.64307
G1 X110.381 Y105.229 E0.01697
G1 X96.522 Y91.370 E0.61908
G1 X97.060 Y91.370 E0.01697
G1 X110.381 Y104.692 E0.59508
G1 X110.381 Y104.155 E0.01697
G1 X97.597 Y91.370 E0.57108
G1 X98.134 Y91.370 E0.01697
G1 X110.381 Y103.617 E0.54709
G1 X110.381 Y103.080 E0.01697
G1 X98.671 Y91.370 E0.52309
G1 X99.208 Y91.370 E0.01697
G1 X110.381 Y102.543 E0.49909
G1 X110.381 Y102.006 E0.01697
G1 X99.746 Y91.370 E0.47510
G1 X100.283 Y91.370 E0.01697
G1 X110.381 Y101.468 E0.45110
G1 X110.381 Y100.931 E0.01697
G1 X100.820 Y91.370 E0.42710
G1 X101.357 Y91.370 E0.01697
G1 X110.381 Y100.394 E0.40310
G1 X110.381 Y99.857 E0.01697
G1 X101.894 Y91.370 E0.37911
G1 X102.432 Y91.370 E0.01697
G1 X110.381 Y99.320 E0.35511
G1 X110.381 Y98.782 E0.01697
G1 X102.969 Y91.370 E0.33111
G1 X103.506 Y91.370 E0.01697
G1 X110.381 Y98.245 E0.30712
G1 X110.381 Y97.708 E0.01697
G1 X104.043 Y91.370 E0.28312
G1 X104.580 Y91.370 E0.01697
G1 X110.381 Y97.171 E0.25912
G1 X110.381 Y96.634 E0.01697
G1 X105.118 Y91.370 E0.23513
G1 X105.655 Y91.370 E0.01697
G1 X110.381 Y96.096 E0.21113
G1 X110.381 Y95.559 E0.01697
G1 X106.192 Y91.370 E0.18713
G1 X106.729 Y91.370 E0.01697
G1 X110.381 Y95.022 E0.16314
G1 X110.381 Y94.485 E0.01697
G1 X107.267 Y91.370 E0.13914
G1 X107.804 Y91.370 E0.01697
G1 X110.381 Y93.948 E0.11514
G1 X110.381 Y93.410 E0.01697
G1 X108.341 Y91.370 E0.09115
G1 X108.878 Y91.370 E0.01697
G1 X110.381 Y92.873 E0.06715
G1 X110.381 Y92.336 E0.01697
G1 X109.415 Y91.370 E0.04315
G1 X109.953 Y91.370 E0.01697
G1 X110.551 Y91.968 E0.02673
G1 F8640
G1 X109.953 Y91.370 E-0.19544
G1 X109.415 Y91.370 E-0.12404
G1 X110.381 Y92.336 E-0.31545
G1 X110.381 Y92.873 E-0.12404
G1 X110.378 Y92.870 E-0.00103
G1 E-0.04000 F2100.00000
G1 Z0.800 F10800.000
G1 X115.153 Y91.087
G1 Z0.200
G1 E0.80000 F2100.00000
G1 F1200
G1 X138.979 Y91.087 E0.74704
G1 X138.979 Y114.913 E0.74704
G1 X115.153 Y114.913 E0.74704
G1 X115.153 Y91.147 E0.74516
G1 X114.776 Y90.710 F10800.000
G1 F1200
G1 X139.356 Y90.710 E0.77069
G1 X139.356 Y115.290 E0.77069
G1 X114.776 Y115.290 E0.77069
G1 X114.776 Y90.770 E0.76881
G1 X115.162 Y90.814 F10800.000
G1 F8640
G1 X118.067 Y90.762 E-0.76000
G1 E-0.04000 F2100.00000
G1 Z0.800 F10800.000
G1 X116.034 Y114.800
G1 Z0.200
G1 E0.80000 F2100.00000
G1 F1200
G1 X115.436 Y114.201 E0.02673
G1 X115.436 Y113.664 E0.01697
G1 X116.402 Y114.630 E0.04315
G1 X116.939 Y114.630 E0.01697
G1 X115.436 Y113.127 E0.06715
G1 X115.436 Y112.590 E0.01697
G1 X117.476 Y114.630 E0.09114
G1 X118.014 Y114.630 E0.01697
G1 X115.436 Y112.053 E0.11514
G1 X115.436 Y111.515 E0.01697
G1 X118.551 Y114.630 E0.13914
G1 X119.088 Y114.630 E0.01697
G1 X115.436 Y110.978 E0.16313
G1 X115.436 Y110.441 E0.01697
G1 X119.625 Y114.630 E0.18713
G1 X120.162 Y114.630 E0.01697
G1 X115.436 Y109.904 E0.21113
G1 X115.436 Y109.366 E0.01697
G1 X120.700 Y114.630 E0.23512
G1 X121.237 Y114.630 E0.01697
G1 X115.436 Y108.829 E0.25912
G1 X115.436 Y108.292 E0.01697
G1 X121.774 Y114.630 E0.28312
G1 X122.311 Y114.630 E0.01697
G1 X115.436 Y107.755 E0.30711
G1 X115.436 Y107.218 E0.01697
G1 X122.848 Y114.630 E0.33111
G1 X123.386 Y114.630 E0.01697
G1 X115.436 Y106.680 E0.35511
G1 X115.436 Y106.143 E0.01697
G1 X123.923 Y114.630 E0.37910
G1 X124.460 Y114.630 E0.01697
G1 X115.436 Y105.606 E0.40310
G1 X115.436 Y105.069 E0.01697
G1 X124.997 Y114.630 E0.42710
G1 X125.534 Y114.630 E0.01697
G1 X115.436 Y104.532 E0.45110
G1 X115.436 Y103.994 E0.01697
G1 X126.072 Y114.630 E0.47509
G1 X126.609 Y114.630 E0.01697
G1 X115.436 Y103.457 E0.49909
G1 X115.436 Y102.920 E0.01697
G1 X127.146 Y114.630 E0.52309
G1 X127.683 Y114.630 E0.01697
G1 X115.436 Y102.383 E0.54708
G1 X115.436 Y101.846 E0.01697
G1 X128.221 Y114.630 E0.57108
M73 Q11 S16
G1 X128.758 Y114.630 E0.01697
G1 X115.436 Y101.308 E0.59508
G1 X115.436 Y100.771 E0.01697
G1 X129.295 Y114.630 E0.61907
M73 P11 R16
G1 X129.832 Y114.630 E0.01697
G1 X115.436 Y100.234 E0.64307
G1 X115.436 Y99.697 E0.01697
G1 X130.369 Y114.630 E0.66707
G1 X130.907 Y114.630 E0.01697
G1 X115.436 Y99.159 E0.69106
G1 X115.436 Y98.622 E0.01697
G1 X131.444 Y114.630 E0.71506
G1 X131.981 Y114.630 E0.01697
G1 X115.436 Y98.085 E0.73906
G1 X115.436 Y97.548 E0.01697
G1 X132.518 Y114.630 E0.76305
G1 X133.055 Y114.630 E0.01697
G1 X115.436 Y97.011 E0.78705
G1 X115.436 Y96.473 E0.01697
G1 X133.593 Y114.630 E0.81105
G1 X134.130 Y114.630 E0.01697
G1 X115.436 Y95.936 E0.83505
G1 X115.436 Y95.399 E0.01697
G1 X134.667 Y114.630 E0.85904
G1 X135.204 Y114.630 E0.01697
G1 X115.436 Y94.862 E0.88304
G1 X115.436 Y94.325 E0.01697
G1 X135.741 Y114.630 E0.90704
G1 X136.279 Y114.630 E0.01697
G1 X115.436 Y93.787 E0.93103
G1 X115.436 Y93.250 E0.01697
G1 X136.816 Y114.630 E0.95503
G1 X137.353 Y114.630 E0.01697
G1 X115.436 Y92.713 E0.97903
G1 X115.436 Y92.176 E0.01697
G1 X137.890 Y114.630 E1.00302
G1 X138.428 Y114.630 E0.01697
G1 X115.436 Y91.639 E1.02702
G1 X115.436 Y91.370 E0.00849
G1 X115.705 Y91.370 E0.00848
G1 X138.696 Y114.362 E1.02702
G1 X138.696 Y113.824 E0.01697
G1 X116.242 Y91.370 E1.00303
G1 X116.779 Y91.370 E0.01697
G1 X138.696 Y113.287 E0.97903
G1 X138.696 Y112.750 E0.01697
G1 X117.316 Y91.370 E0.95503
G1 X117.853 Y91.370 E0.01697
G1 X138.696 Y112.213 E0.93104
G1 X138.696 Y111.676 E0.01697
G1 X118.391 Y91.370 E0.90704
G1 X118.928 Y91.370 E0.01697
G1 X138.696 Y111.138 E0.88304
G1 X138.696 Y110.601 E0.01697
G1 X119.465 Y91.370 E0.85905
G1 X120.002 Y91.370 E0.01697
G1 X138.696 Y110.064 E0.83505
G1 X138.696 Y109.527 E0.01697
G1 X120.539 Y91.370 E0.81105
G1 X121.077 Y91.370 E0.01697
G1 X138.696 Y108.989 E0.78706
G1 X138.696 Y108.452 E0.01697
G1 X121.614 Y91.370 E0.76306
G1 X122.151 Y91.370 E0.01697
G1 X138.696 Y107.915 E0.73906
G1 X138.696 Y107.378 E0.01697
G1 X122.688 Y91.370 E0.71506
G1 X123.225 Y91.370 E0.01697
G1 X138.696 Y106.841 E0.69107
G1 X138.696 Y106.303 E0.01697
G1 X123.763 Y91.370 E0.66707
G1 X124.300 Y91.370 E0.01697
G1 X138.696 Y105.766 E0.64307
G1 X138.696 Y105.229 E0.01697
G1 X124.837 Y91.370 E0.61908
G1 X125.374 Y91.370 E0.01697
G1 X138.696 Y104.692 E0.59508
G1 X138.696 Y104.155 E0.01697
G1 X125.912 Y91.370 E0.57108
G1 X126.449 Y91.370 E0.01697
G1 X138.696 Y103.617 E0.54709
G1 X138.696 Y103.080 E0.01697
G1 X126.986 Y91.370 E0.52309
G1 X127.523 Y91.370 E0.01697
G1 X138.696 Y102.543 E0.49909
G1 X138.696 Y102.006 E0.01697
G1 X128.060 Y91.370 E0.47510
G1 X128.598 Y91.370 E0.01697
G1 X138.696 Y101.468 E0.45110
G1 X138.696 Y100.931 E0.01697
G1 X129.135 Y91.370 E0.42710
G1 X129.672 Y91.370 E0.01697
G1 X138.696 Y100.394 E0.40310
G1 X138.696 Y99.857 E0.01697
G1 X130.209 Y91.370 E0.37911
G1 X130.746 Y91.370 E0.01697
G1 X138.696 Y99.320 E0.35511
G1 X138.696 Y98.782 E0.01697
G1 X131.284 Y91.370 E0.33111
G1 X131.821 Y91.370 E0.01697
G1 X138.696 Y98.245 E0.30712
G1 X138.696 Y97.708 E0.01697
G1 X132.358 Y91.370 E0.28312
G1 X132.895 Y91.370 E0.01697
G1 X138.696 Y97.171 E0.25912
G1 X138.696 Y96.634 E0.01697
M73 Q17 S15
G1 X133.432 Y91.370 E0.23513
G1 X133.970 Y91.370 E0.01697
G1 X138.696 Y96.096 E0.21113
G1 X138.696 Y95.559 E0.01697
G1 X134.507 Y91.370 E0.18713
G1 X135.044 Y91.370 E0.01697
G1 X138.696 Y95.022 E0.16314
G1 X138.696 Y94.485 E0.01697
G1 X135.581 Y91.370 E0.13914
G1 X136.119 Y91.370 E0.01697
G1 X138.696 Y93.948 E0.11514
G1 X138.696 Y93.410 E0.01697
G1 X136.656 Y91.370 E0.09115
M73 P17 R15
G1 X137.193 Y91.370 E0.01697
G1 X138.696 Y92.873 E0.06715
G1 X138.696 Y92.336 E0.01697
G1 X137.730 Y91.370 E0.04315
G1 X138.267 Y91.370 E0.01697
G1 X138.866 Y91.968 E0.02673
M106 S255
;BEFORE_LAYER_CHANGE
G92 E0.0
;0.35


G1 F8640
G1 X138.267 Y91.370 E-0.19544
G1 X137.730 Y91.370 E-0.12404
G1 X138.696 Y92.336 E-0.31545
G1 X138.696 Y92.873 E-0.12404
G1 X138.693 Y92.870 E-0.00103
G1 E-0.04000 F2100.00000
G1 Z0.800 F10800.000
;AFTER_LAYER_CHANGE
;0.35
G1 X141.566 Y89.611
G1 Z0.350
G1 E0.80000 F2100.00000
G1 F3000
G1 X141.753 Y90.425 E0.02021
G1 X141.753 Y115.595 E0.60874
G1 X141.652 Y116.162 E0.01393
G1 X141.407 Y116.683 E0.01393
G1 X141.035 Y117.122 E0.01393
G1 X140.561 Y117.449 E0.01393
G1 X140.082 Y117.627 E0.01235
G1 X139.576 Y117.689 E0.01235
G1 X86.215 Y117.688 E1.29053
G1 X85.631 Y117.599 E0.01428
G1 X85.093 Y117.357 E0.01428
G1 X84.639 Y116.980 E0.01428
G1 X84.302 Y116.495 E0.01428
G1 X84.125 Y116.020 E0.01226
G1 X84.063 Y115.520 E0.01217
G1 X84.064 Y90.427 E0.60688
G1 X84.161 Y89.852 E0.01410
G1 X84.404 Y89.326 E0.01401
G1 X84.780 Y88.880 E0.01410
G1 X85.256 Y88.551 E0.01401
G1 X85.735 Y88.373 E0.01235
G1 X86.242 Y88.311 E0.01235
G1 X139.570 Y88.311 E1.28973
G1 X140.386 Y88.471 E0.02012
G1 X141.087 Y88.926 E0.02021
G1 X141.531 Y89.561 E0.01875
G1 F8640
G1 X141.753 Y90.425 E-0.20582
G1 X141.753 Y92.825 E-0.55418
G1 E-0.04000 F2100.00000
G1 Z0.950 F10800.000
G1 X110.608 Y91.143
G1 Z0.350
G1 E0.80000 F2100.00000
M204 S800
G1 F2700
G1 X110.608 Y114.857 E0.61790
G1 X86.894 Y114.857 E0.61790
G1 X86.894 Y91.143 E0.61790
G1 X110.548 Y91.143 E0.61633
M204 S1000
G1 X111.026 Y90.725 F10800.000
M204 S800
G1 F1500
G1 X111.026 Y115.275 E0.63967
G1 X86.476 Y115.275 E0.63967
G1 X86.476 Y90.725 E0.63967
G1 X110.966 Y90.725 E0.63811
M204 S1000
G1 X110.923 Y91.111 F10800.000
G1 F8640
G1 X110.974 Y94.016 E-0.76000
G1 E-0.04000 F2100.00000
G1 Z0.950 F10800.000
G1 X87.870 Y91.268
G1 Z0.350
G1 E0.80000 F2100.00000
G1 F4800
G1 X87.207 Y91.931 E0.02460
G1 X87.207 Y92.526 E0.01562
G1 X88.277 Y91.456 E0.03970
G1 X88.872 Y91.456 E0.01562
G1 X87.207 Y93.121 E0.06179
G1 X87.207 Y93.716 E0.01562
G1 X89.467 Y91.456 E0.08387
G1 X90.063 Y91.456 E0.01562
G1 X87.207 Y94.311 E0.10595
G1 X87.207 Y94.906 E0.01562
G1 X90.658 Y91.456 E0.12804
G1 X91.253 Y91.456 E0.01562
G1 X87.207 Y95.501 E0.15012
