; generated by PrusaSlicer 2.1.1 on 2020-08-10 at 15:39:03 UTC

; 

; external perimeters extrusion width = 0.45mm
; perimeters extrusion width = 0.45mm
; infill extrusion width = 0.45mm
; solid infill extrusion width = 0.45mm
; top infill extrusion width = 0.40mm
; first layer extrusion width = 0.42mm

M73 P0 R36
M73 Q0 S36
M201 X1000 Y1000 Z200 E5000 ; sets maximum accelerations, mm/sec^2
M203 X200 Y200 Z12 E120 ; sets maximum feedrates, mm/sec
M204 P1250 R1250 T1250 ; sets acceleration (P, T) and retract acceleration (R), mm/sec^2
M205 X8.00 Y8.00 Z0.40 E4.50 ; sets the jerk limits, mm/sec
M205 S0 T0 ; sets the minimum extruding and travel feed rate, mm/sec
M107
M862.3 P "MK3S" ; printer model check
M862.1 P0.4 ; nozzle diameter check
M115 U3.9.0 ; tell printer latest fw version
G90 ; use absolute coordinates
M83 ; extruder relative mode
M104 S215 ; set extruder temp
M140 S60 ; set bed temp
M190 S60 ; wait for bed temp
M109 S215 ; wait for extruder temp
G28 W ; home all without mesh bed level
G80 ; mesh bed leveling
G1 Y-3.0 F1000.0 ; go outside print area
G92 E0.0
G1 X60.0 E9.0 F1000.0 ; intro line
M73 Q0 S36
M73 P0 R36
G1 X100.0 E12.5 F1000.0 ; intro line
G92 E0.0
M221 S95
G21 ; set units to millimeters
G90 ; use absolute coordinates
M83 ; use relative distances for extrusion
M900 K0.06 ; Filament gcode LA 1.5
M900 K30 ; Filament gcode LA 1.0
;BEFORE_LAYER_CHANGE
G92 E0.0
;0.2


G1 E-0.80000 F2100.00000
G1 Z0.600 F10800.000
;AFTER_LAYER_CHANGE
;0.2
G1 X142.393 Y116.904
G1 Z0.200
G1 E0.80000 F2100.00000
M204 S1000
G1 F1200
G1 X141.855 Y117.635 E0.02844
G1 X141.222 Y118.028 E0.02338
G1 X140.490 Y118.187 E0.02349
G1 X130.906 Y118.188 E0.30051
G1 X130.353 Y118.114 E0.01749
G1 X96.862 Y108.636 E1.09134
G1 X95.284 Y107.886 E0.05477
G1 X93.957 Y106.922 E0.05141
G1 X92.758 Y105.655 E0.05470
G1 X91.816 Y104.177 E0.05497
G1 X91.168 Y102.534 E0.05538
G1 X90.845 Y100.783 E0.05580
G1 X90.878 Y98.900 E0.05905
G1 X91.261 Y97.163 E0.05579
G1 X91.962 Y95.548 E0.05519
G1 X92.973 Y94.079 E0.05593
G1 X94.331 Y92.769 E0.05915
G1 X95.828 Y91.813 E0.05568
G1 X96.706 Y91.422 E0.03016
G1 X97.625 Y91.124 E0.03027
G1 X98.565 Y90.924 E0.03015
G1 X99.533 Y90.823 E0.03050
G1 X118.004 Y90.811 E0.57914
G1 X140.557 Y91.817 E0.70784
G1 X141.367 Y92.036 E0.02631
G1 X142.034 Y92.544 E0.02631
G1 X142.435 Y93.194 E0.02394
G1 X142.588 Y93.946 E0.02405
G1 X142.588 Y116.015 E0.69194
G1 X142.406 Y116.845 E0.02667
G1 F8640
G1 X141.855 Y117.635 E-0.22218
G1 X141.222 Y118.028 E-0.17216
G1 X140.490 Y118.187 E-0.17299
G1 X139.655 Y118.187 E-0.19267
G1 E-0.04000 F2100.00000
G1 Z0.800 F10800.000
G1 X105.181 Y102.093
G1 Z0.200
G1 E0.80000 F2100.00000
G1 F1200
G1 X104.935 Y102.621 E0.01826
G1 X104.685 Y103.045 E0.01545
G1 X104.343 Y103.517 E0.01826
G1 X103.951 Y103.951 E0.01834
G1 X103.517 Y104.343 E0.01834
G1 X103.045 Y104.685 E0.01826
G1 X102.621 Y104.935 E0.01545
G1 X102.093 Y105.181 E0.01826
G1 X101.543 Y105.371 E0.01826
G1 X101.066 Y105.485 E0.01536
G1 X100.582 Y105.557 E0.01536
G1 X100.000 Y105.588 E0.01826
G1 X99.419 Y105.557 E0.01823
G1 X98.934 Y105.485 E0.01539
G1 X98.457 Y105.371 E0.01537
G1 X97.907 Y105.181 E0.01826
G1 X97.380 Y104.935 E0.01823
G1 X96.955 Y104.685 E0.01547
G1 X96.483 Y104.343 E0.01826
G1 X96.049 Y103.951 E0.01834
G1 X95.657 Y103.517 E0.01834
G1 X95.315 Y103.045 E0.01826
G1 X95.065 Y102.620 E0.01547
G1 X94.819 Y102.093 E0.01823
G1 X94.629 Y101.543 E0.01826
G1 X94.515 Y101.066 E0.01537
G1 X94.443 Y100.581 E0.01539
G1 X94.412 Y100.000 E0.01823
G1 X94.443 Y99.418 E0.01826
G1 X94.515 Y98.931 E0.01544
G1 X94.656 Y98.369 E0.01818
G1 X94.820 Y97.904 E0.01547
G1 X95.066 Y97.377 E0.01823
G1 X95.367 Y96.875 E0.01834
G1 X95.718 Y96.410 E0.01826
G1 X96.049 Y96.049 E0.01536
G1 X96.410 Y95.718 E0.01536
G1 X96.875 Y95.367 E0.01826
G1 X97.374 Y95.068 E0.01823
G1 X97.819 Y94.855 E0.01547
G1 X98.363 Y94.657 E0.01815
G1 X98.841 Y94.534 E0.01547
G1 X99.416 Y94.443 E0.01826
G1 X99.997 Y94.412 E0.01823
G1 X100.490 Y94.434 E0.01547
G1 X101.064 Y94.514 E0.01818
G1 X101.543 Y94.629 E0.01545
G1 X102.093 Y94.819 E0.01826
G1 X102.620 Y95.065 E0.01823
G1 X103.045 Y95.315 E0.01547
G1 X103.517 Y95.657 E0.01826
G1 X103.951 Y96.049 E0.01834
G1 X104.343 Y96.483 E0.01834
G1 X104.685 Y96.955 E0.01826
G1 X104.935 Y97.380 E0.01547
G1 X105.181 Y97.907 E0.01823
G1 X105.371 Y98.457 E0.01826
G1 X105.485 Y98.934 E0.01537
G1 X105.557 Y99.419 E0.01539
G1 X105.588 Y100.000 E0.01823
G1 X105.557 Y100.582 E0.01826
G1 X105.485 Y101.066 E0.01536
G1 X105.371 Y101.543 E0.01536
G1 X105.201 Y102.037 E0.01638
G1 X104.844 Y101.914 F10800.000
G1 F1200
G1 X104.601 Y102.445 E0.01833
G1 X104.369 Y102.838 E0.01431
G1 X104.049 Y103.279 E0.01707
G1 X103.684 Y103.684 E0.01710
G1 X103.279 Y104.049 E0.01710
G1 X102.838 Y104.369 E0.01707
G1 X102.445 Y104.601 E0.01431
G1 X101.952 Y104.831 E0.01707
G1 X101.437 Y105.008 E0.01707
G1 X100.994 Y105.114 E0.01428
G1 X100.544 Y105.182 E0.01428
G1 X100.000 Y105.210 E0.01707
G1 X99.457 Y105.182 E0.01704
G1 X99.006 Y105.114 E0.01431
G1 X98.563 Y105.008 E0.01428
G1 X98.048 Y104.831 E0.01707
G1 X97.556 Y104.601 E0.01704
G1 X97.162 Y104.369 E0.01434
G1 X96.721 Y104.049 E0.01707
G1 X96.316 Y103.684 E0.01710
G1 X95.951 Y103.279 E0.01710
G1 X95.631 Y102.838 E0.01707
G1 X95.399 Y102.444 E0.01434
G1 X95.169 Y101.952 E0.01704
G1 X94.992 Y101.437 E0.01707
G1 X94.886 Y100.994 E0.01428
G1 X94.818 Y100.543 E0.01431
G1 X94.790 Y100.000 E0.01704
G1 X94.818 Y99.456 E0.01707
G1 X94.886 Y99.005 E0.01431
G1 X95.017 Y98.478 E0.01704
G1 X95.170 Y98.047 E0.01434
G1 X95.400 Y97.554 E0.01704
G1 X95.680 Y97.086 E0.01710
G1 X96.008 Y96.652 E0.01707
G1 X96.316 Y96.316 E0.01428
G1 X96.652 Y96.008 E0.01428
G1 X97.086 Y95.680 E0.01707
G1 X97.552 Y95.400 E0.01704
G1 X97.965 Y95.204 E0.01434
G1 X98.475 Y95.018 E0.01701
G1 X98.918 Y94.903 E0.01434
G1 X99.455 Y94.818 E0.01707
G1 X99.998 Y94.790 E0.01704
G1 X100.455 Y94.810 E0.01434
G1 X100.993 Y94.885 E0.01704
G1 X101.437 Y94.992 E0.01431
G1 X101.952 Y95.169 E0.01707
G1 X102.444 Y95.399 E0.01704
G1 X102.838 Y95.631 E0.01434
G1 X103.279 Y95.951 E0.01707
G1 X103.684 Y96.316 E0.01710
G1 X104.049 Y96.721 E0.01710
G1 X104.369 Y97.162 E0.01707
G1 X104.601 Y97.556 E0.01434
G1 X104.831 Y98.048 E0.01704
G1 X105.008 Y98.563 E0.01707
G1 X105.114 Y99.006 E0.01428
G1 X105.182 Y99.457 E0.01431
G1 X105.210 Y100.000 E0.01704
G1 X105.182 Y100.544 E0.01707
G1 X105.114 Y100.994 E0.01428
G1 X105.008 Y101.437 E0.01428
G1 X104.864 Y101.857 E0.01393
G1 X105.091 Y102.228 F10800.000
G1 F8640
G1 X104.601 Y102.445 E-0.14876
G1 X104.369 Y102.838 E-0.10538
G1 X104.049 Y103.279 E-0.12571
G1 X103.684 Y103.684 E-0.12593
G1 X103.279 Y104.049 E-0.12593
G1 X102.838 Y104.369 E-0.12571
G1 X102.829 Y104.375 E-0.00258
G1 E-0.04000 F2100.00000
G1 Z0.800 F10800.000
G1 X105.998 Y102.248
G1 Z0.200
G1 E0.80000 F2100.00000
G1 F1200
G1 X105.945 Y102.402 E0.00512
G1 X105.662 Y103.010 E0.02104
G1 X105.315 Y103.588 E0.02112
G1 X104.985 Y104.033 E0.01738
G1 X104.534 Y104.534 E0.02112
G1 X104.033 Y104.985 E0.02112
G1 X103.588 Y105.315 E0.01738
G1 X103.010 Y105.662 E0.02112
G1 X102.402 Y105.945 E0.02104
G1 X101.765 Y106.165 E0.02112
G1 X101.226 Y106.294 E0.01738
G1 X100.556 Y106.388 E0.02121
G1 X100.000 Y106.412 E0.01746
G1 X99.443 Y106.388 E0.01750
G1 X98.774 Y106.294 E0.02117
G1 X98.235 Y106.165 E0.01738
G1 X97.598 Y105.945 E0.02112
G1 X96.990 Y105.662 E0.02104
G1 X96.412 Y105.315 E0.02112
G1 X95.966 Y104.984 E0.01742
G1 X95.466 Y104.534 E0.02109
G1 X95.016 Y104.034 E0.02109
G1 X94.685 Y103.588 E0.01742
G1 X94.338 Y103.010 E0.02112
G1 X94.054 Y102.401 E0.02109
G1 X93.869 Y101.877 E0.01742
G1 X93.706 Y101.223 E0.02112
G1 X93.612 Y100.557 E0.02109
G1 X93.588 Y100.000 E0.01750
G1 X93.612 Y99.444 E0.01746
G1 X93.706 Y98.774 E0.02121
G1 X93.835 Y98.235 E0.01738
G1 X94.055 Y97.598 E0.02112
G1 X94.338 Y96.990 E0.02104
G1 X94.685 Y96.412 E0.02112
G1 X95.015 Y95.967 E0.01738
G1 X95.466 Y95.466 E0.02112
G1 X95.967 Y95.015 E0.02112
G1 X96.412 Y94.685 E0.01738
G1 X96.990 Y94.338 E0.02112
G1 X97.598 Y94.055 E0.02104
G1 X98.235 Y93.835 E0.02112
G1 X98.774 Y93.706 E0.01738
G1 X99.444 Y93.612 E0.02120
G1 X99.999 Y93.588 E0.01742
G1 X100.670 Y93.623 E0.02109
G1 X101.333 Y93.728 E0.02104
G1 X101.984 Y93.902 E0.02112
G1 X102.503 Y94.096 E0.01738
G1 X103.111 Y94.393 E0.02121
G1 X103.586 Y94.684 E0.01746
G1 X104.034 Y95.016 E0.01750
G1 X104.534 Y95.466 E0.02109
G1 X104.984 Y95.966 E0.02109
G1 X105.315 Y96.412 E0.01742
G1 X105.662 Y96.990 E0.02112
G1 X105.945 Y97.598 E0.02104
G1 X106.165 Y98.235 E0.02112
G1 X106.294 Y98.774 E0.01738
G1 X106.388 Y99.443 E0.02117
G1 X106.412 Y100.000 E0.01750
G1 X106.388 Y100.556 E0.01746
G1 X106.294 Y101.226 E0.02121
G1 X106.165 Y101.765 E0.01738
G1 X106.018 Y102.191 E0.01413
G1 X106.295 Y102.543 F10800.000
G1 F1200
G1 X105.995 Y103.188 E0.02228
G1 X105.628 Y103.798 E0.02231
G1 X105.277 Y104.272 E0.01851
G1 X104.801 Y104.801 E0.02231
G1 X104.272 Y105.277 E0.02231
G1 X103.798 Y105.628 E0.01851
G1 X103.188 Y105.995 E0.02231
G1 X102.543 Y106.295 E0.02228
G1 X101.871 Y106.527 E0.02231
G1 X101.296 Y106.665 E0.01851
G1 X100.591 Y106.764 E0.02234
G1 X100.000 Y106.790 E0.01854
G1 X99.408 Y106.764 E0.01858
G1 X98.704 Y106.665 E0.02230
G1 X98.129 Y106.527 E0.01851
G1 X97.457 Y106.295 E0.02231
G1 X96.812 Y105.995 E0.02228
G1 X96.202 Y105.628 E0.02231
G1 X95.727 Y105.276 E0.01855
G1 X95.199 Y104.801 E0.02227
G1 X94.724 Y104.273 E0.02227
G1 X94.372 Y103.798 E0.01855
G1 X94.005 Y103.188 E0.02231
G1 X93.705 Y102.544 E0.02227
G1 X93.507 Y101.986 E0.01855
G1 X93.335 Y101.296 E0.02231
G1 X93.236 Y100.592 E0.02227
G1 X93.210 Y100.000 E0.01858
G1 X93.236 Y99.409 E0.01854
G1 X93.335 Y98.704 E0.02234
G1 X93.473 Y98.129 E0.01851
G1 X93.705 Y97.457 E0.02231
G1 X94.005 Y96.812 E0.02228
G1 X94.372 Y96.202 E0.02231
G1 X94.723 Y95.728 E0.01851
G1 X95.199 Y95.199 E0.02231
G1 X95.728 Y94.723 E0.02231
G1 X96.202 Y94.372 E0.01851
G1 X96.812 Y94.005 E0.02231
G1 X97.457 Y93.705 E0.02228
G1 X98.129 Y93.473 E0.02231
G1 X98.704 Y93.335 E0.01851
G1 X99.409 Y93.236 E0.02234
G1 X100.000 Y93.210 E0.01855
G1 X100.710 Y93.247 E0.02227
G1 X101.412 Y93.359 E0.02228
G1 X102.099 Y93.543 E0.02231
G1 X102.652 Y93.750 E0.01851
G1 X103.293 Y94.062 E0.02234
G1 X103.797 Y94.371 E0.01854
G1 X104.273 Y94.724 E0.01858
G1 X104.801 Y95.199 E0.02227
G1 X105.276 Y95.727 E0.02227
G1 X105.628 Y96.202 E0.01855
G1 X105.995 Y96.812 E0.02231
G1 X106.295 Y97.457 E0.02228
G1 X106.527 Y98.129 E0.02231
G1 X106.665 Y98.704 E0.01851
G1 X106.764 Y99.408 E0.02230
G1 X106.790 Y100.000 E0.01858
G1 X106.764 Y100.591 E0.01854
G1 X106.665 Y101.296 E0.02234
G1 X106.527 Y101.871 E0.01851
G1 X106.315 Y102.487 E0.02043
G1 X105.899 Y102.598 F10800.000
G1 F8640
G1 X105.995 Y103.188 E-0.17788
G1 X105.628 Y103.798 E-0.16431
G1 X105.277 Y104.272 E-0.13635
G1 X104.801 Y104.801 E-0.16431
G1 X104.424 Y105.141 E-0.11714
G1 E-0.04000 F2100.00000
G1 Z0.800 F10800.000
G1 X106.122 Y98.541
G1 Z0.200
G1 E0.80000 F2100.00000
G1 F1200
G1 X105.476 Y97.895 E0.02906
G1 X105.642 Y98.378 E0.01626
G1 X105.713 Y98.674 E0.00969
G1 X106.040 Y99.001 E0.01472
G1 X106.112 Y99.615 E0.01967
G1 X105.830 Y99.333 E0.01270
G1 X105.866 Y99.910 E0.01842
G1 X106.122 Y100.166 E0.01151
G1 X106.106 Y100.530 E0.01162
G1 X106.086 Y100.671 E0.00453
G1 X105.848 Y100.433 E0.01072
G1 X105.793 Y100.919 E0.01557
G1 X106.020 Y101.146 E0.01021
G1 X106.016 Y101.173 E0.00087
G1 X105.917 Y101.585 E0.01348
G1 X105.703 Y101.371 E0.00965
G1 X105.583 Y101.793 E0.01397
G1 X105.786 Y101.996 E0.00912
G1 X105.639 Y102.390 E0.01340
G1 X105.445 Y102.196 E0.00874
G1 X105.273 Y102.565 E0.01298
G1 X105.467 Y102.759 E0.00873
G1 X105.273 Y103.107 E0.01268
G1 X105.087 Y102.921 E0.00841
G1 X104.881 Y103.257 E0.01254
G1 X105.069 Y103.444 E0.00846
G1 X104.839 Y103.756 E0.01233
G1 X104.653 Y103.570 E0.00835
G1 X104.408 Y103.867 E0.01224
G1 X104.590 Y104.049 E0.00821
G1 X104.334 Y104.334 E0.01221
G1 X104.151 Y104.151 E0.00821
G1 X103.866 Y104.408 E0.01221
G1 X104.049 Y104.590 E0.00821
G1 X103.854 Y104.766 E0.00834
G1 X103.756 Y104.839 E0.00391
G1 X103.570 Y104.653 E0.00835
G1 X103.257 Y104.881 E0.01234
G1 X103.444 Y105.069 E0.00846
G1 X103.431 Y105.079 E0.00055
G1 X103.107 Y105.273 E0.01200
G1 X102.921 Y105.087 E0.00841
G1 X102.565 Y105.273 E0.01277
G1 X102.759 Y105.467 E0.00873
G1 X102.390 Y105.639 E0.01297
G1 X102.196 Y105.445 E0.00874
G1 X101.793 Y105.583 E0.01356
G1 X101.996 Y105.786 E0.00912
G1 X101.686 Y105.893 E0.01043
G1 X101.585 Y105.917 E0.00330
G1 X101.371 Y105.703 E0.00965
G1 X100.919 Y105.793 E0.01465
G1 X101.146 Y106.020 E0.01021
G1 X100.671 Y106.086 E0.01526
G1 X100.433 Y105.848 E0.01072
G1 X99.910 Y105.866 E0.01668
G1 X100.166 Y106.122 E0.01151
G1 X99.614 Y106.112 E0.01755
G1 X99.332 Y105.830 E0.01270
G1 X98.880 Y105.763 E0.01457
G1 X98.674 Y105.713 E0.00674
G1 X99.001 Y106.040 E0.01472
G1 X98.827 Y106.016 E0.00559
G1 X98.311 Y105.891 E0.01691
G1 X97.566 Y105.147 E0.03352
G1 X97.758 Y105.881 F10800.000
G1 F1200
G1 X94.117 Y102.239 E0.16396
G1 X94.853 Y102.434 F10800.000
G1 F1200
G1 X94.115 Y101.696 E0.03324
G1 X93.984 Y101.169 E0.01727
G1 X93.960 Y100.999 E0.00547
G1 X94.287 Y101.326 E0.01472
G1 X94.237 Y101.120 E0.00674
G1 X94.170 Y100.668 E0.01457
G1 X93.888 Y100.386 E0.01270
G1 X93.871 Y100.000 E0.01229
G1 X93.878 Y99.834 E0.00528
G1 X94.134 Y100.090 E0.01151
G1 X94.152 Y99.567 E0.01668
G1 X93.914 Y99.329 E0.01072
G1 X93.980 Y98.854 E0.01526
G1 X94.207 Y99.081 E0.01021
G1 X94.299 Y98.631 E0.01461
G1 X94.083 Y98.415 E0.00972
G1 X94.214 Y98.004 E0.01372
G1 X94.414 Y98.204 E0.00900
G1 X94.556 Y97.805 E0.01351
G1 X94.361 Y97.610 E0.00875
G1 X94.533 Y97.241 E0.01297
G1 X94.727 Y97.435 E0.00872
G1 X94.914 Y97.080 E0.01276
G1 X94.727 Y96.893 E0.00845
G1 X94.931 Y96.556 E0.01255
G1 X95.118 Y96.742 E0.00840
G1 X95.348 Y96.431 E0.01232
G1 X95.161 Y96.244 E0.00841
G1 X95.410 Y95.951 E0.01223
G1 X95.590 Y96.131 E0.00812
G1 X95.849 Y95.849 E0.01220
G1 X95.666 Y95.666 E0.00822
G1 X95.951 Y95.410 E0.01221
G1 X96.131 Y95.590 E0.00812
G1 X96.431 Y95.348 E0.01226
G1 X96.244 Y95.161 E0.00841
G1 X96.556 Y94.931 E0.01233
G1 X96.742 Y95.118 E0.00840
G1 X97.080 Y94.914 E0.01256
G1 X96.893 Y94.727 E0.00845
G1 X97.123 Y94.588 E0.00854
G1 X97.241 Y94.533 E0.00415
G1 X97.433 Y94.726 E0.00868
G1 X97.808 Y94.559 E0.01305
G1 X97.610 Y94.361 E0.00889
G1 X97.704 Y94.317 E0.00330
G1 X98.004 Y94.214 E0.01011
G1 X98.205 Y94.414 E0.00901
G1 X98.629 Y94.297 E0.01401
G1 X98.415 Y94.083 E0.00962
G1 X98.854 Y93.980 E0.01435
G1 X99.083 Y94.209 E0.01030
G1 X99.567 Y94.152 E0.01552
G1 X99.329 Y93.914 E0.01071
G1 X99.834 Y93.878 E0.01614
G1 X100.090 Y94.133 E0.01149
G1 X100.672 Y94.174 E0.01857
G1 X100.389 Y93.891 E0.01271
G1 X100.641 Y93.905 E0.00801
G1 X101.001 Y93.962 E0.01162
G1 X101.326 Y94.287 E0.01463
G1 X101.622 Y94.358 E0.00969
G1 X102.105 Y94.524 E0.01626
G1 X101.700 Y94.119 E0.01823
G1 X101.898 Y94.172 E0.00652
G1 X102.391 Y94.357 E0.01678
G1 X102.562 Y94.440 E0.00606
G1 X105.881 Y97.759 E0.14942
G1 F8640
G1 X103.553 Y95.431 E-0.76000
G1 E-0.04000 F2100.00000
G1 Z0.800 F10800.000
G1 X105.343 Y96.679
G1 Z0.200
G1 E0.80000 F2100.00000
G1 F1200
G1 X103.314 Y94.650 E0.09138
G1 F8640
G1 X105.343 Y96.679 E-0.66271
G1 E-0.13729 F2100.00000
G1 Z0.800 F10800.000
G1 X94.657 Y103.321
G1 Z0.200
G1 E0.80000 F2100.00000
G1 F1200
G1 X96.679 Y105.343 E0.09104
G1 F8640
G1 X94.657 Y103.321 E-0.66024
G1 E-0.13976 F2100.00000
G1 Z0.800 F10800.000
G1 X116.151 Y100.390
G1 Z0.200
G1 E0.80000 F2100.00000
G1 F1200
G1 X116.110 Y100.000 E0.01231
G1 X116.151 Y99.610 E0.01231
G1 X116.260 Y99.262 E0.01144
G1 X116.433 Y98.943 E0.01136
G1 X116.664 Y98.664 E0.01136
G1 X116.943 Y98.433 E0.01136
G1 X117.262 Y98.260 E0.01136
G1 X117.609 Y98.151 E0.01144
G1 X117.996 Y98.110 E0.01219
G1 X118.360 Y98.145 E0.01148
G1 X118.710 Y98.249 E0.01144
G1 X119.055 Y98.432 E0.01223
G1 X119.336 Y98.664 E0.01144
G1 X119.567 Y98.943 E0.01136
G1 X119.740 Y99.262 E0.01136
G1 X119.849 Y99.610 E0.01144
G1 X119.890 Y100.000 E0.01231
G1 X119.849 Y100.390 E0.01231
G1 X119.740 Y100.738 E0.01144
G1 X119.567 Y101.057 E0.01136
G1 X119.336 Y101.336 E0.01136
G1 X119.057 Y101.567 E0.01136
