; generated by PrusaSlicer 2.1.1 on 2020-10-31 at 16:50:38 UTC

; 

; external perimeters extrusion width = 0.45mm
; perimeters extrusion width = 0.45mm
; infill extrusion width = 0.45mm
; solid infill extrusion width = 0.45mm
; top infill extrusion width = 0.40mm
; first layer extrusion width = 0.42mm

M73 P0 R28
M73 Q0 S29
M201 X1000 Y1000 Z200 E5000 ; sets maximum accelerations, mm/sec^2
M203 X200 Y200 Z12 E120 ; sets maximum feedrates, mm/sec
M204 P1250 R1250 T1250 ; sets acceleration (P, T) and retract acceleration (R), mm/sec^2
M205 X8.00 Y8.00 Z0.40 E4.50 ; sets the jerk limits, mm/sec
M205 S0 T0 ; sets the minimum extruding and travel feed rate, mm/sec
M107
M862.3 P "MK3S" ; printer model check
M862.1 P0.4 ; nozzle diameter check
M115 U3.9.1 ; tell printer latest fw version
G90 ; use absolute coordinates
M83 ; extruder relative mode
M104 S215 ; set extruder temp
M140 S60 ; set bed temp
M190 S60 ; wait for bed temp
M109 S215 ; wait for extruder temp
G28 W ; home all without mesh bed level
G80 ; mesh bed leveling
G1 Y-3.0 F1000.0 ; go outside print area
G92 E0.0
G1 X60.0 E9.0 F1000.0 ; intro line
M73 Q0 S28
M73 P0 R28
G1 X100.0 E12.5 F1000.0 ; intro line
G92 E0.0
M221 S95
G21 ; set units to millimeters
G90 ; use absolute coordinates
M83 ; use relative distances for extrusion
M900 K0.05 ; Filament gcode LA 1.5
M900 K30 ; Filament gcode LA 1.0
;BEFORE_LAYER_CHANGE
G92 E0.0
;0.2


G1 E-0.80000 F2100.00000
G1 Z0.600 F10800.000
;AFTER_LAYER_CHANGE
;0.2
G1 X118.061 Y98.418
G1 Z0.200
G1 E0.80000 F2100.00000
M204 S1000
G1 F1200
G1 X119.175 Y97.414 E0.04703
G1 X120.833 Y96.390 E0.06109
G1 X122.683 Y95.719 E0.06171
G1 X124.616 Y95.442 E0.06122
G1 X145.615 Y95.048 E0.65851
G1 X147.029 Y95.189 E0.04456
G1 X148.407 Y95.541 E0.04460
G1 X150.092 Y96.293 E0.05785
G1 X151.315 Y97.119 E0.04629
G1 X152.641 Y98.399 E0.05776
G1 X153.477 Y99.539 E0.04434
G1 X154.318 Y101.240 E0.05948
G1 X154.721 Y102.610 E0.04479
G1 X154.913 Y104.026 E0.04479
G1 X154.841 Y105.926 E0.05963
G1 X154.542 Y107.308 E0.04434
G1 X153.853 Y109.020 E0.05786
G1 X153.107 Y110.230 E0.04457
G1 X152.191 Y111.311 E0.04444
G1 X150.776 Y112.497 E0.05788
G1 X149.534 Y113.219 E0.04506
G1 X147.683 Y113.890 E0.06171
G1 X145.739 Y114.167 E0.06159
G1 X125.286 Y114.561 E0.64141
G1 X123.940 Y114.506 E0.04224
G1 X122.688 Y114.282 E0.03986
G1 X121.482 Y113.894 E0.03974
G1 X120.292 Y113.326 E0.04134
G1 X119.578 Y112.879 E0.02642
G1 X118.592 Y112.102 E0.03934
G1 X117.672 Y111.148 E0.04157
G1 X116.895 Y110.080 E0.04141
G1 X116.287 Y108.947 E0.04032
G1 X115.663 Y107.072 E0.06196
G1 X115.454 Y105.593 E0.04682
G1 X115.528 Y103.666 E0.06048
G1 X116.009 Y101.735 E0.06239
G1 X116.879 Y99.946 E0.06240
G1 X118.024 Y98.465 E0.05868
G1 F8640
G1 X119.175 Y97.414 E-0.36002
G1 X120.649 Y96.503 E-0.39998
G1 E-0.04000 F2100.00000
G1 Z0.800 F10800.000
G1 X117.201 Y100.142
G1 Z0.200
G1 E0.80000 F2100.00000
G1 F1200
G1 X118.343 Y98.668 E0.05849
G1 X119.402 Y97.715 E0.04465
G1 X121.015 Y96.721 E0.05943
G1 X122.777 Y96.084 E0.05875
G1 X124.639 Y95.819 E0.05897
G1 X145.615 Y95.425 E0.65777
G1 X146.963 Y95.560 E0.04248
G1 X148.278 Y95.895 E0.04256
G1 X149.910 Y96.623 E0.05603
G1 X151.075 Y97.410 E0.04408
G1 X152.357 Y98.648 E0.05588
G1 X153.163 Y99.747 E0.04272
G1 X153.974 Y101.395 E0.05761
G1 X154.353 Y102.692 E0.04235
G1 X154.537 Y104.041 E0.04270
G1 X154.467 Y105.877 E0.05762
G1 X154.180 Y107.205 E0.04259
G1 X153.514 Y108.854 E0.05576
G1 X152.800 Y110.010 E0.04261
G1 X151.924 Y111.044 E0.04248
G1 X150.555 Y112.192 E0.05601
G1 X149.351 Y112.888 E0.04362
G1 X147.589 Y113.525 E0.05875
G1 X145.720 Y113.791 E0.05920
G1 X125.279 Y114.184 E0.64103
G1 X123.996 Y114.133 E0.04027
G1 X122.773 Y113.915 E0.03893
G1 X121.561 Y113.521 E0.03997
G1 X120.412 Y112.961 E0.04008
G1 X119.401 Y112.285 E0.03813
G1 X118.796 Y111.776 E0.02478
G1 X117.923 Y110.859 E0.03972
G1 X117.209 Y109.871 E0.03820
G1 X116.616 Y108.760 E0.03948
G1 X116.028 Y106.978 E0.05886
G1 X115.830 Y105.571 E0.04454
G1 X115.901 Y103.720 E0.05808
G1 X116.365 Y101.858 E0.06016
G1 X117.174 Y100.196 E0.05796
G1 F8640
G1 X118.343 Y98.668 E-0.44430
G1 X119.359 Y97.753 E-0.31570
G1 E-0.04000 F2100.00000
G1 Z0.800 F10800.000
G1 X143.518 Y104.216
G1 Z0.200
G1 E0.80000 F2100.00000
G1 F1200
G1 X143.640 Y103.840 E0.01239
G1 X143.832 Y103.507 E0.01207
G1 X144.015 Y103.289 E0.00891
G1 X144.310 Y103.042 E0.01207
G1 X144.658 Y102.856 E0.01239
G1 X145.028 Y102.750 E0.01207
G1 X145.311 Y102.721 E0.00891
G1 X145.695 Y102.748 E0.01207
G1 X146.075 Y102.856 E0.01239
G1 X146.424 Y103.042 E0.01239
G1 X146.719 Y103.290 E0.01209
G1 X146.904 Y103.512 E0.00906
G1 X147.094 Y103.841 E0.01190
G1 X147.216 Y104.216 E0.01238
G1 X147.257 Y104.609 E0.01239
G1 X147.216 Y105.002 E0.01239
G1 X147.093 Y105.378 E0.01239
G1 X146.901 Y105.711 E0.01207
G1 X146.718 Y105.929 E0.00891
G1 X146.424 Y106.176 E0.01207
G1 X146.075 Y106.362 E0.01239
G1 X145.705 Y106.468 E0.01207
G1 X145.422 Y106.498 E0.00891
G1 X145.038 Y106.471 E0.01207
G1 X144.658 Y106.362 E0.01239
G1 X144.310 Y106.176 E0.01239
G1 X144.014 Y105.928 E0.01209
G1 X143.829 Y105.707 E0.00906
G1 X143.640 Y105.378 E0.01190
G1 X143.518 Y105.002 E0.01238
G1 X143.476 Y104.609 E0.01239
G1 X143.511 Y104.276 E0.01051
G1 X143.886 Y104.315 F10800.000
G1 F1200
G1 X143.986 Y103.994 E0.01053
G1 X144.142 Y103.724 E0.00979
G1 X144.282 Y103.557 E0.00684
G1 X144.522 Y103.356 E0.00979
G1 X144.800 Y103.208 E0.00991
G1 X145.101 Y103.122 E0.00979
G1 X145.318 Y103.099 E0.00684
G1 X145.629 Y103.121 E0.00979
G1 X145.933 Y103.208 E0.00991
G1 X146.212 Y103.356 E0.00991
G1 X146.451 Y103.557 E0.00980
G1 X146.594 Y103.728 E0.00698
G1 X146.747 Y103.995 E0.00964
G1 X146.845 Y104.295 E0.00990
G1 X146.878 Y104.609 E0.00991
G1 X146.845 Y104.923 E0.00991
G1 X146.747 Y105.224 E0.00991
G1 X146.591 Y105.494 E0.00979
G1 X146.451 Y105.661 E0.00684
G1 X146.212 Y105.862 E0.00979
G1 X145.933 Y106.010 E0.00991
G1 X145.633 Y106.096 E0.00979
G1 X145.416 Y106.119 E0.00684
G1 X145.104 Y106.097 E0.00979
G1 X144.800 Y106.010 E0.00991
G1 X144.522 Y105.862 E0.00991
G1 X144.282 Y105.661 E0.00980
G1 X144.139 Y105.490 E0.00698
G1 X143.986 Y105.224 E0.00964
G1 X143.888 Y104.923 E0.00990
G1 X143.855 Y104.609 E0.00991
G1 X143.880 Y104.375 E0.00739
G1 X143.635 Y104.093 F10800.000
G1 F8640
G1 X143.986 Y103.994 E-0.09118
G1 X144.142 Y103.724 E-0.07209
G1 X144.282 Y103.557 E-0.05036
G1 X144.522 Y103.356 E-0.07209
G1 X144.800 Y103.208 E-0.07295
G1 X145.101 Y103.122 E-0.07209
G1 X145.318 Y103.099 E-0.05036
G1 X145.629 Y103.121 E-0.07209
G1 X145.933 Y103.208 E-0.07295
G1 X146.212 Y103.356 E-0.07295
G1 X146.414 Y103.526 E-0.06089
G1 E-0.04000 F2100.00000
G1 Z0.800 F10800.000
G1 X139.051 Y103.523
G1 Z0.200
G1 E0.80000 F2100.00000
G1 F1200
G1 X139.202 Y102.842 E0.02190
G1 X139.341 Y102.416 E0.01403
G1 X139.508 Y102.001 E0.01403
G1 X139.705 Y101.599 E0.01403
G1 X139.926 Y101.214 E0.01391
G1 X140.179 Y100.840 E0.01416
G1 X140.454 Y100.487 E0.01403
G1 X140.754 Y100.155 E0.01403
G1 X141.076 Y99.844 E0.01403
G1 X141.419 Y99.556 E0.01403
G1 X141.781 Y99.293 E0.01403
G1 X142.160 Y99.056 E0.01403
G1 X142.555 Y98.846 E0.01403
G1 X142.964 Y98.663 E0.01403
G1 X143.385 Y98.510 E0.01403
G1 X143.815 Y98.387 E0.01403
G1 X144.253 Y98.294 E0.01403
G1 X144.696 Y98.232 E0.01403
G1 X145.143 Y98.200 E0.01403
G1 X145.594 Y98.201 E0.01416
G1 X146.037 Y98.232 E0.01391
G1 X146.480 Y98.294 E0.01403
G1 X146.918 Y98.387 E0.01403
G1 X147.352 Y98.512 E0.01416
G1 X147.769 Y98.663 E0.01391
G1 X148.178 Y98.846 E0.01403
G1 X148.573 Y99.056 E0.01403
G1 X148.952 Y99.293 E0.01403
G1 X149.315 Y99.556 E0.01403
G1 X149.657 Y99.844 E0.01403
G1 X149.979 Y100.155 E0.01403
G1 X150.279 Y100.487 E0.01403
G1 X150.554 Y100.840 E0.01403
G1 X150.805 Y101.211 E0.01403
G1 X151.029 Y101.599 E0.01403
G1 X151.223 Y101.997 E0.01391
G1 X151.392 Y102.416 E0.01416
G1 X151.531 Y102.842 E0.01403
G1 X151.639 Y103.276 E0.01403
G1 X151.717 Y103.717 E0.01403
G1 X151.764 Y104.162 E0.01403
G1 X151.779 Y104.609 E0.01403
G1 X151.764 Y105.056 E0.01403
G1 X151.717 Y105.502 E0.01403
G1 X151.639 Y105.942 E0.01403
G1 X151.531 Y106.377 E0.01403
G1 X151.392 Y106.802 E0.01403
G1 X151.225 Y107.217 E0.01403
G1 X151.029 Y107.620 E0.01403
G1 X150.807 Y108.004 E0.01391
G1 X150.554 Y108.378 E0.01416
G1 X150.279 Y108.731 E0.01403
G1 X149.979 Y109.064 E0.01403
G1 X149.657 Y109.375 E0.01403
G1 X149.315 Y109.662 E0.01403
G1 X148.952 Y109.925 E0.01403
G1 X148.573 Y110.163 E0.01403
G1 X148.178 Y110.373 E0.01403
G1 X147.765 Y110.556 E0.01416
G1 X147.348 Y110.708 E0.01391
G1 X146.918 Y110.831 E0.01403
G1 X146.480 Y110.924 E0.01403
G1 X146.037 Y110.987 E0.01403
G1 X145.590 Y111.018 E0.01403
G1 X145.143 Y111.018 E0.01403
G1 X144.696 Y110.987 E0.01403
G1 X144.253 Y110.924 E0.01403
G1 X143.815 Y110.831 E0.01403
G1 X143.385 Y110.708 E0.01403
G1 X142.961 Y110.553 E0.01416
G1 X142.555 Y110.373 E0.01391
G1 X142.160 Y110.163 E0.01403
G1 X141.781 Y109.925 E0.01403
G1 X141.416 Y109.660 E0.01416
G1 X141.076 Y109.375 E0.01391
G1 X140.754 Y109.064 E0.01403
G1 X140.454 Y108.731 E0.01403
G1 X140.179 Y108.378 E0.01403
G1 X139.928 Y108.007 E0.01403
G1 X139.705 Y107.620 E0.01403
G1 X139.510 Y107.221 E0.01391
G1 X139.341 Y106.802 E0.01416
G1 X139.202 Y106.377 E0.01403
G1 X139.094 Y105.942 E0.01403
G1 X139.016 Y105.502 E0.01403
G1 X138.970 Y105.056 E0.01403
G1 X138.954 Y104.609 E0.01403
G1 X138.970 Y104.162 E0.01403
G1 X139.040 Y103.582 E0.01830
G1 X138.669 Y103.517 F10800.000
G1 F1200
G1 X138.725 Y103.197 E0.01017
G1 X138.840 Y102.738 E0.01486
G1 X138.986 Y102.287 E0.01486
G1 X139.164 Y101.847 E0.01486
G1 X139.371 Y101.421 E0.01486
G1 X139.606 Y101.015 E0.01473
G1 X139.873 Y100.618 E0.01499
G1 X140.165 Y100.245 E0.01486
G1 X140.482 Y99.892 E0.01486
G1 X140.823 Y99.563 E0.01486
G1 X141.186 Y99.259 E0.01486
G1 X141.570 Y98.980 E0.01486
G1 X141.972 Y98.729 E0.01486
G1 X142.390 Y98.506 E0.01486
G1 X142.823 Y98.314 E0.01486
G1 X143.268 Y98.152 E0.01486
G1 X143.724 Y98.021 E0.01486
G1 X144.188 Y97.922 E0.01486
G1 X144.657 Y97.856 E0.01486
G1 X145.130 Y97.823 E0.01486
G1 X145.608 Y97.824 E0.01499
G1 X146.076 Y97.856 E0.01473
G1 X146.546 Y97.922 E0.01486
G1 X147.009 Y98.021 E0.01486
G1 X147.469 Y98.153 E0.01499
G1 X147.910 Y98.314 E0.01473
G1 X148.343 Y98.506 E0.01486
G1 X148.762 Y98.729 E0.01486
G1 X149.163 Y98.980 E0.01486
G1 X149.547 Y99.259 E0.01486
G1 X149.910 Y99.563 E0.01486
G1 X150.251 Y99.892 E0.01486
G1 X150.568 Y100.245 E0.01486
G1 X150.860 Y100.618 E0.01486
G1 X151.125 Y101.011 E0.01486
G1 X151.362 Y101.421 E0.01486
G1 X151.568 Y101.844 E0.01473
G1 X151.747 Y102.287 E0.01499
G1 X151.893 Y102.738 E0.01486
G1 X152.008 Y103.197 E0.01486
G1 X152.090 Y103.664 E0.01486
G1 X152.140 Y104.135 E0.01486
G1 X152.156 Y104.609 E0.01486
G1 X152.140 Y105.083 E0.01486
G1 X152.090 Y105.554 E0.01486
G1 X152.008 Y106.021 E0.01486
G1 X151.893 Y106.481 E0.01486
G1 X151.747 Y106.931 E0.01486
G1 X151.569 Y107.371 E0.01486
G1 X151.362 Y107.797 E0.01486
G1 X151.127 Y108.204 E0.01473
G1 X150.860 Y108.600 E0.01499
G1 X150.568 Y108.974 E0.01486
G1 X150.251 Y109.326 E0.01486
G1 X149.910 Y109.655 E0.01486
G1 X149.547 Y109.960 E0.01486
G1 X149.163 Y110.238 E0.01486
G1 X148.762 Y110.489 E0.01486
G1 X148.343 Y110.712 E0.01486
G1 X147.906 Y110.906 E0.01499
G1 X147.465 Y111.067 E0.01473
G1 X147.009 Y111.197 E0.01486
G1 X146.546 Y111.296 E0.01486
G1 X146.076 Y111.362 E0.01486
G1 X145.604 Y111.395 E0.01486
G1 X145.130 Y111.395 E0.01486
G1 X144.657 Y111.362 E0.01486
G1 X144.188 Y111.296 E0.01486
G1 X143.724 Y111.197 E0.01486
G1 X143.268 Y111.067 E0.01486
G1 X142.819 Y110.903 E0.01499
G1 X142.390 Y110.712 E0.01473
G1 X141.972 Y110.489 E0.01486
G1 X141.570 Y110.238 E0.01486
G1 X141.183 Y109.957 E0.01499
G1 X140.823 Y109.655 E0.01473
G1 X140.482 Y109.326 E0.01486
G1 X140.165 Y108.974 E0.01486
G1 X139.873 Y108.600 E0.01486
G1 X139.608 Y108.207 E0.01486
G1 X139.371 Y107.797 E0.01486
G1 X139.165 Y107.374 E0.01473
G1 X138.986 Y106.931 E0.01499
G1 X138.840 Y106.481 E0.01486
G1 X138.725 Y106.021 E0.01486
G1 X138.643 Y105.554 E0.01486
G1 X138.593 Y105.083 E0.01486
G1 X138.577 Y104.609 E0.01486
G1 X138.593 Y104.135 E0.01486
G1 X138.658 Y103.576 E0.01766
G1 X138.970 Y103.397 F10800.000
G1 F8640
G1 X138.725 Y103.197 E-0.08874
G1 X138.840 Y102.738 E-0.10943
G1 X138.986 Y102.287 E-0.10943
G1 X139.164 Y101.847 E-0.10943
G1 X139.371 Y101.421 E-0.10943
G1 X139.606 Y101.015 E-0.10850
G1 X139.873 Y100.618 E-0.11037
G1 X139.913 Y100.568 E-0.01466
G1 E-0.04000 F2100.00000
G1 Z0.800 F10800.000
G1 X140.001 Y107.907
G1 Z0.200
G1 E0.80000 F2100.00000
G1 F1200
G1 X142.062 Y109.968 E0.09277
G1 F8640
G1 X140.001 Y107.907 E-0.67289
G1 E-0.12711 F2100.00000
G1 Z0.800 F10800.000
G1 X143.130 Y110.494
G1 Z0.200
G1 E0.80000 F2100.00000
G1 F1200
G1 X139.795 Y107.159 E0.15017
G1 X139.607 Y106.705 E0.01563
G1 X139.474 Y106.297 E0.01367
G1 X143.673 Y110.496 E0.18907
G1 X144.374 Y110.656 E0.02288
G1 X139.321 Y105.603 E0.22749
G1 X139.250 Y104.990 E0.01963
G1 X144.983 Y110.723 E0.25810
G1 X145.536 Y110.735 E0.01762
G1 X139.243 Y104.441 E0.28335
G1 X139.278 Y103.935 E0.01616
G1 X146.043 Y110.700 E0.30458
G1 X146.513 Y110.628 E0.01512
G1 X139.348 Y103.464 E0.32256
G1 X139.449 Y103.023 E0.01440
G1 X146.953 Y110.527 E0.33785
G1 X147.367 Y110.400 E0.01380
G1 X139.576 Y102.608 E0.35080
G1 X139.726 Y102.217 E0.01334
G1 X147.887 Y110.378 E0.36742
G1 F8640
G1 X145.559 Y108.051 E-0.76000
G1 E-0.04000 F2100.00000
G1 Z0.800 F10800.000
G1 X144.725 Y106.675
G1 Z0.200
G1 E0.80000 F2100.00000
G1 F1200
G1 X148.129 Y110.078 E0.15323
G1 X148.479 Y109.888 E0.01271
G1 X145.369 Y106.777 E0.14003
G1 X145.759 Y106.747 E0.01246
G1 X145.853 Y106.720 E0.00310
G1 X148.811 Y109.678 E0.13321
G1 X149.125 Y109.450 E0.01234
G1 X146.259 Y106.584 E0.12904
G1 X146.607 Y106.391 E0.01268
G1 X149.420 Y109.204 E0.12665
G1 X149.699 Y108.941 E0.01219
G1 X146.902 Y106.144 E0.12593
G1 X147.148 Y105.849 E0.01224
G1 X149.961 Y108.662 E0.12663
G1 X150.206 Y108.365 E0.01224
G1 X147.346 Y105.506 E0.12874
G1 X147.481 Y105.100 E0.01363
G1 X150.433 Y108.052 E0.13291
G1 X150.644 Y107.721 E0.01249
G1 X147.540 Y104.617 E0.13972
G1 X147.494 Y104.157 E0.01473
G1 X147.432 Y103.967 E0.00634
G1 X150.835 Y107.371 E0.15322
G1 X151.007 Y107.001 E0.01298
G1 X142.975 Y98.968 E0.36164
G1 X143.366 Y98.818 E0.01334
G1 X151.158 Y106.610 E0.35080
G1 X151.284 Y106.195 E0.01380
G1 X143.780 Y98.691 E0.33785
G1 X144.220 Y98.590 E0.01438
G1 X151.385 Y105.754 E0.32256
G1 X151.455 Y105.283 E0.01516
G1 X144.690 Y98.518 E0.30459
G1 X145.197 Y98.483 E0.01617
G1 X151.490 Y104.777 E0.28335
G1 X151.483 Y104.228 E0.01748
G1 X145.750 Y98.495 E0.25811
G1 X146.359 Y98.563 E0.01950
G1 X151.412 Y103.615 E0.22749
G1 X151.259 Y102.921 E0.02262
G1 X147.060 Y98.722 E0.18906
G1 X147.663 Y98.926 E0.02026
G1 X147.919 Y99.040 E0.00894
G1 X151.254 Y102.374 E0.15012
G1 F8640
G1 X148.926 Y100.047 E-0.76000
G1 E-0.04000 F2100.00000
G1 Z0.800 F10800.000
G1 X150.732 Y101.312
G1 Z0.200
G1 E0.80000 F2100.00000
G1 F1200
G1 X148.671 Y99.250 E0.09279
G1 F8640
G1 X150.732 Y101.312 E-0.67304
G1 E-0.12696 F2100.00000
G1 Z0.800 F10800.000
G1 X142.479 Y99.014
G1 Z0.200
G1 E0.80000 F2100.00000
G1 F1200
G1 X146.008 Y102.543 E0.15887
G1 X145.744 Y102.468 E0.00873
G1 X145.364 Y102.441 E0.01213
G1 X142.254 Y99.331 E0.14003
G1 X141.922 Y99.540 E0.01250
G1 X144.880 Y102.499 E0.13321
G1 X144.552 Y102.593 E0.01088
G1 X144.474 Y102.634 E0.00280
G1 X141.608 Y99.768 E0.12904
G1 X141.313 Y100.014 E0.01224
G1 X144.126 Y102.827 E0.12665
G1 X143.831 Y103.074 E0.01224
G1 X141.034 Y100.277 E0.12593
G1 X140.957 Y100.351 E0.00340
G1 X140.772 Y100.556 E0.00880
G1 X143.585 Y103.369 E0.12663
G1 X143.387 Y103.712 E0.01262
G1 X140.527 Y100.853 E0.12874
G1 X140.300 Y101.167 E0.01234
G1 X143.252 Y104.119 E0.13292
G1 X143.193 Y104.601 E0.01547
G1 X140.089 Y101.498 E0.13972
G1 X139.898 Y101.848 E0.01270
G1 X143.301 Y105.251 E0.15322
G1 F8640
G1 X140.974 Y102.924 E-0.76000
G1 E-0.04000 F2100.00000
G1 Z0.800 F10800.000
G1 X131.382 Y104.413
G1 Z0.200
G1 E0.80000 F2100.00000
G1 F1200
G1 X130.547 Y104.413 E0.02617
G1 X130.534 Y104.222 E0.00599
G1 X130.374 Y103.470 E0.02412
G1 X130.247 Y103.079 E0.01287
