; generated by PrusaSlicer 2.1.1 on 2020-11-15 at 08:28:47 UTC

; 

; external perimeters extrusion width = 0.45mm
; perimeters extrusion width = 0.45mm
; infill extrusion width = 0.45mm
; solid infill extrusion width = 0.45mm
; top infill extrusion width = 0.40mm
; first layer extrusion width = 0.42mm

M73 P0 R61
M73 Q0 S61
M201 X1000 Y1000 Z200 E5000 ; sets maximum accelerations, mm/sec^2
M203 X200 Y200 Z12 E120 ; sets maximum feedrates, mm/sec
M204 P1250 R1250 T1250 ; sets acceleration (P, T) and retract acceleration (R), mm/sec^2
M205 X8.00 Y8.00 Z0.40 E4.50 ; sets the jerk limits, mm/sec
M205 S0 T0 ; sets the minimum extruding and travel feed rate, mm/sec
M107
M862.3 P "MK3S" ; printer model check
M862.1 P0.4 ; nozzle diameter check
M115 U3.9.1 ; tell printer latest fw version
G90 ; use absolute coordinates
M83 ; extruder relative mode
M104 S215 ; set extruder temp
M140 S60 ; set bed temp
M190 S60 ; wait for bed temp
M109 S215 ; wait for extruder temp
G28 W ; home all without mesh bed level
G80 ; mesh bed leveling
G1 Y-3.0 F1000.0 ; go outside print area
G92 E0.0
G1 X60.0 E9.0 F1000.0 ; intro line
M73 Q0 S61
M73 P0 R61
G1 X100.0 E12.5 F1000.0 ; intro line
G92 E0.0
M221 S100
G21 ; set units to millimeters
G90 ; use absolute coordinates
M83 ; use relative distances for extrusion
M900 K0.05 ; Filament gcode LA 1.5
M900 K30 ; Filament gcode LA 1.0
;BEFORE_LAYER_CHANGE
G92 E0.0
;0.2


G1 E-0.80000 F2100.00000
G1 Z0.600 F10800.000
;AFTER_LAYER_CHANGE
;0.2
G1 X112.443 Y44.458
G1 Z0.200
G1 E0.80000 F2100.00000
M204 S500
G1 F1200
G1 X112.885 Y43.890 E0.02259
G1 X113.488 Y43.496 E0.02259
G1 X114.186 Y43.319 E0.02259
G1 X134.371 Y43.311 E0.63288
G1 X135.198 Y43.475 E0.02642
G1 X135.904 Y43.941 E0.02653
G1 X136.379 Y44.637 E0.02642
G1 X136.556 Y45.461 E0.02642
G1 X136.527 Y164.857 E3.74356
G1 X136.292 Y165.542 E0.02270
G1 X135.850 Y166.110 E0.02259
G1 X135.244 Y166.506 E0.02270
G1 X134.541 Y166.682 E0.02270
G1 X114.011 Y166.659 E0.64372
G1 X113.297 Y166.409 E0.02372
G1 X112.709 Y165.928 E0.02383
G1 X112.322 Y165.278 E0.02372
G1 X112.179 Y164.531 E0.02383
G1 X112.208 Y45.143 E3.74333
G1 X112.423 Y44.515 E0.02082
M204 S1000
G1 F8640
G1 X112.885 Y43.890 E-0.17949
G1 X113.488 Y43.496 E-0.16633
G1 X114.186 Y43.319 E-0.16633
G1 X115.260 Y43.319 E-0.24784
G1 E-0.04000 F2100.00000
G1 Z0.800 F10800.000
G1 X115.332 Y154.464
G1 Z0.200
G1 E0.80000 F2100.00000
M204 S500
G1 F1200
G1 X133.403 Y154.464 E0.56663
G1 X133.403 Y163.536 E0.28444
G1 X115.332 Y163.536 E0.56663
G1 X115.332 Y154.524 E0.28256
M204 S1000
G1 X114.955 Y154.087 F10800.000
M204 S500
G1 F1200
G1 X133.780 Y154.087 E0.59027
G1 X133.780 Y163.913 E0.30808
G1 X114.955 Y163.913 E0.59027
G1 X114.955 Y154.147 E0.30620
M204 S1000
G1 X114.578 Y153.710 F10800.000
M204 S500
G1 F1200
G1 X134.158 Y153.710 E0.61392
G1 X134.158 Y164.290 E0.33173
G1 X114.578 Y164.290 E0.61392
G1 X114.578 Y153.770 E0.32985
M204 S1000
G1 X114.972 Y153.776 F10800.000
G1 F8640
G1 X117.869 Y153.760 E-0.76000
G1 E-0.04000 F2100.00000
G1 Z0.800 F10800.000
G1 X116.210 Y163.423
G1 Z0.200
G1 E0.80000 F2100.00000
M204 S500
G1 F1200
G1 X115.614 Y162.827 E0.02651
G1 X115.614 Y162.292 E0.01685
G1 X116.576 Y163.253 E0.04279
G1 X117.111 Y163.253 E0.01685
G1 X115.614 Y161.757 E0.06662
G1 X115.614 Y161.221 E0.01685
G1 X117.646 Y163.253 E0.09044
G1 X118.182 Y163.253 E0.01685
G1 X115.614 Y160.686 E0.11427
G1 X115.614 Y160.151 E0.01685
G1 X118.717 Y163.253 E0.13810
G1 X119.252 Y163.253 E0.01685
G1 X115.614 Y159.615 E0.16193
G1 X115.614 Y159.080 E0.01685
G1 X119.788 Y163.253 E0.18576
G1 X120.323 Y163.253 E0.01685
G1 X115.614 Y158.545 E0.20959
G1 X115.614 Y158.009 E0.01685
G1 X120.858 Y163.253 E0.23342
G1 X121.394 Y163.253 E0.01685
G1 X115.614 Y157.474 E0.25725
G1 X115.614 Y156.939 E0.01685
G1 X121.929 Y163.253 E0.28107
G1 X122.464 Y163.253 E0.01685
G1 X115.614 Y156.403 E0.30490
G1 X115.614 Y155.868 E0.01685
G1 X123.000 Y163.253 E0.32873
G1 X123.535 Y163.253 E0.01685
G1 X115.614 Y155.333 E0.35256
G1 X115.614 Y154.797 E0.01685
G1 X124.070 Y163.253 E0.37639
G1 X124.606 Y163.253 E0.01685
G1 X116.100 Y154.747 E0.37863
G1 X116.635 Y154.747 E0.01685
G1 X125.141 Y163.253 E0.37863
G1 X125.676 Y163.253 E0.01685
G1 X117.170 Y154.747 E0.37863
G1 X117.705 Y154.747 E0.01685
G1 X126.212 Y163.253 E0.37863
G1 X126.747 Y163.253 E0.01685
G1 X118.241 Y154.747 E0.37863
G1 X118.776 Y154.747 E0.01685
G1 X127.282 Y163.253 E0.37863
G1 X127.818 Y163.253 E0.01685
G1 X119.311 Y154.747 E0.37863
G1 X119.847 Y154.747 E0.01685
G1 X128.353 Y163.253 E0.37863
G1 X128.888 Y163.253 E0.01685
G1 X120.382 Y154.747 E0.37863
G1 X120.917 Y154.747 E0.01685
G1 X129.424 Y163.253 E0.37863
G1 X129.959 Y163.253 E0.01685
G1 X121.453 Y154.747 E0.37863
G1 X121.988 Y154.747 E0.01685
G1 X130.494 Y163.253 E0.37863
G1 X131.030 Y163.253 E0.01685
G1 X122.523 Y154.747 E0.37863
G1 X123.059 Y154.747 E0.01685
G1 X131.565 Y163.253 E0.37863
G1 X132.100 Y163.253 E0.01685
G1 X123.594 Y154.747 E0.37863
G1 X124.129 Y154.747 E0.01685
G1 X132.636 Y163.253 E0.37863
G1 X133.121 Y163.253 E0.01527
G1 X133.121 Y163.203 E0.00158
G1 X124.665 Y154.747 E0.37639
G1 X125.200 Y154.747 E0.01685
G1 X133.121 Y162.667 E0.35256
G1 X133.121 Y162.132 E0.01685
G1 X125.735 Y154.747 E0.32874
G1 X126.271 Y154.747 E0.01685
G1 X133.121 Y161.597 E0.30491
G1 X133.121 Y161.062 E0.01685
G1 X126.806 Y154.747 E0.28108
G1 X127.341 Y154.747 E0.01685
G1 X133.121 Y160.526 E0.25725
G1 X133.121 Y159.991 E0.01685
G1 X127.877 Y154.747 E0.23342
G1 X128.412 Y154.747 E0.01685
G1 X133.121 Y159.456 E0.20959
G1 X133.121 Y158.920 E0.01685
G1 X128.947 Y154.747 E0.18576
G1 X129.483 Y154.747 E0.01685
G1 X133.121 Y158.385 E0.16193
G1 X133.121 Y157.850 E0.01685
G1 X130.018 Y154.747 E0.13811
G1 X130.553 Y154.747 E0.01685
G1 X133.121 Y157.314 E0.11428
G1 X133.121 Y156.779 E0.01685
G1 X131.089 Y154.747 E0.09045
G1 X131.624 Y154.747 E0.01685
G1 X133.121 Y156.244 E0.06662
G1 X133.121 Y155.708 E0.01685
G1 X132.159 Y154.747 E0.04279
G1 X132.695 Y154.747 E0.01685
G1 X133.290 Y155.343 E0.02651
M204 S1000
G1 F8640
G1 X132.695 Y154.747 E-0.19451
G1 X132.159 Y154.747 E-0.12361
G1 X133.121 Y155.708 E-0.31391
G1 X133.121 Y156.244 E-0.12361
G1 X133.107 Y156.230 E-0.00436
G1 E-0.04000 F2100.00000
G1 Z0.800 F10800.000
G1 X133.290 Y150.536
G1 Z0.200
G1 E0.80000 F2100.00000
M204 S500
G1 F1200
G1 X115.332 Y150.536 E0.56308
G1 X115.332 Y142.464 E0.25308
G1 X133.403 Y142.464 E0.56663
G1 X133.403 Y150.536 E0.25308
G1 X133.350 Y150.536 E0.00166
M204 S1000
G1 X133.780 Y150.913 F10800.000
M204 S500
G1 F1200
G1 X114.955 Y150.913 E0.59027
G1 X114.955 Y142.087 E0.27673
G1 X133.780 Y142.087 E0.59027
G1 X133.780 Y150.853 E0.27485
M204 S1000
G1 X134.158 Y151.290 F10800.000
M204 S500
G1 F1200
G1 X114.578 Y151.290 E0.61392
G1 X114.578 Y141.710 E0.30037
G1 X134.158 Y141.710 E0.61392
G1 X134.158 Y151.230 E0.29849
M204 S1000
G1 X133.762 Y151.230 F10800.000
G1 F8640
G1 X130.866 Y151.240 E-0.76000
G1 E-0.04000 F2100.00000
G1 Z0.800 F10800.000
G1 X133.290 Y143.345
G1 Z0.200
G1 E0.80000 F2100.00000
M73 Q1 S60
M204 S500
G1 F1200
G1 X132.692 Y142.747 E0.02669
G1 X132.156 Y142.747 E0.01694
G1 X133.121 Y143.712 E0.04307
G1 X133.121 Y144.249 E0.01694
M73 P1 R60
G1 X131.619 Y142.747 E0.06703
G1 X131.082 Y142.747 E0.01694
G1 X133.121 Y144.786 E0.09099
G1 X133.121 Y145.322 E0.01694
G1 X130.545 Y142.747 E0.11495
G1 X130.008 Y142.747 E0.01694
G1 X133.121 Y145.859 E0.13891
G1 X133.121 Y146.396 E0.01694
G1 X129.472 Y142.747 E0.16287
G1 X128.935 Y142.747 E0.01694
G1 X133.121 Y146.933 E0.18683
G1 X133.121 Y147.470 E0.01694
G1 X128.398 Y142.747 E0.21079
G1 X127.861 Y142.747 E0.01694
G1 X133.121 Y148.006 E0.23475
G1 X133.121 Y148.543 E0.01694
G1 X127.324 Y142.747 E0.25871
G1 X126.788 Y142.747 E0.01694
G1 X133.121 Y149.080 E0.28267
G1 X133.121 Y149.617 E0.01694
G1 X126.251 Y142.747 E0.30663
G1 X125.714 Y142.747 E0.01694
G1 X133.121 Y150.154 E0.33059
G1 X133.121 Y150.253 E0.00314
G1 X132.683 Y150.253 E0.01380
G1 X125.177 Y142.747 E0.33504
G1 X124.640 Y142.747 E0.01694
G1 X132.147 Y150.253 E0.33504
G1 X131.610 Y150.253 E0.01694
G1 X124.104 Y142.747 E0.33504
G1 X123.567 Y142.747 E0.01694
G1 X131.073 Y150.253 E0.33504
G1 X130.536 Y150.253 E0.01694
G1 X123.030 Y142.747 E0.33504
G1 X122.493 Y142.747 E0.01694
G1 X129.999 Y150.253 E0.33504
G1 X129.463 Y150.253 E0.01694
G1 X121.956 Y142.747 E0.33504
G1 X121.420 Y142.747 E0.01694
G1 X128.926 Y150.253 E0.33504
G1 X128.389 Y150.253 E0.01694
G1 X120.883 Y142.747 E0.33504
G1 X120.346 Y142.747 E0.01694
G1 X127.852 Y150.253 E0.33504
G1 X127.315 Y150.253 E0.01694
G1 X119.809 Y142.747 E0.33504
G1 X119.272 Y142.747 E0.01694
G1 X126.779 Y150.253 E0.33504
G1 X126.242 Y150.253 E0.01694
G1 X118.736 Y142.747 E0.33504
G1 X118.199 Y142.747 E0.01694
G1 X125.705 Y150.253 E0.33504
G1 X125.168 Y150.253 E0.01694
G1 X117.662 Y142.747 E0.33504
G1 X117.125 Y142.747 E0.01694
G1 X124.631 Y150.253 E0.33504
G1 X124.095 Y150.253 E0.01694
G1 X116.588 Y142.747 E0.33504
G1 X116.052 Y142.747 E0.01694
G1 X123.558 Y150.253 E0.33504
G1 X123.021 Y150.253 E0.01694
G1 X115.614 Y142.847 E0.33059
G1 X115.614 Y143.383 E0.01694
G1 X122.484 Y150.253 E0.30663
G1 X121.947 Y150.253 E0.01694
G1 X115.614 Y143.920 E0.28267
G1 X115.614 Y144.457 E0.01694
G1 X121.411 Y150.253 E0.25871
G1 X120.874 Y150.253 E0.01694
G1 X115.614 Y144.994 E0.23475
G1 X115.614 Y145.531 E0.01694
G1 X120.337 Y150.253 E0.21079
G1 X119.800 Y150.253 E0.01694
G1 X115.614 Y146.067 E0.18683
G1 X115.614 Y146.604 E0.01694
G1 X119.263 Y150.253 E0.16287
G1 X118.727 Y150.253 E0.01694
G1 X115.614 Y147.141 E0.13891
G1 X115.614 Y147.678 E0.01694
G1 X118.190 Y150.253 E0.11495
G1 X117.653 Y150.253 E0.01694
G1 X115.614 Y148.215 E0.09099
G1 X115.614 Y148.751 E0.01694
G1 X117.116 Y150.253 E0.06703
G1 X116.579 Y150.253 E0.01694
G1 X115.614 Y149.288 E0.04307
G1 X115.614 Y149.825 E0.01694
G1 X116.212 Y150.423 E0.02668
M204 S1000
G1 F8640
G1 X115.614 Y149.825 E-0.19520
G1 X115.614 Y149.288 E-0.12395
G1 X116.579 Y150.253 E-0.31508
G1 X117.116 Y150.253 E-0.12395
G1 X117.111 Y150.247 E-0.00182
G1 E-0.04000 F2100.00000
G1 Z0.800 F10800.000
G1 X115.332 Y137.536
G1 Z0.200
G1 E0.80000 F2100.00000
M204 S500
G1 F1200
G1 X115.332 Y130.464 E0.22173
G1 X133.403 Y130.464 E0.56663
G1 X133.403 Y137.536 E0.22173
G1 X115.392 Y137.536 E0.56474
M204 S1000
G1 X114.955 Y137.913 F10800.000
M204 S500
G1 F1200
G1 X114.955 Y130.087 E0.24537
G1 X133.780 Y130.087 E0.59027
G1 X133.780 Y137.913 E0.24537
G1 X115.015 Y137.913 E0.58839
M204 S1000
G1 X114.578 Y138.290 F10800.000
M204 S500
G1 F1200
G1 X114.578 Y129.710 E0.26902
G1 X134.158 Y129.710 E0.61392
G1 X134.158 Y138.290 E0.26902
G1 X114.638 Y138.290 E0.61204
M204 S1000
G1 X114.728 Y137.919 F10800.000
G1 F8640
G1 X114.615 Y134.999 E-0.76000
G1 E-0.04000 F2100.00000
G1 Z0.800 F10800.000
G1 X116.215 Y137.423
G1 Z0.200
G1 E0.80000 F2100.00000
M204 S500
G1 F1200
G1 X115.614 Y136.823 E0.02687
G1 X115.614 Y136.284 E0.01704
G1 X116.583 Y137.253 E0.04338
G1 X117.122 Y137.253 E0.01704
G1 X115.614 Y135.746 E0.06748
G1 X115.614 Y135.207 E0.01704
G1 X117.660 Y137.253 E0.09158
G1 X118.199 Y137.253 E0.01704
G1 X115.614 Y134.669 E0.11569
G1 X115.614 Y134.131 E0.01704
G1 X118.737 Y137.253 E0.13979
G1 X119.275 Y137.253 E0.01704
G1 X115.614 Y133.592 E0.16389
G1 X115.614 Y133.054 E0.01704
G1 X119.814 Y137.253 E0.18799
G1 X120.352 Y137.253 E0.01704
G1 X115.614 Y132.515 E0.21210
G1 X115.614 Y131.977 E0.01704
G1 X120.891 Y137.253 E0.23620
G1 X121.429 Y137.253 E0.01704
G1 X115.614 Y131.439 E0.26030
G1 X115.614 Y130.900 E0.01704
G1 X121.967 Y137.253 E0.28441
G1 X122.506 Y137.253 E0.01704
G1 X116.000 Y130.747 E0.29127
G1 X116.538 Y130.747 E0.01704
G1 X123.044 Y137.253 E0.29127
G1 X123.583 Y137.253 E0.01704
G1 X117.076 Y130.747 E0.29127
G1 X117.615 Y130.747 E0.01704
G1 X124.121 Y137.253 E0.29127
G1 X124.659 Y137.253 E0.01704
G1 X118.153 Y130.747 E0.29127
G1 X118.692 Y130.747 E0.01704
G1 X125.198 Y137.253 E0.29127
G1 X125.736 Y137.253 E0.01704
G1 X119.230 Y130.747 E0.29127
G1 X119.768 Y130.747 E0.01704
G1 X126.275 Y137.253 E0.29127
G1 X126.813 Y137.253 E0.01704
G1 X120.307 Y130.747 E0.29127
G1 X120.845 Y130.747 E0.01704
G1 X127.351 Y137.253 E0.29127
G1 X127.890 Y137.253 E0.01704
G1 X121.384 Y130.747 E0.29127
G1 X121.922 Y130.747 E0.01704
G1 X128.428 Y137.253 E0.29127
G1 X128.967 Y137.253 E0.01704
G1 X122.460 Y130.747 E0.29127
G1 X122.999 Y130.747 E0.01704
G1 X129.505 Y137.253 E0.29127
G1 X130.043 Y137.253 E0.01704
G1 X123.537 Y130.747 E0.29127
G1 X124.076 Y130.747 E0.01704
G1 X130.582 Y137.253 E0.29127
G1 X131.120 Y137.253 E0.01704
G1 X124.614 Y130.747 E0.29127
G1 X125.152 Y130.747 E0.01704
G1 X131.659 Y137.253 E0.29127
G1 X132.197 Y137.253 E0.01704
G1 X125.691 Y130.747 E0.29127
G1 X126.229 Y130.747 E0.01704
G1 X132.735 Y137.253 E0.29127
G1 X133.121 Y137.253 E0.01220
G1 X133.121 Y137.100 E0.00485
G1 X126.768 Y130.747 E0.28441
G1 X127.306 Y130.747 E0.01704
G1 X133.121 Y136.562 E0.26031
G1 X133.121 Y136.023 E0.01704
G1 X127.844 Y130.747 E0.23620
G1 X128.383 Y130.747 E0.01704
G1 X133.121 Y135.485 E0.21210
G1 X133.121 Y134.946 E0.01704
G1 X128.921 Y130.747 E0.18800
G1 X129.460 Y130.747 E0.01704
G1 X133.121 Y134.408 E0.16389
G1 X133.121 Y133.870 E0.01704
G1 X129.998 Y130.747 E0.13979
G1 X130.536 Y130.747 E0.01704
G1 X133.121 Y133.331 E0.11569
G1 X133.121 Y132.793 E0.01704
G1 X131.075 Y130.747 E0.09159
G1 X131.613 Y130.747 E0.01704
G1 X133.121 Y132.254 E0.06748
G1 X133.121 Y131.716 E0.01704
G1 X132.152 Y130.747 E0.04338
G1 X132.690 Y130.747 E0.01704
G1 X133.290 Y131.347 E0.02687
M204 S1000
G1 F8640
G1 X132.690 Y130.747 E-0.19602
G1 X132.152 Y130.747 E-0.12432
G1 X133.121 Y131.716 E-0.31642
G1 X133.121 Y132.250 E-0.12325
G1 E-0.04000 F2100.00000
G1 Z0.800 F10800.000
G1 X133.290 Y124.536
G1 Z0.200
G1 E0.80000 F2100.00000
M204 S500
G1 F1200
G1 X115.332 Y124.536 E0.56308
G1 X115.332 Y118.464 E0.19037
G1 X133.403 Y118.464 E0.56663
G1 X133.403 Y124.536 E0.19037
G1 X133.350 Y124.536 E0.00166
M204 S1000
G1 X133.780 Y124.913 F10800.000
M204 S500
G1 F1200
G1 X114.955 Y124.913 E0.59027
G1 X114.955 Y118.087 E0.21402
G1 X133.780 Y118.087 E0.59027
G1 X133.780 Y124.853 E0.21214
M204 S1000
G1 X134.158 Y125.290 F10800.000
M204 S500
G1 F1200
G1 X114.578 Y125.290 E0.61392
G1 X114.578 Y117.710 E0.23767
G1 X134.158 Y117.710 E0.61392
G1 X134.158 Y125.230 E0.23578
M204 S1000
G1 X133.761 Y125.241 F10800.000
G1 F8640
G1 X130.866 Y125.240 E-0.76000
G1 E-0.04000 F2100.00000
G1 Z0.800 F10800.000
G1 X133.290 Y119.350
G1 Z0.200
G1 E0.80000 F2100.00000
M204 S500
G1 F1200
G1 X132.687 Y118.747 E0.02708
G1 X132.147 Y118.747 E0.01715
G1 X133.121 Y119.720 E0.04372
G1 X133.121 Y120.260 E0.01715
G1 X131.607 Y118.747 E0.06798
G1 X131.067 Y118.747 E0.01715
G1 X133.121 Y120.801 E0.09224
G1 X133.121 Y121.341 E0.01715
G1 X130.527 Y118.747 E0.11650
G1 X129.987 Y118.747 E0.01715
G1 X133.121 Y121.881 E0.14076
G1 X133.121 Y122.421 E0.01715
G1 X129.447 Y118.747 E0.16501
G1 X128.906 Y118.747 E0.01715
G1 X133.121 Y122.961 E0.18927
G1 X133.121 Y123.501 E0.01715
G1 X128.366 Y118.747 E0.21353
G1 X127.826 Y118.747 E0.01715
G1 X133.121 Y124.041 E0.23779
G1 X133.121 Y124.253 E0.00672
G1 X132.792 Y124.253 E0.01043
G1 X127.286 Y118.747 E0.24730
G1 X126.746 Y118.747 E0.01715
G1 X132.252 Y124.253 E0.24730
G1 X131.712 Y124.253 E0.01715
G1 X126.206 Y118.747 E0.24730
G1 X125.666 Y118.747 E0.01715
G1 X131.172 Y124.253 E0.24730
G1 X130.631 Y124.253 E0.01715
G1 X125.125 Y118.747 E0.24730
G1 X124.585 Y118.747 E0.01715
G1 X130.091 Y124.253 E0.24730
M73 Q3 S59
G1 X129.551 Y124.253 E0.01715
G1 X124.045 Y118.747 E0.24730
M73 P3 R59
G1 X123.505 Y118.747 E0.01715
G1 X129.011 Y124.253 E0.24730
G1 X128.471 Y124.253 E0.01715
G1 X122.965 Y118.747 E0.24730
G1 X122.425 Y118.747 E0.01715
G1 X127.931 Y124.253 E0.24730
G1 X127.391 Y124.253 E0.01715
G1 X121.885 Y118.747 E0.24730
G1 X121.344 Y118.747 E0.01715
G1 X126.850 Y124.253 E0.24730
G1 X126.310 Y124.253 E0.01715
G1 X120.804 Y118.747 E0.24730
G1 X120.264 Y118.747 E0.01715
G1 X125.770 Y124.253 E0.24730
G1 X125.230 Y124.253 E0.01715
G1 X119.724 Y118.747 E0.24730
G1 X119.184 Y118.747 E0.01715
G1 X124.690 Y124.253 E0.24730
G1 X124.150 Y124.253 E0.01715
