; generated by PrusaSlicer 2.1.1 on 2020-12-21 at 19:01:29 UTC

; 

; external perimeters extrusion width = 0.60mm
; perimeters extrusion width = 0.50mm
; infill extrusion width = 0.50mm
; solid infill extrusion width = 0.50mm
; top infill extrusion width = 0.45mm
; support material extrusion width = 0.38mm
; first layer extrusion width = 0.42mm

M73 P0 R141
M73 Q0 S141
M201 X1000 Y1000 Z200 E5000 ; sets maximum accelerations, mm/sec^2
M203 X200 Y200 Z12 E120 ; sets maximum feedrates, mm/sec
M204 P1250 R1250 T1250 ; sets acceleration (P, T) and retract acceleration (R), mm/sec^2
M205 X8.00 Y8.00 Z0.40 E4.50 ; sets the jerk limits, mm/sec
M205 S0 T0 ; sets the minimum extruding and travel feed rate, mm/sec
M107
M862.3 P "MK3S" ; printer model check
M862.1 P0.4 ; nozzle diameter check
M115 U3.9.1 ; tell printer latest fw version
G90 ; use absolute coordinates
M83 ; extruder relative mode
M104 S215 ; set extruder temp
M140 S60 ; set bed temp
M190 S60 ; wait for bed temp
M109 S215 ; wait for extruder temp
G28 W ; home all without mesh bed level
G80 ; mesh bed leveling
G1 Y-3.0 F1000.0 ; go outside print area
G92 E0.0
G1 X60.0 E9.0 F1000.0 ; intro line
M73 Q0 S141
M73 P0 R141
G1 X100.0 E12.5 F1000.0 ; intro line
G92 E0.0
M221 S95
G21 ; set units to millimeters
G90 ; use absolute coordinates
M83 ; use relative distances for extrusion
M900 K0.05 ; Filament gcode LA 1.5
M900 K30 ; Filament gcode LA 1.0
;BEFORE_LAYER_CHANGE
G92 E0.0
;0.2


G1 E-0.80000 F2100.00000
G1 Z0.600 F10800.000
;AFTER_LAYER_CHANGE
;0.2
G1 X93.310 Y67.109
G1 Z0.200
G1 E0.80000 F2100.00000
M204 S1000
G1 F1200
G1 X93.649 Y66.778 E0.01487
G1 X94.052 Y66.527 E0.01487
G1 X94.499 Y66.370 E0.01487
G1 X94.973 Y66.312 E0.01498
G1 X155.004 Y66.311 E1.88220
G1 X155.748 Y66.443 E0.02372
G1 X156.407 Y66.823 E0.02383
G1 X156.895 Y67.406 E0.02383
G1 X157.155 Y68.116 E0.02372
G1 X159.781 Y93.204 E0.79090
G1 X159.784 Y145.761 E1.64789
G1 X159.652 Y146.487 E0.02315
G1 X159.284 Y147.131 E0.02326
G1 X158.941 Y147.464 E0.01498
G1 X158.531 Y147.717 E0.01510
G1 X158.076 Y147.874 E0.01510
G1 X157.597 Y147.927 E0.01510
G1 X113.847 Y147.927 E1.37177
G1 X89.698 Y147.757 E0.75718
G1 X88.972 Y147.625 E0.02315
G1 X88.331 Y147.259 E0.02315
G1 X87.999 Y146.920 E0.01487
G1 X87.749 Y146.517 E0.01487
G1 X87.591 Y146.070 E0.01487
G1 X87.533 Y145.600 E0.01487
G1 X87.537 Y93.013 E1.64881
G1 X92.864 Y68.024 E0.80114
G1 X93.032 Y67.542 E0.01601
G1 X93.278 Y67.160 E0.01424
G1 F8640
G1 X93.649 Y66.778 E-0.12303
G1 X94.052 Y66.527 E-0.10949
G1 X94.499 Y66.370 E-0.10949
G1 X94.973 Y66.312 E-0.11033
G1 X96.306 Y66.312 E-0.30765
G1 E-0.04000 F2100.00000
G1 Z0.800 F10800.000
G1 X96.508 Y93.149
G1 Z0.200
G1 E0.80000 F2100.00000
G1 F1200
G1 X96.508 Y97.011 E0.12112
G1 X97.262 Y97.011 E0.02365
G1 X97.262 Y93.318 E0.11580
G1 X97.511 Y93.318 E0.00780
G1 X97.511 Y95.989 E0.08373
G1 X98.017 Y95.989 E0.01584
G1 X98.017 Y97.011 E0.03207
G1 X98.771 Y97.011 E0.02365
G1 X98.771 Y95.989 E0.03207
G1 X99.525 Y95.989 E0.02365
G1 X99.525 Y97.011 E0.03207
G1 X100.279 Y97.011 E0.02365
G1 X100.279 Y95.989 E0.03207
G1 X101.033 Y95.989 E0.02365
G1 X101.033 Y97.011 E0.03207
G1 X101.787 Y97.011 E0.02365
G1 X101.787 Y95.989 E0.03207
G1 X102.542 Y95.989 E0.02365
G1 X102.542 Y97.181 E0.03739
G1 F8640
G1 X102.542 Y95.989 E-0.27535
G1 X101.787 Y95.989 E-0.17414
G1 X101.787 Y97.011 E-0.23617
G1 X101.465 Y97.011 E-0.07434
G1 E-0.04000 F2100.00000
G1 Z0.800 F10800.000
G1 X104.050 Y97.181
G1 Z0.200
G1 E0.80000 F2100.00000
G1 F1200
G1 X104.050 Y95.989 E0.03739
G1 X104.804 Y95.989 E0.02365
G1 X104.804 Y97.011 E0.03207
G1 X105.558 Y97.011 E0.02365
G1 X105.558 Y95.989 E0.03207
G1 X106.312 Y95.989 E0.02365
G1 X106.312 Y97.011 E0.03207
G1 X107.067 Y97.011 E0.02365
G1 X107.067 Y95.989 E0.03207
G1 X107.821 Y95.989 E0.02365
G1 X107.821 Y97.011 E0.03207
G1 X108.575 Y97.011 E0.02365
G1 X108.575 Y95.989 E0.03207
G1 X109.329 Y95.989 E0.02365
G1 X109.329 Y97.011 E0.03207
G1 X110.083 Y97.011 E0.02365
G1 X110.083 Y95.989 E0.03207
G1 X110.837 Y95.989 E0.02365
G1 X110.837 Y97.011 E0.03207
G1 X111.591 Y97.011 E0.02365
G1 X111.591 Y95.989 E0.03207
G1 X112.346 Y95.989 E0.02365
G1 X112.346 Y97.011 E0.03207
G1 X113.100 Y97.011 E0.02365
G1 X113.100 Y95.989 E0.03207
G1 X113.854 Y95.989 E0.02365
G1 X113.854 Y97.181 E0.03739
G1 F8640
G1 X113.854 Y95.989 E-0.27535
G1 X113.100 Y95.989 E-0.17414
G1 X113.100 Y97.011 E-0.23617
G1 X112.778 Y97.011 E-0.07434
G1 E-0.04000 F2100.00000
G1 Z0.800 F10800.000
G1 X136.479 Y97.181
G1 Z0.200
G1 E0.80000 F2100.00000
G1 F1200
G1 X136.479 Y95.989 E0.03739
G1 X137.233 Y95.989 E0.02365
G1 X137.233 Y97.011 E0.03207
G1 X137.987 Y97.011 E0.02365
G1 X137.987 Y95.989 E0.03207
G1 X138.741 Y95.989 E0.02365
G1 X138.741 Y97.011 E0.03207
G1 X139.495 Y97.011 E0.02365
G1 X139.495 Y95.989 E0.03207
G1 X140.250 Y95.989 E0.02365
G1 X140.250 Y97.011 E0.03207
G1 X141.004 Y97.011 E0.02365
G1 X141.004 Y95.989 E0.03207
G1 X141.758 Y95.989 E0.02365
G1 X141.758 Y97.011 E0.03207
G1 X142.512 Y97.011 E0.02365
G1 X142.512 Y95.989 E0.03207
G1 X143.266 Y95.989 E0.02365
G1 X143.266 Y97.011 E0.03207
G1 X144.020 Y97.011 E0.02365
G1 X144.020 Y95.989 E0.03207
G1 X144.774 Y95.989 E0.02365
G1 X144.774 Y97.011 E0.03207
G1 X145.529 Y97.011 E0.02365
G1 X145.529 Y95.989 E0.03207
G1 X146.283 Y95.989 E0.02365
G1 X146.283 Y97.181 E0.03739
G1 F8640
G1 X146.283 Y95.989 E-0.27535
G1 X145.529 Y95.989 E-0.17414
G1 X145.529 Y97.011 E-0.23617
G1 X145.207 Y97.011 E-0.07434
G1 E-0.04000 F2100.00000
G1 Z0.800 F10800.000
G1 X147.791 Y97.181
G1 Z0.200
G1 E0.80000 F2100.00000
G1 F1200
G1 X147.791 Y95.989 E0.03739
G1 X148.545 Y95.989 E0.02365
G1 X148.545 Y97.011 E0.03207
G1 X149.299 Y97.011 E0.02365
G1 X149.299 Y95.989 E0.03207
G1 X150.054 Y95.989 E0.02365
G1 X150.054 Y97.011 E0.03207
G1 X150.808 Y97.011 E0.02365
G1 X150.808 Y95.989 E0.03207
G1 X151.562 Y95.989 E0.02365
G1 X151.562 Y97.011 E0.03207
G1 X152.316 Y97.011 E0.02365
G1 X152.316 Y95.989 E0.03207
G1 X152.489 Y95.989 E0.00541
G1 X152.489 Y93.318 E0.08373
G1 X153.070 Y93.318 E0.01824
G1 X153.070 Y97.181 E0.12112
G1 F8640
G1 X153.070 Y93.890 E-0.76000
G1 E-0.04000 F2100.00000
G1 Z0.800 F10800.000
G1 X136.479 Y98.819
G1 Z0.200
G1 E0.80000 F2100.00000
G1 F1200
G1 X136.479 Y145.569 E1.46582
G1 X137.233 Y145.569 E0.02365
G1 X137.233 Y98.989 E1.46050
G1 X137.987 Y98.989 E0.02365
G1 X137.987 Y145.569 E1.46050
G1 X138.741 Y145.569 E0.02365
G1 X138.741 Y98.989 E1.46050
G1 X139.495 Y98.989 E0.02365
G1 X139.495 Y145.569 E1.46050
G1 X140.250 Y145.569 E0.02365
G1 X140.250 Y98.989 E1.46050
G1 X141.004 Y98.989 E0.02365
G1 X141.004 Y145.569 E1.46050
G1 X141.758 Y145.569 E0.02365
G1 X141.758 Y98.989 E1.46050
G1 X142.512 Y98.989 E0.02365
G1 X142.512 Y145.569 E1.46050
G1 X143.266 Y145.569 E0.02365
G1 X143.266 Y98.989 E1.46050
G1 X144.020 Y98.989 E0.02365
G1 X144.020 Y145.569 E1.46050
G1 X144.774 Y145.569 E0.02365
G1 X144.774 Y98.989 E1.46050
G1 X145.529 Y98.989 E0.02365
G1 X145.529 Y145.569 E1.46050
G1 X146.283 Y145.569 E0.02365
G1 X146.283 Y98.989 E1.46050
G1 X146.597 Y98.989 E0.00986
G1 X146.597 Y134.999 E1.12909
M73 Q0 S140
M73 P0 R140
G1 X147.037 Y134.999 E0.01379
G1 X147.037 Y145.569 E0.33140
G1 X147.791 Y145.569 E0.02365
G1 X147.791 Y98.989 E1.46050
G1 X148.545 Y98.989 E0.02365
G1 X148.545 Y145.569 E1.46050
G1 X149.299 Y145.569 E0.02365
G1 X149.299 Y98.989 E1.46050
G1 X150.054 Y98.989 E0.02365
G1 X150.054 Y145.569 E1.46050
G1 X150.808 Y145.569 E0.02365
G1 X150.808 Y98.989 E1.46050
G1 X151.562 Y98.989 E0.02365
G1 X151.562 Y145.569 E1.46050
G1 X152.316 Y145.569 E0.02365
G1 X152.316 Y98.989 E1.46050
G1 X153.070 Y98.989 E0.02365
G1 X153.070 Y145.569 E1.46050
G1 X153.824 Y145.569 E0.02365
G1 X153.824 Y98.989 E1.46050
G1 X154.579 Y98.989 E0.02365
G1 X154.579 Y145.569 E1.46050
G1 X155.333 Y145.569 E0.02365
G1 X155.333 Y98.858 E1.46458
G1 X155.489 Y98.702 E0.00691
G1 X155.489 Y93.318 E0.16882
G1 X156.087 Y93.318 E0.01876
G1 X156.087 Y145.569 E1.63829
G1 X156.841 Y145.569 E0.02365
G1 X156.841 Y93.318 E1.63829
G1 X157.595 Y93.318 E0.02365
G1 X157.595 Y145.739 E1.64361
G1 F8640
G1 X157.595 Y142.447 E-0.76000
G1 E-0.04000 F2100.00000
G1 Z0.800 F10800.000
G1 X113.854 Y145.739
G1 Z0.200
G1 E0.80000 F2100.00000
G1 F1200
G1 X113.854 Y98.989 E1.46582
G1 X113.100 Y98.989 E0.02365
G1 X113.100 Y145.569 E1.46050
G1 X112.346 Y145.569 E0.02365
G1 X112.346 Y98.989 E1.46050
G1 X111.591 Y98.989 E0.02365
G1 X111.591 Y145.569 E1.46050
G1 X110.837 Y145.569 E0.02365
G1 X110.837 Y98.989 E1.46050
G1 X110.083 Y98.989 E0.02365
G1 X110.083 Y145.569 E1.46050
G1 X109.329 Y145.569 E0.02365
G1 X109.329 Y98.989 E1.46050
G1 X108.575 Y98.989 E0.02365
G1 X108.575 Y145.569 E1.46050
G1 X107.821 Y145.569 E0.02365
G1 X107.821 Y98.989 E1.46050
G1 X107.067 Y98.989 E0.02365
G1 X107.067 Y145.569 E1.46050
G1 X106.312 Y145.569 E0.02365
G1 X106.312 Y98.989 E1.46050
M73 Q1 S139
M73 P1 R139
G1 X105.558 Y98.989 E0.02365
G1 X105.558 Y145.569 E1.46050
G1 X104.804 Y145.569 E0.02365
G1 X104.804 Y98.989 E1.46050
G1 X104.050 Y98.989 E0.02365
G1 X104.050 Y145.569 E1.46050
G1 X103.296 Y145.569 E0.02365
G1 X103.296 Y134.999 E0.33140
G1 X102.600 Y134.999 E0.02180
G1 X102.600 Y98.989 E1.12909
G1 X102.542 Y98.989 E0.00184
G1 X102.542 Y145.569 E1.46050
G1 X101.787 Y145.569 E0.02365
G1 X101.787 Y98.989 E1.46050
G1 X101.033 Y98.989 E0.02365
G1 X101.033 Y145.569 E1.46050
G1 X100.279 Y145.569 E0.02365
G1 X100.279 Y98.989 E1.46050
G1 X99.525 Y98.989 E0.02365
G1 X99.525 Y145.569 E1.46050
G1 X98.771 Y145.569 E0.02365
G1 X98.771 Y98.989 E1.46050
G1 X98.017 Y98.989 E0.02365
G1 X98.017 Y145.569 E1.46050
G1 X97.262 Y145.569 E0.02365
G1 X97.262 Y98.989 E1.46050
G1 X96.508 Y98.989 E0.02365
G1 X96.508 Y145.569 E1.46050
G1 X95.754 Y145.569 E0.02365
G1 X95.754 Y98.989 E1.46050
G1 X95.000 Y98.989 E0.02365
G1 X95.000 Y145.569 E1.46050
G1 X94.246 Y145.569 E0.02365
G1 X94.246 Y93.318 E1.63829
G1 X93.492 Y93.318 E0.02365
G1 X93.492 Y145.569 E1.63829
G1 X92.738 Y145.569 E0.02365
G1 X92.738 Y93.318 E1.63829
G1 X91.983 Y93.318 E0.02365
G1 X91.983 Y145.569 E1.63829
G1 X91.229 Y145.569 E0.02365
G1 X91.229 Y93.318 E1.63829
G1 X90.475 Y93.318 E0.02365
G1 X90.475 Y145.569 E1.63829
G1 X89.721 Y145.569 E0.02365
G1 X89.721 Y93.149 E1.64361
G1 F8640
G1 X89.721 Y96.440 E-0.76000
G1 E-0.04000 F2100.00000
G1 Z0.800 F10800.000
G1 X95.790 Y69.290
G1 Z0.200
G1 E0.80000 F2100.00000
G1 F1200
G1 X154.210 Y69.290 E1.83172
G1 X154.210 Y97.710 E0.89109
G1 X95.790 Y97.710 E1.83172
M73 Q2 S138
M73 P2 R138
G1 X95.790 Y69.350 E0.88921
G1 X95.644 Y68.917 F10800.000
G1 X95.210 Y68.710
G1 F1200
G1 X154.790 Y68.710 E1.86809
G1 X154.790 Y98.290 E0.92746
G1 X95.210 Y98.290 E1.86809
G1 X95.210 Y68.770 E0.92558
G1 X95.605 Y68.771 F10800.000
G1 X95.517 Y69.017
G1 F1200
G1 X95.601 Y69.000 E0.00145
G1 X154.399 Y69.000 E0.99209
G1 X154.483 Y69.017 E0.00145
G1 X154.500 Y69.101 E0.00145
G1 X154.500 Y97.899 E0.48590
G1 X154.483 Y97.983 E0.00145
G1 X154.399 Y98.000 E0.00145
G1 X95.601 Y98.000 E0.99209
G1 X95.517 Y97.983 E0.00145
G1 X95.500 Y97.899 E0.00145
G1 X95.500 Y69.101 E0.48590
G1 X95.505 Y69.076 E0.00051
M106 S255
;BEFORE_LAYER_CHANGE
G92 E0.0
;0.448978


G1 F8640
G1 X95.601 Y69.000 E-0.02834
G1 X98.770 Y69.000 E-0.73166
G1 E-0.04000 F2100.00000
G1 Z0.800 F10800.000
;AFTER_LAYER_CHANGE
;0.448978
M104 S210 ; set temperature
G1 X94.684 Y96.287
G1 Z0.449
G1 E0.80000 F2100.00000
G1 F1938
G1 X92.684 Y96.287 E0.06760
G1 X92.684 Y98.603 E0.07828
G1 X94.542 Y98.603 E0.06280
G1 X94.542 Y98.690 E0.00293
G1 X94.810 Y98.958 E0.01282
G1 X99.631 Y98.958 E0.16297
G1 X99.631 Y100.919 E0.06628
G1 X92.684 Y100.919 E0.23483
G1 X92.684 Y103.234 E0.07828
G1 X99.631 Y103.234 E0.23483
G1 X99.631 Y105.550 E0.07828
G1 X92.684 Y105.550 E0.23483
G1 X92.684 Y107.866 E0.07828
G1 X99.631 Y107.866 E0.23483
G1 X99.631 Y110.181 E0.07828
G1 X92.684 Y110.181 E0.23483
G1 X92.684 Y112.497 E0.07828
G1 X99.631 Y112.497 E0.23483
G1 X99.631 Y114.812 E0.07828
G1 X92.684 Y114.812 E0.23483
G1 X92.684 Y117.128 E0.07828
G1 X99.631 Y117.128 E0.23483
G1 X99.631 Y119.444 E0.07828
G1 X92.684 Y119.444 E0.23483
G1 X92.684 Y121.759 E0.07828
G1 X99.631 Y121.759 E0.23483
G1 X99.631 Y124.075 E0.07828
G1 X92.684 Y124.075 E0.23483
G1 X92.684 Y126.390 E0.07828
G1 X99.631 Y126.390 E0.23483
G1 X99.631 Y128.706 E0.07828
G1 X92.684 Y128.706 E0.23483
G1 X92.684 Y131.022 E0.07828
G1 X99.631 Y131.022 E0.23483
G1 X99.631 Y133.337 E0.07828
G1 X92.684 Y133.337 E0.23483
G1 X92.684 Y135.653 E0.07828
G1 X99.631 Y135.653 E0.23483
G1 X99.631 Y137.969 E0.07828
G1 X106.578 Y137.969 E0.23483
G1 X106.578 Y135.653 E0.07828
G1 X111.209 Y135.653 E0.15656
G1 X111.209 Y133.337 E0.07828
G1 X106.578 Y133.337 E0.15656
G1 X106.578 Y131.022 E0.07828
G1 X111.209 Y131.022 E0.15656
G1 X111.209 Y128.706 E0.07828
G1 X106.578 Y128.706 E0.15656
G1 X106.578 Y126.390 E0.07828
G1 X111.209 Y126.390 E0.15656
G1 X111.209 Y124.075 E0.07828
G1 X106.578 Y124.075 E0.15656
G1 X106.578 Y121.759 E0.07828
G1 X111.209 Y121.759 E0.15656
G1 X111.209 Y119.444 E0.07828
G1 X106.578 Y119.444 E0.15656
G1 X106.578 Y117.128 E0.07828
G1 X111.209 Y117.128 E0.15656
G1 X111.209 Y114.812 E0.07828
G1 X106.578 Y114.812 E0.15656
G1 X106.578 Y112.497 E0.07828
G1 X111.209 Y112.497 E0.15656
G1 X111.209 Y110.181 E0.07828
G1 X106.578 Y110.181 E0.15656
G1 X106.578 Y107.866 E0.07828
G1 X111.209 Y107.866 E0.15656
G1 X111.209 Y105.550 E0.07828
G1 X106.578 Y105.550 E0.15656
G1 X106.578 Y103.234 E0.07828
G1 X111.209 Y103.234 E0.15656
G1 X111.209 Y100.919 E0.07828
G1 X106.436 Y100.919 E0.16136
G1 F8640
G1 X109.727 Y100.919 E-0.76000
G1 E-0.04000 F2100.00000
G1 Z1.049 F10800.000
G1 X138.855 Y100.919
G1 Z0.449
G1 E0.80000 F2100.00000
G1 F1938
G1 X143.628 Y100.919 E0.16136
G1 X143.628 Y103.234 E0.07828
G1 X138.997 Y103.234 E0.15656
G1 X138.997 Y105.550 E0.07828
G1 X143.628 Y105.550 E0.15656
G1 X143.628 Y107.866 E0.07828
G1 X138.997 Y107.866 E0.15656
G1 X138.997 Y110.181 E0.07828
G1 X143.628 Y110.181 E0.15656
G1 X143.628 Y112.497 E0.07828
G1 X138.997 Y112.497 E0.15656
G1 X138.997 Y114.812 E0.07828
G1 X143.628 Y114.812 E0.15656
G1 X143.628 Y117.128 E0.07828
G1 X138.997 Y117.128 E0.15656
G1 X138.997 Y119.444 E0.07828
G1 X143.628 Y119.444 E0.15656
G1 X143.628 Y121.759 E0.07828
G1 X138.997 Y121.759 E0.15656
G1 X138.997 Y124.075 E0.07828
G1 X143.628 Y124.075 E0.15656
G1 X143.628 Y126.390 E0.07828
G1 X138.997 Y126.390 E0.15656
G1 X138.997 Y128.706 E0.07828
G1 X143.628 Y128.706 E0.15656
G1 X143.628 Y131.022 E0.07828
G1 X138.997 Y131.022 E0.15656
G1 X138.997 Y133.337 E0.07828
G1 X143.628 Y133.337 E0.15656
G1 X143.628 Y135.653 E0.07828
G1 X138.997 Y135.653 E0.15656
G1 X138.997 Y137.969 E0.07828
G1 X155.206 Y137.969 E0.54794
G1 X155.206 Y135.653 E0.07828
G1 X150.575 Y135.653 E0.15656
G1 X150.575 Y133.337 E0.07828
G1 X155.206 Y133.337 E0.15656
G1 X155.206 Y131.022 E0.07828
G1 X150.575 Y131.022 E0.15656
G1 X150.575 Y128.706 E0.07828
G1 X155.206 Y128.706 E0.15656
G1 X155.206 Y126.390 E0.07828
G1 X150.575 Y126.390 E0.15656
G1 X150.575 Y124.075 E0.07828
G1 X155.206 Y124.075 E0.15656
G1 X155.206 Y121.759 E0.07828
G1 X150.575 Y121.759 E0.15656
G1 X150.575 Y119.444 E0.07828
G1 X155.206 Y119.444 E0.15656
G1 X155.206 Y117.128 E0.07828
G1 X150.575 Y117.128 E0.15656
G1 X150.575 Y114.812 E0.07828
G1 X155.206 Y114.812 E0.15656
G1 X155.206 Y112.497 E0.07828
G1 X150.575 Y112.497 E0.15656
G1 X150.575 Y110.181 E0.07828
G1 X155.206 Y110.181 E0.15656
G1 X155.206 Y107.866 E0.07828
G1 X150.575 Y107.866 E0.15656
G1 X150.575 Y105.550 E0.07828
G1 X155.206 Y105.550 E0.15656
G1 X155.206 Y103.234 E0.07828
G1 X150.575 Y103.234 E0.15656
G1 X150.575 Y100.919 E0.07828
G1 X155.348 Y100.919 E0.16136
G1 X155.348 Y140.284 F10800.000
G1 F1938
G1 X138.997 Y140.284 E0.55274
G1 X138.997 Y142.600 E0.07828
G1 X155.348 Y142.600 E0.55274
G1 F8640
G1 X152.057 Y142.600 E-0.76000
G1 E-0.04000 F2100.00000
G1 Z1.049 F10800.000
G1 X111.351 Y137.969
G1 Z0.449
G1 E0.80000 F2100.00000
G1 F1938
G1 X92.684 Y137.969 E0.63102
G1 X92.684 Y140.284 E0.07828
G1 X111.209 Y140.284 E0.62622
G1 X111.209 Y142.600 E0.07828
G1 X92.542 Y142.600 E0.63102
;BEFORE_LAYER_CHANGE
G92 E0.0
;0.5


G1 F8640
G1 X95.834 Y142.600 E-0.76000
G1 E-0.04000 F2100.00000
