; generated by PrusaSlicer 2.1.1 on 2020-11-15 at 09:51:47 UTC

; 

; external perimeters extrusion width = 0.60mm
; perimeters extrusion width = 0.50mm
; infill extrusion width = 0.50mm
; solid infill extrusion width = 0.50mm
; top infill extrusion width = 0.45mm
; support material extrusion width = 0.38mm
; first layer extrusion width = 0.42mm

M73 P0 R224
M73 Q0 S226
M201 X1000 Y1000 Z200 E5000 ; sets maximum accelerations, mm/sec^2
M203 X200 Y200 Z12 E120 ; sets maximum feedrates, mm/sec
M204 P1250 R1250 T1250 ; sets acceleration (P, T) and retract acceleration (R), mm/sec^2
M205 X8.00 Y8.00 Z0.40 E4.50 ; sets the jerk limits, mm/sec
M205 S0 T0 ; sets the minimum extruding and travel feed rate, mm/sec
M107
M862.3 P "MK3S" ; printer model check
M862.1 P0.4 ; nozzle diameter check
M115 U3.9.1 ; tell printer latest fw version
G90 ; use absolute coordinates
M83 ; extruder relative mode
M104 S215 ; set extruder temp
M140 S60 ; set bed temp
M190 S60 ; wait for bed temp
M109 S215 ; wait for extruder temp
G28 W ; home all without mesh bed level
G80 ; mesh bed leveling
G1 Y-3.0 F1000.0 ; go outside print area
G92 E0.0
G1 X60.0 E9.0 F1000.0 ; intro line
M73 Q0 S225
M73 P0 R224
G1 X100.0 E12.5 F1000.0 ; intro line
G92 E0.0
M221 S95
G21 ; set units to millimeters
G90 ; use absolute coordinates
M83 ; use relative distances for extrusion
M900 K0.05 ; Filament gcode LA 1.5
M900 K30 ; Filament gcode LA 1.0
;BEFORE_LAYER_CHANGE
G92 E0.0
;0.2


G1 E-0.80000 F2100.00000
G1 Z0.600 F10800.000
;AFTER_LAYER_CHANGE
;0.2
G1 X94.208 Y76.960
G1 Z0.200
G1 E0.80000 F2100.00000
M204 S1000
G1 F1200
G1 X94.979 Y76.812 E0.02462
G1 X155.004 Y76.811 E1.88204
G1 X155.759 Y76.947 E0.02405
G1 X156.418 Y77.333 E0.02394
G1 X156.906 Y77.925 E0.02405
G1 X157.160 Y78.645 E0.02394
G1 X159.779 Y105.987 E0.86123
G1 X159.783 Y135.449 E0.92376
G1 X159.584 Y136.312 E0.02777
G1 X159.056 Y137.028 E0.02788
G1 X158.390 Y137.437 E0.02451
G1 X157.623 Y137.586 E0.02451
G1 X113.843 Y137.587 E1.37269
G1 X89.643 Y137.416 E0.75878
G1 X88.793 Y137.210 E0.02743
G1 X88.091 Y136.689 E0.02743
G1 X87.684 Y136.029 E0.02428
G1 X87.533 Y135.266 E0.02439
G1 X87.542 Y105.763 E0.92505
G1 X92.859 Y78.547 E0.86948
G1 X93.107 Y77.902 E0.02168
G1 X93.541 Y77.368 E0.02157
G1 X94.157 Y76.991 E0.02262
G1 F8640
G1 X94.979 Y76.812 E-0.19433
G1 X97.429 Y76.812 E-0.56567
G1 E-0.04000 F2100.00000
G1 Z0.800 F10800.000
G1 X89.721 Y105.964
G1 Z0.200
G1 E0.80000 F2100.00000
G1 F1200
G1 X89.721 Y135.228 E0.91756
G1 X90.475 Y135.228 E0.02365
G1 X90.475 Y106.134 E0.91224
G1 X91.229 Y106.134 E0.02365
G1 X91.229 Y135.228 E0.91224
G1 X91.983 Y135.228 E0.02365
G1 X91.983 Y106.134 E0.91224
G1 X92.738 Y106.134 E0.02365
G1 X92.738 Y135.228 E0.91224
G1 X93.492 Y135.228 E0.02365
G1 X93.492 Y106.134 E0.91224
G1 X94.246 Y106.134 E0.02365
G1 X94.246 Y135.228 E0.91224
G1 X95.000 Y135.228 E0.02365
G1 X95.000 Y109.489 E0.80706
G1 X95.754 Y109.489 E0.02365
G1 X95.754 Y135.228 E0.80706
G1 X96.508 Y135.228 E0.02365
G1 X96.508 Y109.489 E0.80706
G1 X97.262 Y109.489 E0.02365
G1 X97.262 Y135.228 E0.80706
G1 X98.017 Y135.228 E0.02365
G1 X98.017 Y109.489 E0.80706
G1 X98.771 Y109.489 E0.02365
G1 X98.771 Y135.228 E0.80706
G1 X99.525 Y135.228 E0.02365
G1 X99.525 Y109.489 E0.80706
G1 X100.279 Y109.489 E0.02365
G1 X100.279 Y135.228 E0.80706
G1 X101.033 Y135.228 E0.02365
G1 X101.033 Y124.659 E0.33140
G1 X101.787 Y124.659 E0.02365
G1 X101.787 Y135.228 E0.33140
G1 X102.542 Y135.228 E0.02365
G1 X102.542 Y124.659 E0.33140
G1 X103.296 Y124.659 E0.02365
G1 X103.296 Y135.228 E0.33140
G1 X104.050 Y135.228 E0.02365
G1 X104.050 Y124.659 E0.33140
G1 X104.804 Y124.659 E0.02365
G1 X104.804 Y135.228 E0.33140
G1 X105.558 Y135.228 E0.02365
G1 X105.558 Y124.659 E0.33140
G1 X105.925 Y124.659 E0.01148
G1 X105.925 Y109.489 E0.47565
G1 X106.312 Y109.489 E0.01216
G1 X106.312 Y135.228 E0.80706
G1 X107.067 Y135.228 E0.02365
G1 X107.067 Y109.489 E0.80706
G1 X107.821 Y109.489 E0.02365
G1 X107.821 Y135.228 E0.80706
G1 X108.575 Y135.228 E0.02365
G1 X108.575 Y109.489 E0.80706
G1 X109.329 Y109.489 E0.02365
G1 X109.329 Y135.228 E0.80706
G1 X110.083 Y135.228 E0.02365
G1 X110.083 Y109.489 E0.80706
G1 X110.837 Y109.489 E0.02365
G1 X110.837 Y135.228 E0.80706
G1 X111.591 Y135.228 E0.02365
G1 X111.591 Y109.489 E0.80706
G1 X112.346 Y109.489 E0.02365
G1 X112.346 Y135.228 E0.80706
G1 X113.100 Y135.228 E0.02365
G1 X113.100 Y109.489 E0.80706
G1 X113.854 Y109.489 E0.02365
G1 X113.854 Y135.398 E0.81238
G1 F8640
G1 X113.854 Y132.107 E-0.76000
G1 E-0.04000 F2100.00000
G1 Z0.800 F10800.000
G1 X136.479 Y109.319
G1 Z0.200
G1 E0.80000 F2100.00000
G1 F1200
G1 X136.479 Y135.228 E0.81238
G1 X137.233 Y135.228 E0.02365
G1 X137.233 Y109.489 E0.80706
M73 Q0 S224
M73 P0 R223
G1 X137.987 Y109.489 E0.02365
G1 X137.987 Y135.228 E0.80706
G1 X138.741 Y135.228 E0.02365
G1 X138.741 Y109.489 E0.80706
G1 X139.495 Y109.489 E0.02365
G1 X139.495 Y135.228 E0.80706
G1 X140.250 Y135.228 E0.02365
G1 X140.250 Y109.489 E0.80706
G1 X141.004 Y109.489 E0.02365
G1 X141.004 Y135.228 E0.80706
G1 X141.758 Y135.228 E0.02365
G1 X141.758 Y109.489 E0.80706
G1 X142.512 Y109.489 E0.02365
G1 X142.512 Y135.228 E0.80706
G1 X143.266 Y135.228 E0.02365
G1 X143.266 Y109.489 E0.80706
G1 X144.020 Y109.489 E0.02365
G1 X144.020 Y135.228 E0.80706
G1 X144.774 Y135.228 E0.02365
G1 X144.774 Y124.659 E0.33140
G1 X145.529 Y124.659 E0.02365
G1 X145.529 Y135.228 E0.33140
G1 X146.283 Y135.228 E0.02365
G1 X146.283 Y124.659 E0.33140
G1 X147.037 Y124.659 E0.02365
G1 X147.037 Y135.228 E0.33140
G1 X147.791 Y135.228 E0.02365
G1 X147.791 Y124.659 E0.33140
G1 X148.545 Y124.659 E0.02365
G1 X148.545 Y135.228 E0.33140
G1 X149.299 Y135.228 E0.02365
G1 X149.299 Y124.659 E0.33140
G1 X149.921 Y124.659 E0.01950
G1 X149.921 Y109.489 E0.47565
G1 X150.054 Y109.489 E0.00415
G1 X150.054 Y135.228 E0.80706
G1 X150.808 Y135.228 E0.02365
G1 X150.808 Y109.489 E0.80706
G1 X151.562 Y109.489 E0.02365
G1 X151.562 Y135.228 E0.80706
G1 X152.316 Y135.228 E0.02365
G1 X152.316 Y109.489 E0.80706
G1 X153.070 Y109.489 E0.02365
G1 X153.070 Y135.228 E0.80706
G1 X153.824 Y135.228 E0.02365
G1 X153.824 Y109.489 E0.80706
G1 X154.579 Y109.489 E0.02365
G1 X154.579 Y135.228 E0.80706
G1 X155.333 Y135.228 E0.02365
G1 X155.333 Y109.358 E0.81114
G1 X155.489 Y109.202 E0.00691
G1 X155.489 Y106.134 E0.09621
G1 X156.087 Y106.134 E0.01876
G1 X156.087 Y135.228 E0.91224
G1 X156.841 Y135.228 E0.02365
G1 X156.841 Y106.134 E0.91224
G1 X157.595 Y106.134 E0.02365
G1 X157.595 Y135.398 E0.91756
G1 F8640
G1 X157.595 Y132.107 E-0.76000
G1 E-0.04000 F2100.00000
G1 Z0.800 F10800.000
G1 X154.413 Y108.413
G1 Z0.200
G1 E0.80000 F2100.00000
G1 F1200
G1 X95.587 Y108.413 E1.84444
G1 X95.587 Y79.587 E0.90381
G1 X154.413 Y79.587 E1.84444
G1 X154.413 Y108.353 E0.90193
G1 X154.790 Y108.790 F10800.000
G1 F1200
G1 X95.210 Y108.790 E1.86809
G1 X95.210 Y79.210 E0.92746
G1 X154.790 Y79.210 E1.86809
G1 X154.790 Y108.730 E0.92558
G1 X154.395 Y108.729 F10800.000
G1 F8640
G1 X151.499 Y108.733 E-0.76000
G1 E-0.04000 F2100.00000
G1 Z0.800 F10800.000
G1 X154.300 Y80.466
G1 Z0.200
G1 E0.80000 F2100.00000
G1 F1200
G1 X153.704 Y79.870 E0.02653
G1 X153.169 Y79.870 E0.01686
G1 X154.130 Y80.831 E0.04281
G1 X154.130 Y81.367 E0.01686
G1 X152.633 Y79.870 E0.06665
G1 X152.098 Y79.870 E0.01686
G1 X154.130 Y81.902 E0.09048
G1 X154.130 Y82.438 E0.01686
G1 X151.562 Y79.870 E0.11432
G1 X151.027 Y79.870 E0.01686
G1 X154.130 Y82.973 E0.13816
G1 X154.130 Y83.509 E0.01686
G1 X150.491 Y79.870 E0.16200
G1 X149.956 Y79.870 E0.01686
G1 X154.130 Y84.044 E0.18584
G1 X154.130 Y84.579 E0.01686
G1 X149.421 Y79.870 E0.20967
G1 X148.885 Y79.870 E0.01686
G1 X154.130 Y85.115 E0.23351
G1 X154.130 Y85.650 E0.01686
G1 X148.350 Y79.870 E0.25735
G1 X147.814 Y79.870 E0.01686
G1 X154.130 Y86.186 E0.28119
G1 X154.130 Y86.721 E0.01686
G1 X147.279 Y79.870 E0.30502
G1 X146.743 Y79.870 E0.01686
G1 X154.130 Y87.257 E0.32886
G1 X154.130 Y87.792 E0.01686
G1 X146.208 Y79.870 E0.35270
G1 X145.673 Y79.870 E0.01686
G1 X154.130 Y88.327 E0.37654
G1 X154.130 Y88.863 E0.01686
G1 X145.137 Y79.870 E0.40038
G1 X144.602 Y79.870 E0.01686
G1 X154.130 Y89.398 E0.42421
G1 X154.130 Y89.934 E0.01686
G1 X144.066 Y79.870 E0.44805
G1 X143.531 Y79.870 E0.01686
G1 X154.130 Y90.469 E0.47189
M73 Q0 S223
G1 X154.130 Y91.005 E0.01686
G1 X142.995 Y79.870 E0.49573
M73 P0 R222
G1 X142.460 Y79.870 E0.01686
G1 X154.130 Y91.540 E0.51956
G1 X154.130 Y92.075 E0.01686
G1 X141.925 Y79.870 E0.54340
G1 X141.389 Y79.870 E0.01686
G1 X154.130 Y92.611 E0.56724
G1 X154.130 Y93.146 E0.01686
G1 X140.854 Y79.870 E0.59108
G1 X140.318 Y79.870 E0.01686
G1 X154.130 Y93.682 E0.61491
G1 X154.130 Y94.217 E0.01686
G1 X139.783 Y79.870 E0.63875
G1 X139.247 Y79.870 E0.01686
G1 X154.130 Y94.753 E0.66259
G1 X154.130 Y95.288 E0.01686
G1 X138.712 Y79.870 E0.68643
G1 X138.177 Y79.870 E0.01686
G1 X154.130 Y95.823 E0.71027
G1 X154.130 Y96.359 E0.01686
G1 X137.641 Y79.870 E0.73410
G1 X137.106 Y79.870 E0.01686
G1 X154.130 Y96.894 E0.75794
G1 X154.130 Y97.430 E0.01686
G1 X136.570 Y79.870 E0.78178
G1 X136.035 Y79.870 E0.01686
G1 X154.130 Y97.965 E0.80562
G1 X154.130 Y98.501 E0.01686
G1 X135.499 Y79.870 E0.82945
G1 X134.964 Y79.870 E0.01686
G1 X154.130 Y99.036 E0.85329
G1 X154.130 Y99.571 E0.01686
G1 X134.429 Y79.870 E0.87713
G1 X133.893 Y79.870 E0.01686
G1 X154.130 Y100.107 E0.90097
G1 X154.130 Y100.642 E0.01686
G1 X133.358 Y79.870 E0.92480
G1 X132.822 Y79.870 E0.01686
G1 X154.130 Y101.178 E0.94864
G1 X154.130 Y101.713 E0.01686
G1 X132.287 Y79.870 E0.97248
G1 X131.751 Y79.870 E0.01686
G1 X154.130 Y102.249 E0.99632
G1 X154.130 Y102.784 E0.01686
G1 X131.216 Y79.870 E1.02016
G1 X130.681 Y79.870 E0.01686
G1 X154.130 Y103.319 E1.04399
G1 X154.130 Y103.855 E0.01686
G1 X130.145 Y79.870 E1.06783
G1 X129.610 Y79.870 E0.01686
G1 X154.130 Y104.390 E1.09167
G1 X154.130 Y104.926 E0.01686
G1 X129.074 Y79.870 E1.11551
G1 X128.539 Y79.870 E0.01686
G1 X154.130 Y105.461 E1.13934
G1 X154.130 Y105.996 E0.01686
G1 X128.004 Y79.870 E1.16318
G1 X127.468 Y79.870 E0.01686
G1 X154.130 Y106.532 E1.18702
G1 X154.130 Y107.067 E0.01686
G1 X126.933 Y79.870 E1.21086
G1 X126.397 Y79.870 E0.01686
G1 X154.130 Y107.603 E1.23469
G1 X154.122 Y108.130 E0.01660
G1 X125.862 Y79.870 E1.25817
G1 X125.326 Y79.870 E0.01686
G1 X153.587 Y108.130 E1.25817
G1 X153.051 Y108.130 E0.01686
G1 X124.791 Y79.870 E1.25817
G1 X124.256 Y79.870 E0.01686
G1 X152.516 Y108.130 E1.25817
G1 X151.980 Y108.130 E0.01686
G1 X123.720 Y79.870 E1.25817
G1 X123.185 Y79.870 E0.01686
G1 X151.445 Y108.130 E1.25817
G1 X150.910 Y108.130 E0.01686
G1 X122.649 Y79.870 E1.25817
G1 X122.114 Y79.870 E0.01686
G1 X150.374 Y108.130 E1.25817
M73 Q1 S222
M73 P1 R221
G1 X149.839 Y108.130 E0.01686
G1 X121.578 Y79.870 E1.25817
G1 X121.043 Y79.870 E0.01686
G1 X149.303 Y108.130 E1.25817
G1 X148.768 Y108.130 E0.01686
G1 X120.508 Y79.870 E1.25817
G1 X119.972 Y79.870 E0.01686
G1 X148.232 Y108.130 E1.25817
G1 X147.697 Y108.130 E0.01686
G1 X119.437 Y79.870 E1.25817
G1 X118.901 Y79.870 E0.01686
G1 X147.162 Y108.130 E1.25817
G1 X146.626 Y108.130 E0.01686
G1 X118.366 Y79.870 E1.25817
G1 X117.830 Y79.870 E0.01686
G1 X146.091 Y108.130 E1.25817
G1 X145.555 Y108.130 E0.01686
G1 X117.295 Y79.870 E1.25817
G1 X116.760 Y79.870 E0.01686
G1 X145.020 Y108.130 E1.25817
G1 X144.484 Y108.130 E0.01686
G1 X116.224 Y79.870 E1.25817
G1 X115.689 Y79.870 E0.01686
G1 X143.949 Y108.130 E1.25817
G1 X143.414 Y108.130 E0.01686
G1 X115.153 Y79.870 E1.25817
G1 X114.618 Y79.870 E0.01686
G1 X142.878 Y108.130 E1.25817
G1 X142.343 Y108.130 E0.01686
G1 X114.082 Y79.870 E1.25817
G1 X113.547 Y79.870 E0.01686
G1 X141.807 Y108.130 E1.25817
G1 X141.272 Y108.130 E0.01686
G1 X113.012 Y79.870 E1.25817
G1 X112.476 Y79.870 E0.01686
G1 X140.736 Y108.130 E1.25817
G1 X140.201 Y108.130 E0.01686
G1 X111.941 Y79.870 E1.25817
G1 X111.405 Y79.870 E0.01686
G1 X139.666 Y108.130 E1.25817
G1 X139.130 Y108.130 E0.01686
G1 X110.870 Y79.870 E1.25817
G1 X110.334 Y79.870 E0.01686
G1 X138.595 Y108.130 E1.25817
G1 X138.059 Y108.130 E0.01686
G1 X109.799 Y79.870 E1.25817
G1 X109.264 Y79.870 E0.01686
G1 X137.524 Y108.130 E1.25817
G1 X136.988 Y108.130 E0.01686
G1 X108.728 Y79.870 E1.25817
G1 X108.193 Y79.870 E0.01686
G1 X136.453 Y108.130 E1.25817
G1 X135.918 Y108.130 E0.01686
G1 X107.657 Y79.870 E1.25817
G1 X107.122 Y79.870 E0.01686
G1 X135.382 Y108.130 E1.25817
G1 X134.847 Y108.130 E0.01686
G1 X106.586 Y79.870 E1.25817
G1 X106.051 Y79.870 E0.01686
G1 X134.311 Y108.130 E1.25817
M73 Q1 S221
M73 P1 R220
G1 X133.776 Y108.130 E0.01686
G1 X105.516 Y79.870 E1.25817
G1 X104.980 Y79.870 E0.01686
G1 X133.240 Y108.130 E1.25817
G1 X132.705 Y108.130 E0.01686
G1 X104.445 Y79.870 E1.25817
G1 X103.909 Y79.870 E0.01686
G1 X132.170 Y108.130 E1.25817
G1 X131.634 Y108.130 E0.01686
G1 X103.374 Y79.870 E1.25817
G1 X102.838 Y79.870 E0.01686
G1 X131.099 Y108.130 E1.25817
G1 X130.563 Y108.130 E0.01686
G1 X102.303 Y79.870 E1.25817
G1 X101.768 Y79.870 E0.01686
G1 X130.028 Y108.130 E1.25817
G1 X129.492 Y108.130 E0.01686
G1 X101.232 Y79.870 E1.25817
G1 X100.697 Y79.870 E0.01686
G1 X128.957 Y108.130 E1.25817
G1 X128.422 Y108.130 E0.01686
G1 X100.161 Y79.870 E1.25817
G1 X99.626 Y79.870 E0.01686
G1 X127.886 Y108.130 E1.25817
G1 X127.351 Y108.130 E0.01686
G1 X99.090 Y79.870 E1.25817
G1 X98.555 Y79.870 E0.01686
G1 X126.815 Y108.130 E1.25817
G1 X126.280 Y108.130 E0.01686
G1 X98.020 Y79.870 E1.25817
G1 X97.484 Y79.870 E0.01686
G1 X125.744 Y108.130 E1.25817
G1 X125.209 Y108.130 E0.01686
G1 X96.949 Y79.870 E1.25817
G1 X96.413 Y79.870 E0.01686
G1 X124.674 Y108.130 E1.25817
G1 X124.138 Y108.130 E0.01686
G1 X95.870 Y79.870 E1.25835
G1 X95.870 Y80.397 E0.01660
G1 X123.603 Y108.130 E1.23469
G1 X123.067 Y108.130 E0.01686
G1 X95.870 Y80.933 E1.21086
G1 X95.870 Y81.468 E0.01686
G1 X122.532 Y108.130 E1.18702
G1 X121.996 Y108.130 E0.01686
G1 X95.870 Y82.004 E1.16318
G1 X95.870 Y82.539 E0.01686
G1 X121.461 Y108.130 E1.13934
G1 X120.926 Y108.130 E0.01686
G1 X95.870 Y83.074 E1.11550
G1 X95.870 Y83.610 E0.01686
G1 X120.390 Y108.130 E1.09167
G1 X119.855 Y108.130 E0.01686
G1 X95.870 Y84.145 E1.06783
G1 X95.870 Y84.681 E0.01686
G1 X119.319 Y108.130 E1.04399
G1 X118.784 Y108.130 E0.01686
G1 X95.870 Y85.216 E1.02015
G1 X95.870 Y85.752 E0.01686
G1 X118.248 Y108.130 E0.99632
G1 X117.713 Y108.130 E0.01686
G1 X95.870 Y86.287 E0.97248
M73 Q2 S220
M73 P2 R219
G1 X95.870 Y86.822 E0.01686
G1 X117.178 Y108.130 E0.94864
G1 X116.642 Y108.130 E0.01686
G1 X95.870 Y87.358 E0.92480
G1 X95.870 Y87.893 E0.01686
G1 X116.107 Y108.130 E0.90097
G1 X115.571 Y108.130 E0.01686
G1 X95.870 Y88.429 E0.87713
G1 X95.870 Y88.964 E0.01686
G1 X115.036 Y108.130 E0.85329
G1 X114.500 Y108.130 E0.01686
G1 X95.870 Y89.500 E0.82945
G1 X95.870 Y90.035 E0.01686
G1 X113.965 Y108.130 E0.80561
G1 X113.430 Y108.130 E0.01686
G1 X95.870 Y90.570 E0.78178
G1 X95.870 Y91.106 E0.01686
G1 X112.894 Y108.130 E0.75794
G1 X112.359 Y108.130 E0.01686
G1 X95.870 Y91.641 E0.73410
G1 X95.870 Y92.177 E0.01686
G1 X111.823 Y108.130 E0.71026
G1 X111.288 Y108.130 E0.01686
G1 X95.870 Y92.712 E0.68643
G1 X95.870 Y93.248 E0.01686
G1 X110.752 Y108.130 E0.66259
G1 X110.217 Y108.130 E0.01686
G1 X95.870 Y93.783 E0.63875
G1 X95.870 Y94.318 E0.01686
G1 X109.682 Y108.130 E0.61491
G1 X109.146 Y108.130 E0.01686
G1 X95.870 Y94.854 E0.59108
G1 X95.870 Y95.389 E0.01686
G1 X108.611 Y108.130 E0.56724
G1 X108.075 Y108.130 E0.01686
G1 X95.870 Y95.925 E0.54340
G1 X95.870 Y96.460 E0.01686
G1 X107.540 Y108.130 E0.51956
G1 X107.005 Y108.130 E0.01686
G1 X95.870 Y96.995 E0.49572
G1 X95.870 Y97.531 E0.01686
G1 X106.469 Y108.130 E0.47189
G1 X105.934 Y108.130 E0.01686
G1 X95.870 Y98.066 E0.44805
G1 X95.870 Y98.602 E0.01686
G1 X105.398 Y108.130 E0.42421
G1 X104.863 Y108.130 E0.01686
G1 X95.870 Y99.137 E0.40037
G1 X95.870 Y99.673 E0.01686
G1 X104.327 Y108.130 E0.37654
G1 X103.792 Y108.130 E0.01686
G1 X95.870 Y100.208 E0.35270
G1 X95.870 Y100.743 E0.01686
G1 X103.257 Y108.130 E0.32886
G1 X102.721 Y108.130 E0.01686
G1 X95.870 Y101.279 E0.30502
G1 X95.870 Y101.814 E0.01686
G1 X102.186 Y108.130 E0.28118
G1 X101.650 Y108.130 E0.01686
G1 X95.870 Y102.350 E0.25735
G1 X95.870 Y102.885 E0.01686
G1 X101.115 Y108.130 E0.23351
