; generated by PrusaSlicer 2.1.1 on 2020-11-28 at 08:27:02 UTC

; 

; external perimeters extrusion width = 0.45mm
; perimeters extrusion width = 0.45mm
; infill extrusion width = 0.45mm
; solid infill extrusion width = 0.45mm
; top infill extrusion width = 0.40mm
; support material extrusion width = 0.35mm
; first layer extrusion width = 0.42mm

M73 P0 R25
M73 Q0 S25
M201 X1000 Y1000 Z200 E5000 ; sets maximum accelerations, mm/sec^2
M203 X200 Y200 Z12 E120 ; sets maximum feedrates, mm/sec
M204 P1250 R1250 T1250 ; sets acceleration (P, T) and retract acceleration (R), mm/sec^2
M205 X8.00 Y8.00 Z0.40 E4.50 ; sets the jerk limits, mm/sec
M205 S0 T0 ; sets the minimum extruding and travel feed rate, mm/sec
M107
M862.3 P "MK3S" ; printer model check
M862.1 P0.4 ; nozzle diameter check
M115 U3.9.1 ; tell printer latest fw version
G90 ; use absolute coordinates
M83 ; extruder relative mode
M104 S215 ; set extruder temp
M140 S60 ; set bed temp
M190 S60 ; wait for bed temp
M109 S215 ; wait for extruder temp
G28 W ; home all without mesh bed level
G80 ; mesh bed leveling
G1 Y-3.0 F1000.0 ; go outside print area
G92 E0.0
G1 X60.0 E9.0 F1000.0 ; intro line
M73 Q0 S25
M73 P0 R25
G1 X100.0 E12.5 F1000.0 ; intro line
G92 E0.0
M221 S95
G21 ; set units to millimeters
G90 ; use absolute coordinates
M83 ; use relative distances for extrusion
M900 K0.05 ; Filament gcode LA 1.5
M900 K30 ; Filament gcode LA 1.0
;BEFORE_LAYER_CHANGE
G92 E0.0
;0.2


G1 E-0.80000 F2100.00000
G1 Z0.600 F10800.000
;AFTER_LAYER_CHANGE
;0.2
G1 X111.339 Y99.715
G1 Z0.200
G1 E0.80000 F2100.00000
M204 S1000
G1 F1200
G1 X114.591 Y94.627 E0.18933
G1 X114.977 Y94.167 E0.01882
G1 X115.528 Y93.771 E0.02128
G1 X120.139 Y91.409 E0.16244
G1 X120.648 Y91.225 E0.01697
G1 X121.188 Y91.151 E0.01709
G1 X128.928 Y91.150 E0.24268
G1 X129.470 Y91.209 E0.01709
G1 X129.987 Y91.381 E0.01709
G1 X135.010 Y93.917 E0.17644
G1 X135.451 Y94.300 E0.01832
G1 X137.539 Y96.681 E0.09927
G1 X137.952 Y97.347 E0.02459
G1 X138.105 Y97.837 E0.01610
G1 X138.157 Y98.348 E0.01610
G1 X138.157 Y111.447 E0.41068
G1 X137.973 Y112.369 E0.02949
G1 X137.477 Y113.154 E0.02912
G1 X133.052 Y117.699 E0.19891
G1 X132.553 Y118.086 E0.01980
G1 X131.970 Y118.341 E0.01992
G1 X131.343 Y118.444 E0.01992
G1 X125.017 Y118.616 E0.19842
G1 X118.869 Y118.443 E0.19287
G1 X118.045 Y118.262 E0.02643
G1 X117.435 Y117.914 E0.02202
G1 X114.420 Y115.561 E0.11992
G1 X114.037 Y115.179 E0.01697
G1 X113.757 Y114.753 E0.01598
G1 X111.309 Y109.971 E0.16845
G1 X111.156 Y109.138 E0.02655
G1 X111.155 Y100.661 E0.26579
G1 X111.328 Y99.774 E0.02834
G1 X111.694 Y99.846 F10800.000
G1 F1200
G1 X114.907 Y94.834 E0.18670
G1 X115.238 Y94.440 E0.01612
G1 X115.712 Y94.100 E0.01828
G1 X120.311 Y91.745 E0.16201
G1 X121.206 Y91.528 E0.02889
G1 X128.927 Y91.527 E0.24210
G1 X129.392 Y91.578 E0.01464
G1 X129.838 Y91.727 E0.01475
G1 X134.799 Y94.230 E0.17423
G1 X135.178 Y94.561 E0.01578
G1 X137.251 Y96.925 E0.09859
G1 X137.609 Y97.504 E0.02134
G1 X137.780 Y98.351 E0.02710
G1 X137.780 Y111.440 E0.41041
G1 X137.618 Y112.242 E0.02563
G1 X137.193 Y112.906 E0.02473
G1 X132.786 Y117.431 E0.19804
G1 X132.354 Y117.766 E0.01714
G1 X131.855 Y117.982 E0.01703
G1 X131.323 Y118.068 E0.01692
G1 X125.022 Y118.239 E0.19761
G1 X118.895 Y118.067 E0.19220
G1 X118.174 Y117.907 E0.02315
G1 X117.662 Y117.613 E0.01851
G1 X114.660 Y115.270 E0.11939
G1 X114.327 Y114.938 E0.01475
G1 X111.661 Y109.838 E0.18044
G1 X111.533 Y109.129 E0.02259
G1 X111.532 Y100.662 E0.26548
G1 X111.682 Y99.905 E0.02418
G1 F8640
G1 X113.448 Y97.128 E-0.76000
G1 E-0.04000 F2100.00000
G1 Z0.800 F10800.000
G1 X113.721 Y109.097
G1 Z0.200
G1 E0.80000 F2100.00000
G1 F1200
G1 X113.721 Y100.669 E0.26426
G1 X114.475 Y100.669 E0.02365
G1 X114.475 Y108.927 E0.25894
G1 X115.229 Y108.927 E0.02365
G1 X115.229 Y100.669 E0.25894
G1 X115.983 Y100.669 E0.02365
G1 X115.983 Y108.927 E0.25894
G1 X116.030 Y108.927 E0.00145
G1 X116.030 Y113.563 E0.14535
G1 X116.738 Y113.563 E0.02219
G1 X116.738 Y96.033 E0.54963
G1 X117.492 Y96.033 E0.02365
G1 X117.492 Y113.563 E0.54963
G1 X118.246 Y113.563 E0.02365
G1 X118.246 Y96.033 E0.54963
G1 X119.000 Y96.033 E0.02365
G1 X119.000 Y115.881 E0.62230
G1 X119.754 Y115.881 E0.02365
G1 X119.754 Y96.033 E0.62230
G1 X120.508 Y96.033 E0.02365
G1 X120.508 Y115.881 E0.62230
G1 X121.262 Y115.881 E0.02365
G1 X121.262 Y93.716 E0.69498
G1 X122.017 Y93.716 E0.02365
G1 X122.017 Y115.881 E0.69498
G1 X122.771 Y115.881 E0.02365
G1 X122.771 Y93.716 E0.69498
G1 X123.525 Y93.716 E0.02365
G1 X123.525 Y115.881 E0.69498
G1 X124.279 Y115.881 E0.02365
G1 X124.279 Y106.224 E0.30279
G1 X124.122 Y106.117 E0.00596
G1 X123.975 Y105.983 E0.00622
G1 X123.854 Y105.839 E0.00593
G1 X123.750 Y105.674 E0.00610
G1 X123.633 Y105.385 E0.00979
G1 X123.592 Y105.191 E0.00621
G1 X123.580 Y104.996 E0.00613
G1 X123.592 Y104.810 E0.00582
G1 X123.633 Y104.615 E0.00624
G1 X123.749 Y104.327 E0.00976
G1 X123.854 Y104.162 E0.00612
G1 X123.975 Y104.017 E0.00594
G1 X124.122 Y103.883 E0.00621
G1 X124.279 Y103.776 E0.00596
G1 X124.279 Y93.716 E0.31545
G1 X125.033 Y93.716 E0.02365
G1 X125.033 Y103.580 E0.30930
G1 X125.240 Y103.600 E0.00650
G1 X125.435 Y103.648 E0.00630
G1 X125.616 Y103.720 E0.00612
G1 X125.787 Y103.818 E0.00618
G1 X125.787 Y93.716 E0.31675
G1 X126.542 Y93.716 E0.02365
G1 X126.542 Y115.881 E0.69498
G1 X127.296 Y115.881 E0.02365
G1 X127.296 Y93.716 E0.69498
G1 X128.050 Y93.716 E0.02365
G1 X128.050 Y115.881 E0.69498
G1 X128.804 Y115.881 E0.02365
G1 X128.804 Y93.716 E0.69498
G1 X128.924 Y93.716 E0.00375
G1 X128.924 Y96.033 E0.07267
G1 X129.558 Y96.033 E0.01990
G1 X129.558 Y115.881 E0.62230
G1 X130.312 Y115.881 E0.02365
G1 X130.312 Y96.033 E0.62230
G1 X131.067 Y96.033 E0.02365
G1 X131.067 Y115.881 E0.62230
G1 X131.242 Y115.881 E0.00549
G1 X131.242 Y113.563 E0.07267
G1 X131.821 Y113.563 E0.01816
G1 X131.821 Y96.033 E0.54963
G1 X132.575 Y96.033 E0.02365
G1 X132.575 Y113.563 E0.54963
G1 X133.329 Y113.563 E0.02365
G1 X133.329 Y96.033 E0.54963
G1 X133.559 Y96.033 E0.00722
G1 X133.559 Y98.351 E0.07267
G1 X134.083 Y98.351 E0.01643
G1 X134.083 Y111.245 E0.40428
G1 X134.837 Y111.245 E0.02365
G1 X134.837 Y98.351 E0.40428
G1 X135.591 Y98.351 E0.02365
G1 X135.591 Y111.415 E0.40960
G1 F8640
G1 X135.591 Y108.123 E-0.76000
G1 E-0.04000 F2100.00000
G1 Z0.800 F10800.000
G1 X125.787 Y116.050
G1 Z0.200
G1 E0.80000 F2100.00000
G1 F1200
G1 X125.787 Y106.182 E0.30942
G1 X125.616 Y106.280 E0.00618
G1 X125.435 Y106.352 E0.00613
G1 X125.241 Y106.400 E0.00627
G1 X125.033 Y106.420 E0.00653
G1 X125.033 Y116.050 E0.30197
G1 F8640
G1 X125.033 Y112.759 E-0.76000
G1 E-0.04000 F2100.00000
G1 Z0.800 F10800.000
G1 X125.033 Y105.254
G1 Z0.200
G1 E0.80000 F2100.00000
G1 F1200
G1 X125.033 Y104.746 E0.01591
G1 X125.110 Y104.310 F10800.000
G1 F1200
G1 X125.268 Y104.337 E0.00501
G1 X125.514 Y104.504 E0.00932
G1 X125.670 Y104.752 E0.00920
G1 X125.713 Y105.000 E0.00789
G1 X125.670 Y105.248 E0.00789
G1 X125.514 Y105.496 E0.00920
G1 X125.271 Y105.661 E0.00920
G1 X125.021 Y105.714 E0.00800
G1 X124.732 Y105.663 E0.00920
G1 X124.486 Y105.496 E0.00932
G1 X124.330 Y105.248 E0.00920
G1 X124.287 Y105.000 E0.00789
G1 X124.330 Y104.752 E0.00789
G1 X124.486 Y104.504 E0.00920
G1 X124.729 Y104.339 E0.00920
G1 X124.979 Y104.286 E0.00800
G1 X125.051 Y104.299 E0.00230
G1 X125.202 Y104.179 F10800.000
G1 X125.025 Y104.204
G1 F1200
G1 X125.192 Y104.228 E0.00531
G1 X125.349 Y104.285 E0.00522
G1 X125.490 Y104.373 E0.00522
G1 X125.610 Y104.489 E0.00522
G1 X125.747 Y104.725 E0.00858
G1 X125.788 Y104.889 E0.00531
G1 X125.794 Y105.059 E0.00533
G1 X125.727 Y105.324 E0.00855
G1 X125.644 Y105.468 E0.00522
G1 X125.530 Y105.594 E0.00533
G1 X125.298 Y105.738 E0.00855
G1 X125.138 Y105.784 E0.00522
G1 X124.972 Y105.795 E0.00522
G1 X124.808 Y105.772 E0.00522
G1 X124.651 Y105.715 E0.00522
G1 X124.510 Y105.627 E0.00522
G1 X124.390 Y105.511 E0.00522
G1 X124.253 Y105.275 E0.00858
G1 X124.212 Y105.111 E0.00531
G1 X124.206 Y104.941 E0.00533
G1 X124.273 Y104.676 E0.00855
G1 X124.356 Y104.532 E0.00522
G1 X124.468 Y104.409 E0.00522
G1 X124.602 Y104.311 E0.00522
G1 X124.754 Y104.243 E0.00522
G1 X124.965 Y104.206 E0.00671
G1 X125.108 Y104.352 F10800.000
M106 S255
;BEFORE_LAYER_CHANGE
G92 E0.0
;0.35


G1 F8640
G1 X125.192 Y104.228 E-0.05279
G1 X125.349 Y104.285 E-0.03842
G1 X125.490 Y104.373 E-0.03841
G1 X125.610 Y104.489 E-0.03841
G1 X125.747 Y104.725 E-0.06315
G1 X125.788 Y104.889 E-0.03908
G1 X125.794 Y105.059 E-0.03927
G1 X125.727 Y105.324 E-0.06298
G1 X125.644 Y105.468 E-0.03841
G1 X125.530 Y105.594 E-0.03926
G1 X125.298 Y105.738 E-0.06298
G1 X125.138 Y105.784 E-0.03841
G1 X124.972 Y105.795 E-0.03841
G1 X124.808 Y105.772 E-0.03841
G1 X124.651 Y105.715 E-0.03841
G1 X124.510 Y105.627 E-0.03841
G1 X124.390 Y105.511 E-0.03841
G1 X124.355 Y105.450 E-0.01638
G1 E-0.04000 F2100.00000
G1 Z0.800 F10800.000
;AFTER_LAYER_CHANGE
;0.35
M104 S210 ; set temperature
G1 X111.339 Y99.715
G1 Z0.350
G1 E0.80000 F2100.00000
G1 F900
G1 X114.591 Y94.627 E0.14604
G1 X114.977 Y94.167 E0.01451
G1 X115.528 Y93.771 E0.01641
G1 X120.139 Y91.409 E0.12530
G1 X120.648 Y91.225 E0.01309
G1 X121.188 Y91.151 E0.01318
G1 X128.928 Y91.150 E0.18719
G1 X129.470 Y91.209 E0.01318
G1 X129.987 Y91.381 E0.01318
G1 X135.010 Y93.917 E0.13610
G1 X135.451 Y94.300 E0.01413
G1 X137.539 Y96.681 E0.07657
G1 X137.952 Y97.347 E0.01897
G1 X138.105 Y97.837 E0.01242
G1 X138.157 Y98.348 E0.01242
G1 X138.157 Y111.447 E0.31678
G1 X137.973 Y112.369 E0.02274
G1 X137.477 Y113.154 E0.02246
G1 X133.052 Y117.699 E0.15343
G1 X132.553 Y118.086 E0.01527
G1 X131.970 Y118.341 E0.01537
G1 X131.343 Y118.444 E0.01537
G1 X125.017 Y118.616 E0.15305
G1 X118.869 Y118.443 E0.14877
G1 X118.045 Y118.262 E0.02039
G1 X117.435 Y117.914 E0.01698
G1 X114.420 Y115.561 E0.09250
G1 X114.037 Y115.179 E0.01309
G1 X113.757 Y114.753 E0.01233
G1 X111.309 Y109.971 E0.12994
G1 X111.156 Y109.138 E0.02048
G1 X111.155 Y100.661 E0.20501
G1 X111.328 Y99.774 E0.02186
G1 F8640
G1 X113.090 Y96.994 E-0.76000
G1 E-0.04000 F2100.00000
G1 Z0.950 F10800.000
G1 X124.332 Y104.707
G1 Z0.350
G1 E0.80000 F2100.00000
M204 S800
G1 F900
G1 X124.478 Y104.491 E0.00680
G1 X124.723 Y104.325 E0.00770
G1 X124.979 Y104.271 E0.00680
G1 X125.273 Y104.323 E0.00780
G1 X125.522 Y104.491 E0.00780
G1 X125.668 Y104.707 E0.00680
G1 X125.730 Y105.000 E0.00780
G1 X125.668 Y105.293 E0.00780
G1 X125.522 Y105.509 E0.00680
G1 X125.277 Y105.675 E0.00770
G1 X125.021 Y105.729 E0.00680
G1 X124.727 Y105.677 E0.00780
G1 X124.475 Y105.507 E0.00791
G1 X124.316 Y105.253 E0.00780
G1 X124.271 Y104.996 E0.00680
G1 X124.320 Y104.766 E0.00613
M204 S1000
G1 X124.176 Y104.498 F10800.000
G1 X124.239 Y104.778
M204 S800
G1 F900
G1 X124.359 Y104.534 E0.00707
G1 X124.470 Y104.411 E0.00432
G1 X124.604 Y104.314 E0.00432
G1 X124.755 Y104.246 E0.00432
G1 X124.921 Y104.211 E0.00442
G1 X125.192 Y104.231 E0.00707
G1 X125.347 Y104.288 E0.00432
G1 X125.488 Y104.375 E0.00432
G1 X125.607 Y104.491 E0.00432
G1 X125.700 Y104.628 E0.00432
G1 X125.785 Y104.888 E0.00712
G1 X125.791 Y105.055 E0.00437
G1 X125.761 Y105.222 E0.00442
G1 X125.641 Y105.466 E0.00707
G1 X125.530 Y105.589 E0.00432
G1 X125.395 Y105.688 E0.00437
G1 X125.138 Y105.780 E0.00712
G1 X124.864 Y105.781 E0.00712
G1 X124.703 Y105.735 E0.00437
G1 X124.557 Y105.657 E0.00432
G1 X124.430 Y105.551 E0.00432
G1 X124.328 Y105.420 E0.00432
G1 X124.255 Y105.271 E0.00432
G1 X124.215 Y105.110 E0.00432
G1 X124.209 Y104.945 E0.00432
G1 X124.228 Y104.837 E0.00285
M204 S1000
G1 X124.505 Y104.725 F10800.000
;BEFORE_LAYER_CHANGE
G92 E0.0
;0.449328


G1 F8640
G1 X124.359 Y104.534 E-0.07610
G1 X124.470 Y104.411 E-0.03827
G1 X124.604 Y104.314 E-0.03826
G1 X124.755 Y104.246 E-0.03826
G1 X124.921 Y104.211 E-0.03913
G1 X125.192 Y104.231 E-0.06269
G1 X125.347 Y104.288 E-0.03828
G1 X125.488 Y104.375 E-0.03826
G1 X125.607 Y104.491 E-0.03826
G1 X125.700 Y104.628 E-0.03826
G1 X125.785 Y104.888 E-0.06311
G1 X125.791 Y105.055 E-0.03871
G1 X125.761 Y105.222 E-0.03915
G1 X125.641 Y105.466 E-0.06269
G1 X125.530 Y105.589 E-0.03829
G1 X125.395 Y105.688 E-0.03871
G1 X125.258 Y105.737 E-0.03358
G1 E-0.04000 F2100.00000
G1 Z0.950 F10800.000
;AFTER_LAYER_CHANGE
;0.449328
G1 X128.414 Y112.911
G1 Z0.449
G1 E0.80000 F2100.00000
G1 F900
G1 X121.318 Y112.911 E0.21810
G1 X121.318 Y110.593 E0.07124
G1 X119.000 Y110.593 E0.07124
G1 X130.589 Y110.593 E0.35618
G1 X130.589 Y108.275 E0.07124
G1 X132.907 Y108.275 E0.07124
G1 X119.000 Y108.275 E0.42742
G1 X119.000 Y105.957 E0.07124
G1 X116.682 Y105.957 E0.07124
G1 X123.948 Y105.957 E0.22330
G1 X124.199 Y106.176 E0.01024
G1 X124.461 Y106.317 E0.00914
G1 X124.746 Y106.400 E0.00914
G1 X125.043 Y106.422 E0.00914
G1 X125.338 Y106.382 E0.00914
G1 X125.618 Y106.282 E0.00914
G1 X125.871 Y106.126 E0.00914
G1 X126.052 Y105.957 E0.00761
G1 X132.907 Y105.957 E0.21067
G1 X132.907 Y103.639 E0.07124
G1 X116.682 Y103.639 E0.49865
G1 X119.000 Y103.639 E0.07124
G1 X119.000 Y101.321 E0.07123
G1 X132.907 Y101.321 E0.42742
G1 X130.589 Y101.321 E0.07124
G1 X130.589 Y99.004 E0.07123
G1 X119.000 Y99.004 E0.35618
M73 Q4 S24
G1 X123.636 Y99.004 E0.14247
M73 P4 R24
G1 X123.636 Y96.686 E0.07123
G1 X126.096 Y96.686 E0.07563
;BEFORE_LAYER_CHANGE
G92 E0.0
;0.5


G1 F8640
G1 X123.636 Y96.686 E-0.56822
G1 X123.636 Y97.516 E-0.19178
G1 E-0.04000 F2100.00000
G1 Z1.049 F10800.000
;AFTER_LAYER_CHANGE
;0.5
G1 X111.339 Y99.715
G1 Z0.500
G1 E0.80000 F2100.00000
G1 F900
G1 X114.591 Y94.627 E0.14604
G1 X114.977 Y94.167 E0.01451
G1 X115.528 Y93.771 E0.01641
G1 X120.139 Y91.409 E0.12530
G1 X120.648 Y91.225 E0.01309
G1 X121.188 Y91.151 E0.01318
G1 X128.928 Y91.150 E0.18719
G1 X129.470 Y91.209 E0.01318
G1 X129.987 Y91.381 E0.01318
G1 X135.010 Y93.917 E0.13610
G1 X135.451 Y94.300 E0.01413
G1 X137.539 Y96.681 E0.07657
G1 X137.952 Y97.347 E0.01897
G1 X138.105 Y97.837 E0.01242
G1 X138.157 Y98.348 E0.01242
G1 X138.157 Y111.447 E0.31678
G1 X137.973 Y112.369 E0.02274
G1 X137.477 Y113.154 E0.02246
G1 X133.052 Y117.699 E0.15343
G1 X132.553 Y118.086 E0.01527
G1 X131.970 Y118.341 E0.01537
G1 X131.343 Y118.444 E0.01537
G1 X125.017 Y118.616 E0.15305
G1 X118.869 Y118.443 E0.14877
G1 X118.045 Y118.262 E0.02039
G1 X117.435 Y117.914 E0.01698
G1 X114.420 Y115.561 E0.09250
G1 X114.037 Y115.179 E0.01309
G1 X113.757 Y114.753 E0.01233
G1 X111.309 Y109.971 E0.12994
G1 X111.156 Y109.138 E0.02048
G1 X111.155 Y100.661 E0.20501
G1 X111.328 Y99.774 E0.02186
G1 F8640
G1 X113.090 Y96.994 E-0.76000
G1 E-0.04000 F2100.00000
G1 Z1.100 F10800.000
G1 X124.332 Y104.707
G1 Z0.500
G1 E0.80000 F2100.00000
M204 S800
G1 F900
G1 X124.476 Y104.494 E0.00670
G1 X124.684 Y104.343 E0.00670
G1 X124.975 Y104.270 E0.00780
G1 X125.273 Y104.323 E0.00791
G1 X125.525 Y104.493 E0.00791
G1 X125.684 Y104.747 E0.00780
G1 X125.729 Y105.004 E0.00680
G1 X125.668 Y105.293 E0.00770
G1 X125.522 Y105.509 E0.00680
G1 X125.277 Y105.675 E0.00770
G1 X125.021 Y105.729 E0.00680
G1 X124.727 Y105.677 E0.00780
G1 X124.475 Y105.507 E0.00791
G1 X124.316 Y105.253 E0.00780
G1 X124.271 Y104.996 E0.00680
G1 X124.320 Y104.766 E0.00613
M204 S1000
G1 X124.178 Y104.501 F10800.000
G1 X124.214 Y104.837
M204 S800
G1 F900
G1 X124.267 Y104.673 E0.00448
G1 X124.351 Y104.528 E0.00437
G1 X124.463 Y104.403 E0.00437
G1 X124.599 Y104.305 E0.00437
G1 X124.752 Y104.237 E0.00437
G1 X124.920 Y104.201 E0.00447
G1 X125.194 Y104.221 E0.00717
G1 X125.352 Y104.279 E0.00438
G1 X125.494 Y104.367 E0.00437
G1 X125.615 Y104.484 E0.00437
G1 X125.709 Y104.623 E0.00437
G1 X125.795 Y104.887 E0.00724
G1 X125.786 Y105.163 E0.00719
G1 X125.733 Y105.327 E0.00448
G1 X125.649 Y105.472 E0.00437
G1 X125.537 Y105.597 E0.00437
G1 X125.401 Y105.695 E0.00438
G1 X125.143 Y105.790 E0.00717
G1 X124.972 Y105.802 E0.00447
G1 X124.806 Y105.779 E0.00437
G1 X124.648 Y105.721 E0.00438
G1 X124.505 Y105.632 E0.00440
G1 X124.319 Y105.425 E0.00724
G1 X124.246 Y105.275 E0.00437
G1 X124.205 Y105.112 E0.00437
G1 X124.205 Y104.896 E0.00561
M204 S1000
G1 X124.376 Y104.780 F10800.000
;BEFORE_LAYER_CHANGE
G92 E0.0
;0.65


G1 F8640
G1 X124.267 Y104.673 E-0.05336
G1 X124.351 Y104.528 E-0.03875
G1 X124.463 Y104.403 E-0.03875
G1 X124.599 Y104.305 E-0.03875
G1 X124.752 Y104.237 E-0.03875
