; generated by PrusaSlicer 2.1.1 on 2020-08-15 at 18:58:39 UTC

; 

; external perimeters extrusion width = 0.60mm
; perimeters extrusion width = 0.50mm
; infill extrusion width = 0.50mm
; solid infill extrusion width = 0.50mm
; top infill extrusion width = 0.45mm
; support material extrusion width = 0.38mm
; first layer extrusion width = 0.42mm

M73 P0 R57
M73 Q0 S57
M201 X1000 Y1000 Z200 E5000 ; sets maximum accelerations, mm/sec^2
M203 X200 Y200 Z12 E120 ; sets maximum feedrates, mm/sec
M204 P1250 R1250 T1250 ; sets acceleration (P, T) and retract acceleration (R), mm/sec^2
M205 X8.00 Y8.00 Z0.40 E4.50 ; sets the jerk limits, mm/sec
M205 S0 T0 ; sets the minimum extruding and travel feed rate, mm/sec
M107
M862.3 P "MK3S" ; printer model check
M862.1 P0.4 ; nozzle diameter check
M115 U3.9.0 ; tell printer latest fw version
G90 ; use absolute coordinates
M83 ; extruder relative mode
M104 S215 ; set extruder temp
M140 S60 ; set bed temp
M190 S60 ; wait for bed temp
M109 S215 ; wait for extruder temp
G28 W ; home all without mesh bed level
G80 ; mesh bed leveling
G1 Y-3.0 F1000.0 ; go outside print area
G92 E0.0
G1 X60.0 E9.0 F1000.0 ; intro line
M73 Q0 S57
M73 P0 R57
G1 X100.0 E12.5 F1000.0 ; intro line
G92 E0.0
M221 S95
G21 ; set units to millimeters
G90 ; use absolute coordinates
M83 ; use relative distances for extrusion
M900 K0.06 ; Filament gcode LA 1.5
M900 K30 ; Filament gcode LA 1.0
;BEFORE_LAYER_CHANGE
G92 E0.0
;0.2


G1 E-0.80000 F2100.00000
G1 Z0.600 F10800.000
;AFTER_LAYER_CHANGE
;0.2
G1 X79.186 Y97.115
G1 Z0.200
G1 E0.80000 F2100.00000
M204 S1000
G1 F1200
G1 X79.801 Y96.859 E0.02089
G1 X94.005 Y94.489 E0.45150
G1 X128.816 Y92.168 E1.09390
G1 X161.777 Y91.994 E1.03349
G1 X164.997 Y92.174 E0.10112
G1 X165.720 Y92.371 E0.02349
G1 X170.601 Y94.898 E0.17235
G1 X170.962 Y95.227 E0.01532
G1 X171.241 Y95.629 E0.01532
G1 X171.424 Y96.082 E0.01532
G1 X171.501 Y96.564 E0.01532
G1 X171.504 Y112.057 E0.48576
G1 X171.359 Y112.821 E0.02439
G1 X170.889 Y113.559 E0.02743
G1 X168.307 Y115.978 E0.11093
G1 X163.512 Y118.455 E0.16923
G1 X163.050 Y118.626 E0.01544
G1 X162.554 Y118.689 E0.01567
G1 X144.434 Y118.858 E0.56818
G1 X140.368 Y118.683 E0.12759
G1 X108.068 Y116.367 E1.01535
G1 X80.109 Y114.217 E0.87922
G1 X79.460 Y114.050 E0.02100
G1 X78.893 Y113.694 E0.02100
G1 X78.459 Y113.184 E0.02100
G1 X78.199 Y112.562 E0.02112
G1 X78.136 Y112.045 E0.01635
G1 X78.147 Y98.761 E0.41649
G1 X78.316 Y98.113 E0.02100
G1 X78.674 Y97.547 E0.02100
G1 X79.140 Y97.153 E0.01912
G1 F8640
G1 X79.801 Y96.859 E-0.16710
G1 X82.334 Y96.436 E-0.59290
G1 E-0.04000 F2100.00000
G1 Z0.800 F10800.000
G1 X80.324 Y112.039
G1 Z0.200
G1 E0.80000 F2100.00000
G1 F1200
G1 X80.324 Y98.984 E0.40933
G1 X81.078 Y98.984 E0.02365
G1 X81.078 Y111.869 E0.40401
G1 X81.833 Y111.869 E0.02365
G1 X81.833 Y98.984 E0.40401
G1 X82.587 Y98.984 E0.02365
G1 X82.587 Y111.869 E0.40401
G1 X83.341 Y111.869 E0.02365
G1 X83.341 Y98.984 E0.40401
G1 X84.095 Y98.984 E0.02365
G1 X84.095 Y111.869 E0.40401
G1 X84.849 Y111.869 E0.02365
G1 X84.849 Y98.984 E0.40401
G1 X85.603 Y98.984 E0.02365
G1 X85.603 Y111.869 E0.40401
G1 X86.358 Y111.869 E0.02365
G1 X86.358 Y98.984 E0.40401
G1 X87.112 Y98.984 E0.02365
G1 X87.112 Y111.869 E0.40401
G1 X87.866 Y111.869 E0.02365
G1 X87.866 Y98.984 E0.40401
G1 X88.620 Y98.984 E0.02365
G1 X88.620 Y111.869 E0.40401
G1 X89.374 Y111.869 E0.02365
G1 X89.374 Y98.984 E0.40401
G1 X90.128 Y98.984 E0.02365
G1 X90.128 Y111.869 E0.40401
G1 X90.883 Y111.869 E0.02365
G1 X90.883 Y98.984 E0.40401
G1 X91.637 Y98.984 E0.02365
G1 X91.637 Y111.869 E0.40401
G1 X92.391 Y111.869 E0.02365
G1 X92.391 Y98.984 E0.40401
G1 X93.145 Y98.984 E0.02365
G1 X93.145 Y111.869 E0.40401
G1 X93.899 Y111.869 E0.02365
G1 X93.899 Y98.984 E0.40401
G1 X94.212 Y98.984 E0.00982
G1 X94.212 Y96.668 E0.07260
G1 X94.653 Y96.668 E0.01383
G1 X94.653 Y111.869 E0.47661
G1 X95.407 Y111.869 E0.02365
G1 X95.407 Y96.668 E0.47661
G1 X96.162 Y96.668 E0.02365
G1 X96.162 Y111.869 E0.47661
G1 X96.916 Y111.869 E0.02365
G1 X96.916 Y96.668 E0.47661
G1 X97.670 Y96.668 E0.02365
G1 X97.670 Y111.869 E0.47661
G1 X98.424 Y111.869 E0.02365
G1 X98.424 Y96.668 E0.47661
G1 X99.178 Y96.668 E0.02365
G1 X99.178 Y111.869 E0.47661
G1 X99.932 Y111.869 E0.02365
G1 X99.932 Y96.668 E0.47661
G1 X100.687 Y96.668 E0.02365
G1 X100.687 Y111.869 E0.47661
G1 X101.441 Y111.869 E0.02365
G1 X101.441 Y96.668 E0.47661
G1 X102.195 Y96.668 E0.02365
G1 X102.195 Y111.869 E0.47661
G1 X102.949 Y111.869 E0.02365
G1 X102.949 Y96.668 E0.47661
G1 X103.703 Y96.668 E0.02365
G1 X103.703 Y111.869 E0.47661
G1 X104.457 Y111.869 E0.02365
G1 X104.457 Y96.668 E0.47661
G1 X105.212 Y96.668 E0.02365
G1 X105.212 Y111.869 E0.47661
G1 X105.966 Y111.869 E0.02365
G1 X105.966 Y96.668 E0.47661
G1 X106.720 Y96.668 E0.02365
G1 X106.720 Y111.869 E0.47661
G1 X107.474 Y111.869 E0.02365
G1 X107.474 Y96.668 E0.47661
G1 X108.228 Y96.668 E0.02365
G1 X108.228 Y114.185 E0.54922
G1 X108.982 Y114.185 E0.02365
G1 X108.982 Y96.668 E0.54922
G1 X109.736 Y96.668 E0.02365
G1 X109.736 Y114.185 E0.54922
G1 X110.491 Y114.185 E0.02365
G1 X110.491 Y96.668 E0.54922
G1 X111.245 Y96.668 E0.02365
G1 X111.245 Y114.185 E0.54922
G1 X111.999 Y114.185 E0.02365
G1 X111.999 Y96.668 E0.54922
G1 X112.753 Y96.668 E0.02365
G1 X112.753 Y114.185 E0.54922
G1 X113.507 Y114.185 E0.02365
G1 X113.507 Y96.668 E0.54922
G1 X114.261 Y96.668 E0.02365
G1 X114.261 Y114.185 E0.54922
G1 X115.016 Y114.185 E0.02365
G1 X115.016 Y96.668 E0.54922
G1 X115.770 Y96.668 E0.02365
G1 X115.770 Y114.185 E0.54922
G1 X116.524 Y114.185 E0.02365
G1 X116.524 Y96.668 E0.54922
G1 X117.278 Y96.668 E0.02365
G1 X117.278 Y114.185 E0.54922
G1 X118.032 Y114.185 E0.02365
G1 X118.032 Y96.668 E0.54922
G1 X118.786 Y96.668 E0.02365
G1 X118.786 Y114.185 E0.54922
G1 X119.541 Y114.185 E0.02365
G1 X119.541 Y96.668 E0.54922
G1 X120.295 Y96.668 E0.02365
G1 X120.295 Y114.185 E0.54922
G1 X121.049 Y114.185 E0.02365
G1 X121.049 Y96.668 E0.54922
M73 Q1 S56
G1 X121.803 Y96.668 E0.02365
G1 X121.803 Y114.185 E0.54922
M73 P1 R56
G1 X122.557 Y114.185 E0.02365
G1 X122.557 Y96.668 E0.54922
G1 X123.311 Y96.668 E0.02365
G1 X123.311 Y114.185 E0.54922
G1 X124.066 Y114.185 E0.02365
G1 X124.066 Y96.668 E0.54922
G1 X124.820 Y96.668 E0.02365
G1 X124.820 Y114.185 E0.54922
G1 X125.574 Y114.185 E0.02365
G1 X125.574 Y96.668 E0.54922
G1 X126.328 Y96.668 E0.02365
G1 X126.328 Y114.185 E0.54922
G1 X127.082 Y114.185 E0.02365
G1 X127.082 Y96.668 E0.54922
G1 X127.836 Y96.668 E0.02365
G1 X127.836 Y114.185 E0.54922
G1 X128.590 Y114.185 E0.02365
G1 X128.590 Y96.668 E0.54922
G1 X128.947 Y96.668 E0.01117
G1 X128.947 Y94.352 E0.07260
G1 X129.345 Y94.352 E0.01248
G1 X129.345 Y114.185 E0.62182
G1 X130.099 Y114.185 E0.02365
G1 X130.099 Y94.352 E0.62182
G1 X130.853 Y94.352 E0.02365
G1 X130.853 Y114.185 E0.62182
G1 X131.607 Y114.185 E0.02365
G1 X131.607 Y94.352 E0.62182
G1 X132.361 Y94.352 E0.02365
G1 X132.361 Y114.185 E0.62182
G1 X133.115 Y114.185 E0.02365
G1 X133.115 Y94.352 E0.62182
G1 X133.870 Y94.352 E0.02365
G1 X133.870 Y114.185 E0.62182
G1 X134.624 Y114.185 E0.02365
G1 X134.624 Y94.352 E0.62182
G1 X135.378 Y94.352 E0.02365
G1 X135.378 Y114.185 E0.62182
G1 X136.132 Y114.185 E0.02365
G1 X136.132 Y94.352 E0.62182
G1 X136.886 Y94.352 E0.02365
G1 X136.886 Y114.185 E0.62182
G1 X137.640 Y114.185 E0.02365
G1 X137.640 Y94.352 E0.62182
G1 X138.395 Y94.352 E0.02365
G1 X138.395 Y114.185 E0.62182
G1 X139.149 Y114.185 E0.02365
G1 X139.149 Y94.352 E0.62182
G1 X139.903 Y94.352 E0.02365
G1 X139.903 Y114.185 E0.62182
G1 X140.525 Y114.185 E0.01950
G1 X140.525 Y116.500 E0.07260
G1 X140.657 Y116.500 E0.00415
G1 X140.657 Y94.352 E0.69443
G1 X141.411 Y94.352 E0.02365
G1 X141.411 Y116.500 E0.69443
G1 X142.165 Y116.500 E0.02365
G1 X142.165 Y94.352 E0.69443
G1 X142.919 Y94.352 E0.02365
G1 X142.919 Y116.500 E0.69443
G1 X143.674 Y116.500 E0.02365
G1 X143.674 Y94.352 E0.69443
G1 X144.428 Y94.352 E0.02365
G1 X144.428 Y116.670 E0.69975
G1 F8640
G1 X144.428 Y113.378 E-0.76000
G1 E-0.04000 F2100.00000
G1 Z0.800 F10800.000
G1 X145.931 Y109.042
G1 Z0.200
G1 E0.80000 F2100.00000
G1 F1200
G1 X145.931 Y101.953 E0.19869
G1 X146.446 Y101.953 E0.01445
G1 X146.446 Y108.900 E0.19471
G1 X146.962 Y108.900 E0.01445
G1 X146.962 Y101.953 E0.19471
G1 X147.478 Y101.953 E0.01445
G1 X147.478 Y108.900 E0.19471
G1 X147.993 Y108.900 E0.01445
G1 X147.993 Y101.953 E0.19471
G1 X148.509 Y101.953 E0.01445
G1 X148.509 Y108.900 E0.19471
G1 X149.025 Y108.900 E0.01445
G1 X149.025 Y101.953 E0.19471
G1 X149.540 Y101.953 E0.01445
G1 X149.540 Y108.900 E0.19471
G1 X150.056 Y108.900 E0.01445
G1 X150.056 Y101.953 E0.19471
G1 X150.441 Y101.953 E0.01079
G1 X150.441 Y99.637 E0.06490
G1 X150.571 Y99.637 E0.00366
G1 X150.571 Y108.900 E0.25961
G1 X151.087 Y108.900 E0.01445
G1 X151.087 Y99.637 E0.25961
G1 X151.603 Y99.637 E0.01445
G1 X151.603 Y109.042 E0.26359
G1 F8640
G1 X151.603 Y105.750 E-0.76000
G1 E-0.04000 F2100.00000
G1 Z0.800 F10800.000
G1 X157.274 Y111.357
G1 Z0.200
G1 E0.80000 F2100.00000
G1 F1200
G1 X157.274 Y105.688 E0.15890
G1 X157.208 Y105.887 E0.00588
G1 X157.153 Y105.978 E0.00298
G1 X157.019 Y106.112 E0.00531
G1 X157.019 Y107.693 E0.04432
G1 X156.759 Y107.806 E0.00795
G1 X156.759 Y111.215 E0.09556
G1 X156.243 Y111.215 E0.01445
G1 X156.243 Y107.977 E0.09078
G1 X155.728 Y108.051 E0.01460
G1 X155.728 Y111.215 E0.08869
G1 X155.212 Y111.215 E0.01445
G1 X155.212 Y106.769 E0.12462
G1 X154.696 Y106.593 E0.01527
G1 X154.696 Y111.215 E0.12956
G1 X154.181 Y111.215 E0.01445
G1 X154.181 Y106.216 E0.14014
G1 X153.665 Y106.216 E0.01445
G1 X153.665 Y111.215 E0.14014
G1 X153.149 Y111.215 E0.01445
G1 X153.149 Y106.216 E0.14014
G1 X152.634 Y106.216 E0.01445
G1 X152.634 Y108.900 E0.07524
G1 X152.118 Y108.900 E0.01445
G1 X152.118 Y106.097 E0.07856
G1 X151.984 Y105.969 E0.00519
G1 X151.927 Y105.880 E0.00297
G1 X151.646 Y105.078 E0.02384
G1 X151.646 Y104.922 E0.00435
G1 X151.745 Y104.637 E0.00847
G1 X152.118 Y104.637 E0.01046
G1 X152.118 Y99.637 E0.14014
G1 X152.634 Y99.637 E0.01445
G1 X152.634 Y104.637 E0.14014
G1 X153.125 Y104.637 E0.01377
G1 X153.125 Y103.073 E0.04383
G1 X153.149 Y103.059 E0.00079
G1 X153.149 Y99.637 E0.09591
G1 X153.665 Y99.637 E0.01445
G1 X153.665 Y102.638 E0.08410
G1 X153.963 Y102.411 E0.01049
G1 X154.181 Y102.322 E0.00661
G1 X154.181 Y99.637 E0.07524
G1 X154.696 Y99.637 E0.01445
G1 X154.696 Y102.322 E0.07524
G1 X155.212 Y102.322 E0.01445
G1 X155.212 Y99.637 E0.07524
G1 X155.728 Y99.637 E0.01445
G1 X155.728 Y102.322 E0.07524
G1 X156.243 Y102.322 E0.01445
G1 X156.243 Y99.637 E0.07524
G1 X156.759 Y99.637 E0.01445
G1 X156.759 Y102.322 E0.07524
G1 X157.019 Y102.322 E0.00729
G1 X157.019 Y103.888 E0.04391
G1 X157.153 Y104.022 E0.00531
G1 X157.208 Y104.113 E0.00298
G1 X157.274 Y104.312 E0.00588
G1 X157.274 Y99.637 E0.13102
G1 X157.790 Y99.637 E0.01445
G1 X157.790 Y111.215 E0.32452
G1 X158.306 Y111.215 E0.01445
G1 X158.306 Y99.637 E0.32452
G1 X158.821 Y99.637 E0.01445
G1 X158.821 Y111.215 E0.32452
G1 X159.337 Y111.215 E0.01445
G1 X159.337 Y99.637 E0.32452
G1 X159.703 Y99.637 E0.01027
G1 X159.703 Y101.953 E0.06490
G1 X159.853 Y101.953 E0.00419
G1 X159.853 Y106.584 E0.12981
G1 X160.368 Y106.584 E0.01445
G1 X160.368 Y101.953 E0.12981
G1 X160.884 Y101.953 E0.01445
G1 X160.884 Y106.584 E0.12981
G1 X161.399 Y106.584 E0.01445
G1 X161.399 Y101.953 E0.12981
G1 X161.915 Y101.953 E0.01445
G1 X161.915 Y106.726 E0.13379
G1 X169.315 Y112.039 F10800.000
G1 F1200
G1 X169.315 Y96.668 E0.48193
G1 X168.561 Y96.668 E0.02365
G1 X168.561 Y111.869 E0.47661
G1 X167.807 Y111.869 E0.02365
G1 X167.807 Y96.668 E0.47661
G1 X167.053 Y96.668 E0.02365
G1 X167.053 Y114.185 E0.54922
G1 X166.298 Y114.185 E0.02365
G1 X166.298 Y96.668 E0.54922
G1 X165.544 Y96.668 E0.02365
G1 X165.544 Y114.185 E0.54922
G1 X164.790 Y114.185 E0.02365
G1 X164.790 Y94.352 E0.62182
G1 X164.036 Y94.352 E0.02365
G1 X164.036 Y114.185 E0.62182
G1 X163.282 Y114.185 E0.02365
G1 X163.282 Y94.352 E0.62182
G1 X162.528 Y94.352 E0.02365
G1 X162.528 Y116.500 E0.69443
G1 X161.773 Y116.500 E0.02365
G1 X161.773 Y106.931 E0.30005
G1 X161.019 Y106.931 E0.02365
G1 X161.019 Y116.500 E0.30005
G1 X160.265 Y116.500 E0.02365
G1 X160.265 Y106.931 E0.30005
G1 X160.050 Y106.931 E0.00676
G1 X160.050 Y111.562 E0.14521
G1 X159.511 Y111.562 E0.01689
G1 X159.511 Y116.500 E0.15484
G1 X158.757 Y116.500 E0.02365
G1 X158.757 Y111.562 E0.15484
G1 X158.003 Y111.562 E0.02365
G1 X158.003 Y116.500 E0.15484
G1 X157.249 Y116.500 E0.02365
M73 Q3 S55
G1 X157.249 Y111.562 E0.15484
G1 X156.494 Y111.562 E0.02365
G1 X156.494 Y116.500 E0.15484
G1 X155.740 Y116.500 E0.02365
G1 X155.740 Y111.562 E0.15484
G1 X154.986 Y111.562 E0.02365
G1 X154.986 Y116.500 E0.15484
M73 P3 R55
G1 X154.232 Y116.500 E0.02365
G1 X154.232 Y111.562 E0.15484
G1 X153.478 Y111.562 E0.02365
G1 X153.478 Y116.500 E0.15484
G1 X152.724 Y116.500 E0.02365
G1 X152.724 Y111.562 E0.15484
G1 X152.410 Y111.562 E0.00983
G1 X152.410 Y109.246 E0.07260
G1 X151.969 Y109.246 E0.01381
G1 X151.969 Y116.500 E0.22745
G1 X151.215 Y116.500 E0.02365
G1 X151.215 Y109.246 E0.22745
G1 X150.461 Y109.246 E0.02365
G1 X150.461 Y116.500 E0.22745
G1 X149.707 Y116.500 E0.02365
G1 X149.707 Y109.246 E0.22745
G1 X148.953 Y109.246 E0.02365
G1 X148.953 Y116.500 E0.22745
G1 X148.199 Y116.500 E0.02365
G1 X148.199 Y109.246 E0.22745
G1 X147.444 Y109.246 E0.02365
G1 X147.444 Y116.500 E0.22745
G1 X146.690 Y116.500 E0.02365
G1 X146.690 Y109.246 E0.22745
G1 X145.936 Y109.246 E0.02365
G1 X145.936 Y116.500 E0.22745
G1 X145.182 Y116.500 E0.02365
G1 X145.182 Y94.352 E0.69443
G1 X145.936 Y94.352 E0.02365
G1 X145.936 Y101.607 E0.22745
G1 X146.690 Y101.607 E0.02365
G1 X146.690 Y94.352 E0.22745
G1 X147.444 Y94.352 E0.02365
G1 X147.444 Y101.607 E0.22745
G1 X148.199 Y101.607 E0.02365
G1 X148.199 Y94.352 E0.22745
G1 X148.953 Y94.352 E0.02365
G1 X148.953 Y101.607 E0.22745
G1 X149.707 Y101.607 E0.02365
G1 X149.707 Y94.352 E0.22745
G1 X150.461 Y94.352 E0.02365
G1 X150.461 Y99.291 E0.15484
G1 X151.215 Y99.291 E0.02365
G1 X151.215 Y94.352 E0.15484
G1 X151.969 Y94.352 E0.02365
G1 X151.969 Y99.291 E0.15484
G1 X152.724 Y99.291 E0.02365
G1 X152.724 Y94.352 E0.15484
G1 X153.478 Y94.352 E0.02365
G1 X153.478 Y99.291 E0.15484
G1 X154.232 Y99.291 E0.02365
G1 X154.232 Y94.352 E0.15484
G1 X154.986 Y94.352 E0.02365
G1 X154.986 Y99.291 E0.15484
G1 X155.740 Y99.291 E0.02365
G1 X155.740 Y94.352 E0.15484
G1 X156.494 Y94.352 E0.02365
G1 X156.494 Y99.291 E0.15484
G1 X157.249 Y99.291 E0.02365
G1 X157.249 Y94.352 E0.15484
G1 X158.003 Y94.352 E0.02365
G1 X158.003 Y99.291 E0.15484
G1 X158.757 Y99.291 E0.02365
G1 X158.757 Y94.352 E0.15484
G1 X159.511 Y94.352 E0.02365
G1 X159.511 Y99.291 E0.15484
G1 X160.050 Y99.291 E0.01689
G1 X160.050 Y101.607 E0.07260
G1 X160.265 Y101.607 E0.00676
G1 X160.265 Y94.352 E0.22745
G1 X161.019 Y94.352 E0.02365
G1 X161.019 Y101.607 E0.22745
G1 X161.773 Y101.607 E0.02365
G1 X161.773 Y94.183 E0.23277
G1 F8640
G1 X161.773 Y97.474 E-0.76000
G1 E-0.04000 F2100.00000
G1 Z0.800 F10800.000
G1 X155.594 Y104.205
G1 Z0.200
G1 E0.80000 F2100.00000
G1 F1200
G1 X155.986 Y104.331 E0.01291
G1 X156.274 Y104.621 E0.01283
G1 X156.394 Y105.000 E0.01247
G1 X156.274 Y105.379 E0.01247
G1 X155.986 Y105.669 E0.01281
G1 X155.603 Y105.791 E0.01259
G1 X155.221 Y105.669 E0.01259
G1 X154.933 Y105.379 E0.01281
G1 X154.812 Y105.000 E0.01247
G1 X154.933 Y104.621 E0.01247
G1 X155.224 Y104.328 E0.01294
G1 X155.537 Y104.224 E0.01034
G1 X155.598 Y103.810 F10800.000
G1 F1200
G1 X156.188 Y104.000 E0.01943
G1 X156.606 Y104.420 E0.01857
G1 X156.790 Y105.000 E0.01909
G1 X156.606 Y105.580 E0.01909
G1 X156.188 Y106.000 E0.01856
G1 X155.603 Y106.187 E0.01925
G1 X155.018 Y106.000 E0.01925
G1 X154.601 Y105.580 E0.01856
G1 X154.417 Y105.000 E0.01909
G1 X154.601 Y104.420 E0.01909
G1 X155.020 Y103.999 E0.01861
G1 X155.540 Y103.825 E0.01721
G1 X155.790 Y104.162 F10800.000
G1 F8640
G1 X156.188 Y104.000 E-0.15494
G1 X156.606 Y104.420 E-0.13674
G1 X156.790 Y105.000 E-0.14056
G1 X156.606 Y105.580 E-0.14056
G1 X156.188 Y106.000 E-0.13669
G1 X155.980 Y106.066 E-0.05050
G1 E-0.04000 F2100.00000
G1 Z0.800 F10800.000
G1 X154.946 Y104.954
G1 Z0.200
G1 E0.80000 F2100.00000
G1 F1200
