; generated by PrusaSlicer 2.2.0+win64 on 2020-07-15 at 16:32:14 UTC

; 

; external perimeters extrusion width = 0.45mm
; perimeters extrusion width = 0.45mm
; infill extrusion width = 0.45mm
; solid infill extrusion width = 0.45mm
; top infill extrusion width = 0.40mm
; first layer extrusion width = 0.42mm

M73 P0 R9
M73 Q0 S9
M201 X1000 Y1000 Z200 E5000 ; sets maximum accelerations, mm/sec^2
M203 X200 Y200 Z12 E120 ; sets maximum feedrates, mm/sec
M204 P1250 R1250 T1250 ; sets acceleration (P, T) and retract acceleration (R), mm/sec^2
M205 X8.00 Y8.00 Z0.40 E4.50 ; sets the jerk limits, mm/sec
M205 S0 T0 ; sets the minimum extruding and travel feed rate, mm/sec
M107
M862.3 P "MK3S" ; printer model check
M862.1 P0.4 ; nozzle diameter check
M115 U3.9.0 ; tell printer latest fw version
G90 ; use absolute coordinates
M83 ; extruder relative mode
M104 S215 ; set extruder temp
M140 S60 ; set bed temp
M190 S60 ; wait for bed temp
M109 S215 ; wait for extruder temp
G28 W ; home all without mesh bed level
G80 ; mesh bed leveling
G1 Y-3.0 F1000.0 ; go outside print area
G92 E0.0
G1 X60.0 E9.0 F1000.0 ; intro line
M73 Q0 S9
M73 P0 R9
G1 X100.0 E12.5 F1000.0 ; intro line
G92 E0.0
M221 S95
G21 ; set units to millimeters
G90 ; use absolute coordinates
M83 ; use relative distances for extrusion
M900 K0.06 ; Filament gcode LA 1.5
M900 K30 ; Filament gcode LA 1.0
;BEFORE_LAYER_CHANGE
G92 E0.0
;0.2


G1 E-0.80000 F2100.00000
G1 Z0.600 F10800.000
;AFTER_LAYER_CHANGE
;0.2
G1 X110.209 Y86.532
G1 Z0.200
G1 E0.80000 F2100.00000
M204 S1000
G1 F1200.000
G1 X111.173 Y86.271 E0.03132
G1 X113.493 Y86.262 E0.07273
G1 X133.069 Y88.287 E0.61707
G1 X133.981 Y88.581 E0.03006
G1 X134.738 Y89.170 E0.03006
G1 X135.244 Y89.975 E0.02980
G1 X135.446 Y90.907 E0.02993
G1 X135.448 Y107.541 E0.52152
G1 X135.384 Y108.106 E0.01784
G1 X135.206 Y108.646 E0.01784
G1 X134.920 Y109.138 E0.01784
G1 X134.539 Y109.561 E0.01784
G1 X133.843 Y110.019 E0.02612
G1 X133.046 Y110.247 E0.02600
G1 X113.684 Y112.263 E0.61037
G1 X110.837 Y112.212 E0.08928
G1 X110.028 Y111.905 E0.02714
G1 X109.354 Y111.361 E0.02714
G1 X108.844 Y110.545 E0.03018
G1 X108.646 Y109.599 E0.03031
G1 X108.682 Y88.567 E0.65943
G1 X108.868 Y87.931 E0.02078
G1 X109.198 Y87.361 E0.02065
G1 X109.653 Y86.886 E0.02065
G1 X110.158 Y86.564 E0.01877
G1 X110.419 Y86.850 F10800.000
G1 F1200.000
G1 X111.234 Y86.645 E0.02637
G1 X113.493 Y86.639 E0.07080
G1 X133.004 Y88.659 E0.61505
G1 X133.789 Y88.906 E0.02579
G1 X134.442 Y89.405 E0.02579
G1 X134.892 Y90.112 E0.02626
G1 X135.070 Y90.934 E0.02637
G1 X135.071 Y107.531 E0.52039
G1 X134.868 Y108.478 E0.03036
G1 X134.304 Y109.265 E0.03036
G1 X133.699 Y109.670 E0.02284
G1 X132.995 Y109.874 E0.02296
G1 X113.667 Y111.886 E0.60931
G1 X110.956 Y111.851 E0.08500
G1 X110.246 Y111.595 E0.02367
G1 X109.650 Y111.126 E0.02378
G1 X109.196 Y110.409 E0.02661
G1 X109.023 Y109.578 E0.02661
G1 X109.051 Y88.648 E0.65625
G1 X109.212 Y88.085 E0.01835
G1 X109.508 Y87.576 E0.01846
G1 X109.917 Y87.158 E0.01835
G1 X110.368 Y86.882 E0.01658
G1 F8640.000
G1 X111.234 Y86.645 E-0.20749
G1 X113.493 Y86.639 E-0.52143
G1 X113.626 Y86.653 E-0.03108
G1 E-0.04000 F2100.00000
G1 Z0.800 F10800.000
G1 X129.034 Y92.106
G1 Z0.200
G1 E0.80000 F2100.00000
G1 F1200.000
G1 X130.739 Y92.109 E0.05346
G1 X131.955 Y92.164 E0.03818
G1 X131.955 Y106.368 E0.44537
G1 X130.739 Y106.423 E0.03818
G1 X129.034 Y106.426 E0.05346
G1 X129.034 Y92.166 E0.44714
G1 X129.019 Y91.706 F10800.000
G1 F8640.000
G1 X130.739 Y92.109 E-0.39390
G1 X131.955 Y92.164 E-0.28118
G1 X131.955 Y92.532 E-0.08492
G1 E-0.04000 F2100.00000
G1 Z0.800 F10800.000
G1 X124.231 Y105.303
G1 Z0.200
G1 E0.80000 F2100.00000
G1 F1200.000
G1 X124.231 Y101.729 E0.11207
G1 X112.694 Y101.729 E0.36172
G1 X112.694 Y96.803 E0.15445
G1 X124.231 Y96.803 E0.36172
G1 X124.231 Y93.229 E0.11207
G1 X112.693 Y93.229 E0.36177
G1 X112.674 Y91.731 E0.04696
G1 X113.448 Y91.782 E0.02431
G1 X114.453 Y91.803 E0.03151
G1 X128.657 Y91.803 E0.44535
G1 X128.657 Y106.729 E0.46800
G1 X114.453 Y106.729 E0.44535
G1 X113.448 Y106.750 E0.03151
G1 X112.674 Y106.801 E0.02431
G1 X112.693 Y105.303 E0.04696
G1 X124.171 Y105.303 E0.35989
G1 X123.854 Y104.926 F10800.000
G1 F1200.000
G1 X123.854 Y102.106 E0.08842
G1 X112.317 Y102.106 E0.36172
G1 X112.317 Y96.426 E0.17809
G1 X123.854 Y96.426 E0.36172
G1 X123.854 Y93.606 E0.08842
G1 X112.317 Y93.606 E0.36174
G1 X112.313 Y92.010 E0.05005
G1 X112.255 Y91.010 E0.03140
G1 X112.265 Y89.412 E0.05010
G1 X112.623 Y89.412 E0.01124
G1 X112.633 Y91.351 E0.06078
G1 X113.464 Y91.405 E0.02614
G1 X114.457 Y91.426 E0.03113
G1 X132.289 Y91.426 E0.55911
G1 X132.300 Y92.025 E0.01878
G1 X132.333 Y92.523 E0.01565
G1 X132.333 Y106.009 E0.42286
G1 X132.300 Y106.507 E0.01565
G1 X132.289 Y107.106 E0.01878
G1 X114.457 Y107.106 E0.55911
G1 X113.464 Y107.127 E0.03113
G1 X112.633 Y107.181 E0.02614
G1 X112.623 Y109.120 E0.06078
G1 X112.265 Y109.120 E0.01124
G1 X112.255 Y107.522 E0.05010
G1 X112.313 Y106.522 E0.03140
G1 X112.317 Y104.926 E0.05005
G1 X123.794 Y104.926 E0.35986
G1 X124.254 Y104.908 F10800.000
G1 F8640.000
G1 X123.854 Y102.106 E-0.65129
G1 X123.383 Y102.106 E-0.10871
G1 E-0.04000 F2100.00000
G1 Z0.800 F10800.000
G1 X124.057 Y101.616
G1 Z0.200
G1 E0.80000 F2100.00000
G1 F1200.000
G1 X119.527 Y97.086 E0.20218
G1 X118.990 Y97.086 E0.01694
G1 X123.351 Y101.446 E0.19461
G1 X122.814 Y101.446 E0.01694
G1 X118.453 Y97.086 E0.19461
G1 X117.917 Y97.086 E0.01694
G1 X122.277 Y101.446 E0.19461
G1 X121.740 Y101.446 E0.01694
G1 X117.380 Y97.086 E0.19461
G1 X116.843 Y97.086 E0.01694
G1 X121.203 Y101.446 E0.19461
G1 X120.667 Y101.446 E0.01694
G1 X116.306 Y97.086 E0.19461
G1 X115.770 Y97.086 E0.01694
G1 X120.130 Y101.446 E0.19461
G1 X119.593 Y101.446 E0.01694
G1 X115.233 Y97.086 E0.19461
G1 X114.696 Y97.086 E0.01694
G1 X119.056 Y101.446 E0.19461
G1 X118.520 Y101.446 E0.01694
G1 X114.159 Y97.086 E0.19461
G1 X113.623 Y97.086 E0.01694
G1 X117.983 Y101.446 E0.19461
G1 X117.446 Y101.446 E0.01694
G1 X113.086 Y97.086 E0.19461
G1 X112.977 Y97.086 E0.00343
G1 X112.977 Y97.514 E0.01351
G1 X116.909 Y101.446 E0.17550
G1 X116.373 Y101.446 E0.01694
G1 X112.977 Y98.051 E0.15154
G1 X112.977 Y98.588 E0.01694
G1 X115.836 Y101.446 E0.12758
G1 X115.299 Y101.446 E0.01694
G1 X112.977 Y99.124 E0.10363
G1 X112.977 Y99.661 E0.01694
G1 X114.762 Y101.446 E0.07967
G1 X114.226 Y101.446 E0.01694
G1 X112.977 Y100.198 E0.05571
G1 X112.977 Y100.735 E0.01694
G1 X113.689 Y101.446 E0.03176
G1 X113.152 Y101.446 E0.01694
G1 X112.808 Y101.102 E0.01537
G1 F8640.000
G1 X113.152 Y101.446 E-0.11248
G1 X113.689 Y101.446 E-0.12394
G1 X112.977 Y100.735 E-0.23234
G1 X112.977 Y100.198 E-0.12394
G1 X113.490 Y100.710 E-0.16730
G1 E-0.04000 F2100.00000
G1 Z0.800 F10800.000
G1 X113.511 Y106.635
G1 Z0.200
G1 E0.80000 F2100.00000
G1 F1200.000
G1 X112.966 Y106.091 E0.02430
G1 X112.972 Y105.586 E0.01594
G1 X112.998 Y105.586 E0.00080
G1 X113.870 Y106.458 E0.03894
G1 X114.396 Y106.447 E0.01660
G1 X113.534 Y105.586 E0.03845
G1 X114.071 Y105.586 E0.01694
G1 X114.932 Y106.446 E0.03840
G1 X115.468 Y106.446 E0.01694
G1 X114.608 Y105.586 E0.03840
G1 X115.145 Y105.586 E0.01694
G1 X116.005 Y106.446 E0.03840
G1 X116.542 Y106.446 E0.01694
G1 X115.681 Y105.586 E0.03840
G1 X116.218 Y105.586 E0.01694
G1 X117.079 Y106.446 E0.03840
G1 X117.615 Y106.446 E0.01694
G1 X116.755 Y105.586 E0.03840
G1 X117.292 Y105.586 E0.01694
G1 X118.152 Y106.446 E0.03840
G1 X118.689 Y106.446 E0.01694
G1 X117.829 Y105.586 E0.03840
G1 X118.365 Y105.586 E0.01694
G1 X119.226 Y106.446 E0.03840
G1 X119.762 Y106.446 E0.01694
G1 X118.902 Y105.586 E0.03840
G1 X119.439 Y105.586 E0.01694
G1 X120.299 Y106.446 E0.03840
G1 X120.836 Y106.446 E0.01694
G1 X119.976 Y105.586 E0.03840
G1 X120.512 Y105.586 E0.01694
G1 X121.373 Y106.446 E0.03840
G1 X121.910 Y106.446 E0.01694
G1 X121.049 Y105.586 E0.03840
G1 X121.586 Y105.586 E0.01694
G1 X122.446 Y106.446 E0.03840
G1 X122.983 Y106.446 E0.01694
G1 X122.123 Y105.586 E0.03840
G1 X122.659 Y105.586 E0.01694
G1 X123.520 Y106.446 E0.03840
G1 X124.057 Y106.446 E0.01694
G1 X123.196 Y105.586 E0.03840
G1 X123.733 Y105.586 E0.01694
G1 X124.593 Y106.446 E0.03840
G1 X125.130 Y106.446 E0.01694
G1 X124.270 Y105.586 E0.03840
G1 X124.514 Y105.586 E0.00771
G1 X124.514 Y105.293 E0.00923
G1 X125.667 Y106.446 E0.05146
G1 X126.204 Y106.446 E0.01694
G1 X124.514 Y104.756 E0.07542
G1 X124.514 Y104.220 E0.01694
G1 X126.740 Y106.446 E0.09937
G1 X127.277 Y106.446 E0.01694
G1 X124.514 Y103.683 E0.12333
G1 X124.514 Y103.146 E0.01694
G1 X127.814 Y106.446 E0.14729
G1 X128.351 Y106.446 E0.01694
G1 X124.514 Y102.609 E0.17124
G1 X124.514 Y102.073 E0.01694
G1 X128.374 Y105.933 E0.17229
G1 X128.374 Y105.396 E0.01694
G1 X120.064 Y97.086 E0.37090
G1 X120.601 Y97.086 E0.01694
G1 X128.374 Y104.859 E0.34695
G1 X128.374 Y104.323 E0.01694
G1 X121.137 Y97.086 E0.32299
G1 X121.674 Y97.086 E0.01694
G1 X128.374 Y103.786 E0.29903
G1 X128.374 Y103.249 E0.01694
G1 X122.211 Y97.086 E0.27508
G1 X122.748 Y97.086 E0.01694
G1 X128.374 Y102.712 E0.25112
G1 X128.374 Y102.176 E0.01694
G1 X123.284 Y97.086 E0.22716
G1 X123.821 Y97.086 E0.01694
G1 X128.374 Y101.639 E0.20321
G1 X128.374 Y101.102 E0.01694
G1 X124.358 Y97.086 E0.17925
G1 X124.514 Y97.086 E0.00492
G1 X124.514 Y96.705 E0.01202
G1 X128.374 Y100.565 E0.17229
G1 X128.374 Y100.029 E0.01694
G1 X124.514 Y96.168 E0.17229
G1 X124.514 Y95.632 E0.01694
G1 X128.374 Y99.492 E0.17229
G1 X128.374 Y98.955 E0.01694
G1 X124.514 Y95.095 E0.17229
G1 X124.514 Y94.558 E0.01694
G1 X128.374 Y98.418 E0.17229
G1 X128.374 Y97.881 E0.01694
G1 X124.514 Y94.021 E0.17229
G1 X124.514 Y93.484 E0.01694
G1 X128.544 Y97.514 E0.17986
G1 F8640.000
G1 X126.216 Y95.187 E-0.76000
G1 E-0.04000 F2100.00000
G1 Z0.800 F10800.000
G1 X132.107 Y91.798
G1 Z0.200
G1 E0.80000 F2100.00000
G1 F1200.000
G1 X131.429 Y91.783 E0.02027
G1 X130.750 Y91.767 E0.01877
G1 X128.845 Y91.766 E0.04844
G1 X128.544 Y92.684 F10800.000
G1 F1200.000
G1 X127.946 Y92.086 E0.02668
G1 X127.409 Y92.086 E0.01694
G1 X128.374 Y93.051 E0.04307
G1 X128.374 Y93.587 E0.01694
G1 X126.872 Y92.086 E0.06702
G1 X126.336 Y92.086 E0.01694
G1 X128.374 Y94.124 E0.09098
G1 X128.374 Y94.661 E0.01694
G1 X125.799 Y92.086 E0.11494
G1 X125.262 Y92.086 E0.01694
G1 X128.374 Y95.198 E0.13889
G1 X128.374 Y95.734 E0.01694
G1 X124.725 Y92.086 E0.16285
G1 X124.189 Y92.086 E0.01694
G1 X128.374 Y96.271 E0.18681
G1 X128.374 Y96.808 E0.01694
G1 X123.652 Y92.086 E0.21076
G1 X123.115 Y92.086 E0.01694
G1 X123.975 Y92.946 E0.03840
G1 X123.439 Y92.946 E0.01694
G1 X122.578 Y92.086 E0.03840
G1 X122.042 Y92.086 E0.01694
G1 X122.902 Y92.946 E0.03840
G1 X122.365 Y92.946 E0.01694
G1 X121.505 Y92.086 E0.03840
G1 X120.968 Y92.086 E0.01694
G1 X121.828 Y92.946 E0.03840
G1 X121.292 Y92.946 E0.01694
G1 X120.431 Y92.086 E0.03840
G1 X119.894 Y92.086 E0.01694
G1 X120.755 Y92.946 E0.03840
G1 X120.218 Y92.946 E0.01694
G1 X119.358 Y92.086 E0.03840
G1 X118.821 Y92.086 E0.01694
G1 X119.681 Y92.946 E0.03840
G1 X119.145 Y92.946 E0.01694
G1 X118.284 Y92.086 E0.03840
G1 X117.747 Y92.086 E0.01694
G1 X118.608 Y92.946 E0.03840
G1 X118.071 Y92.946 E0.01694
G1 X117.211 Y92.086 E0.03840
G1 X116.674 Y92.086 E0.01694
G1 X117.534 Y92.946 E0.03840
G1 X116.998 Y92.946 E0.01694
G1 X116.137 Y92.086 E0.03840
G1 X115.600 Y92.086 E0.01694
G1 X116.461 Y92.946 E0.03840
G1 X115.924 Y92.946 E0.01694
G1 X115.064 Y92.086 E0.03840
G1 X114.527 Y92.086 E0.01694
G1 X115.387 Y92.946 E0.03840
G1 X114.851 Y92.946 E0.01694
G1 X113.980 Y92.076 E0.03884
G1 X113.432 Y92.064 E0.01731
G1 X114.314 Y92.946 E0.03935
G1 X113.777 Y92.946 E0.01694
G1 X112.962 Y92.131 E0.03637
G1 X112.969 Y92.675 E0.01715
G1 X113.410 Y93.116 E0.01969
G1 F8640.000
G1 X112.969 Y92.675 E-0.14403
G1 X112.962 Y92.131 E-0.12551
G1 X113.777 Y92.946 E-0.26610
G1 X114.314 Y92.946 E-0.12394
G1 X114.006 Y92.639 E-0.10043
G1 E-0.04000 F2100.00000
G1 Z0.800 F10800.000
G1 X128.845 Y106.766
G1 Z0.200
G1 E0.80000 F2100.00000
G1 F1200.000
G1 X130.750 Y106.765 E0.04844
G1 X131.429 Y106.749 E0.01877
G1 X132.107 Y106.734 E0.02027
M106 S255
;BEFORE_LAYER_CHANGE
G92 E0.0
;0.35


G1 F8640.000
G1 X131.429 Y106.749 E-0.15672
G1 E-0.64328 F2100.00000
G1 Z0.800 F10800.000
;AFTER_LAYER_CHANGE
;0.35
G1 X133.843 Y110.019
G1 Z0.350
G1 E0.80000 F2100.00000
G1 F3000.000
G1 X133.046 Y110.247 E0.02005
G1 X113.684 Y112.263 E0.47080
G1 X110.837 Y112.212 E0.06886
G1 X110.028 Y111.905 E0.02093
G1 X109.354 Y111.361 E0.02093
G1 X108.844 Y110.545 E0.02328
G1 X108.646 Y109.599 E0.02338
G1 X108.682 Y88.567 E0.50865
G1 X108.868 Y87.931 E0.01602
G1 X109.198 Y87.361 E0.01593
G1 X109.653 Y86.886 E0.01593
G1 X110.209 Y86.532 E0.01593
G1 X111.173 Y86.271 E0.02416
G1 X113.493 Y86.262 E0.05610
G1 X133.069 Y88.287 E0.47597
G1 X133.981 Y88.581 E0.02318
G1 X134.738 Y89.170 E0.02318
G1 X135.244 Y89.975 E0.02299
G1 X135.446 Y90.907 E0.02309
G1 X135.448 Y107.541 E0.40227
G1 X135.384 Y108.106 E0.01376
G1 X135.206 Y108.646 E0.01376
G1 X134.920 Y109.138 E0.01376
G1 X134.539 Y109.561 E0.01376
G1 X133.893 Y109.986 E0.01870
G1 F8640.000
G1 X133.046 Y110.247 E-0.20472
G1 X130.654 Y110.496 E-0.55528
G1 E-0.04000 F2100.00000
G1 Z0.950 F10800.000
G1 X134.868 Y108.478
G1 Z0.350
G1 E0.80000 F2100.00000
G1 F3000.000
G1 X134.304 Y109.265 E0.02342
G1 X133.699 Y109.670 E0.01762
G1 X132.995 Y109.874 E0.01771
G1 X113.667 Y111.886 E0.46998
G1 X110.956 Y111.851 E0.06556
G1 X110.246 Y111.595 E0.01825
G1 X109.650 Y111.126 E0.01835
G1 X109.196 Y110.409 E0.02052
G1 X109.023 Y109.578 E0.02052
G1 X109.051 Y88.648 E0.50619
G1 X109.212 Y88.085 E0.01415
G1 X109.508 Y87.576 E0.01424
G1 X109.917 Y87.158 E0.01415
G1 X110.419 Y86.850 E0.01424
G1 X111.234 Y86.645 E0.02034
G1 X113.493 Y86.639 E0.05461
G1 X133.004 Y88.659 E0.47442
G1 X133.789 Y88.906 E0.01989
G1 X134.442 Y89.405 E0.01989
G1 X134.892 Y90.112 E0.02025
G1 X135.070 Y90.934 E0.02034
G1 X135.071 Y107.531 E0.40140
G1 X134.880 Y108.419 E0.02197
G1 F8640.000
G1 X134.304 Y109.265 E-0.23635
G1 X133.699 Y109.670 E-0.16820
G1 X132.995 Y109.874 E-0.16907
G1 X132.192 Y109.957 E-0.18638
G1 E-0.04000 F2100.00000
G1 Z0.950 F10800.000
G1 X131.819 Y106.241
G1 Z0.350
G1 E0.80000 F2100.00000
M204 S800
G1 F1500.000
G1 X129.219 Y106.241 E0.06774
G1 X129.219 Y92.291 E0.36348
G1 X131.819 Y92.291 E0.06774
G1 X131.819 Y106.181 E0.36191
M204 S1000
G1 X131.844 Y106.640 F10800.000
G1 F8640.000
G1 X129.219 Y106.241 E-0.60051
G1 X129.219 Y105.550 E-0.15949
G1 E-0.04000 F2100.00000
G1 Z0.950 F10800.000
G1 X112.665 Y91.659
G1 Z0.350
G1 E0.80000 F2100.00000
M204 S800
G1 F2700.000
G1 X132.051 Y91.659 E0.50511
G1 X132.051 Y91.873 E0.00559
G1 X128.801 Y91.873 E0.08468
G1 X128.801 Y106.659 E0.38525
G1 X132.051 Y106.659 E0.08468
G1 X132.051 Y106.873 E0.00559
G1 X112.665 Y106.873 E0.50511
M73 Q11 S8
G1 X112.665 Y108.873 E0.05211
G1 X112.222 Y108.873 E0.01154
G1 X112.222 Y105.159 E0.09678
G1 X124.087 Y105.159 E0.30913
M73 P11 R8
G1 X124.087 Y101.873 E0.08561
G1 X112.222 Y101.873 E0.30913
G1 X112.222 Y96.659 E0.13586
G1 X124.087 Y96.659 E0.30913
G1 X124.087 Y93.373 E0.08561
G1 X112.222 Y93.373 E0.30913
G1 X112.222 Y89.659 E0.09678
G1 X112.665 Y89.659 E0.01154
G1 X112.665 Y91.599 E0.05055
M204 S1000
G1 X113.083 Y91.241 F10800.000
M204 S800
G1 F1500.000
G1 X132.469 Y91.241 E0.50511
G1 X132.469 Y107.291 E0.41820
G1 X113.083 Y107.291 E0.50511
G1 X113.083 Y109.291 E0.05211
G1 X111.805 Y109.291 E0.03332
G1 X111.805 Y104.741 E0.11855
G1 X123.669 Y104.741 E0.30913
G1 X123.669 Y102.291 E0.06384
G1 X111.805 Y102.291 E0.30913
G1 X111.805 Y96.241 E0.15764
G1 X123.669 Y96.241 E0.30913
G1 X123.669 Y93.791 E0.06384
G1 X111.805 Y93.791 E0.30913
G1 X111.805 Y89.241 E0.11855
G1 X113.083 Y89.241 E0.03332
G1 X113.083 Y91.181 E0.05055
M204 S1000
G1 X113.159 Y91.634 F10800.000
G1 X113.194 Y91.784
G1 F4208
G1 X112.536 Y92.442 E0.02430
G1 X112.536 Y93.034 E0.01545
G1 X113.598 Y91.972 E0.03921
G1 X114.190 Y91.972 E0.01545
G1 X113.102 Y93.060 E0.04015
G1 X113.694 Y93.060 E0.01545
G1 X114.782 Y91.972 E0.04015
G1 X115.374 Y91.972 E0.01545
G1 X114.286 Y93.060 E0.04015
G1 X114.878 Y93.060 E0.01545
G1 X115.966 Y91.972 E0.04015
G1 X116.558 Y91.972 E0.01545
G1 X115.470 Y93.060 E0.04015
G1 X116.062 Y93.060 E0.01545
