; generated by PrusaSlicer 2.1.1 on 2020-10-17 at 09:15:31 UTC

; 

; external perimeters extrusion width = 0.60mm
; perimeters extrusion width = 0.50mm
; infill extrusion width = 0.50mm
; solid infill extrusion width = 0.50mm
; top infill extrusion width = 0.45mm
; first layer extrusion width = 0.42mm

M73 P0 R89
M73 Q0 S89
M201 X1000 Y1000 Z200 E5000 ; sets maximum accelerations, mm/sec^2
M203 X200 Y200 Z12 E120 ; sets maximum feedrates, mm/sec
M204 P1250 R1250 T1250 ; sets acceleration (P, T) and retract acceleration (R), mm/sec^2
M205 X8.00 Y8.00 Z0.40 E4.50 ; sets the jerk limits, mm/sec
M205 S0 T0 ; sets the minimum extruding and travel feed rate, mm/sec
M107
M862.3 P "MK3S" ; printer model check
M862.1 P0.4 ; nozzle diameter check
M115 U3.9.1 ; tell printer latest fw version
G90 ; use absolute coordinates
M83 ; extruder relative mode
M104 S215 ; set extruder temp
M140 S60 ; set bed temp
M190 S60 ; wait for bed temp
M109 S215 ; wait for extruder temp
G28 W ; home all without mesh bed level
G80 ; mesh bed leveling
G1 Y-3.0 F1000.0 ; go outside print area
G92 E0.0
G1 X60.0 E9.0 F1000.0 ; intro line
M73 Q0 S89
M73 P0 R89
G1 X100.0 E12.5 F1000.0 ; intro line
G92 E0.0
M221 S95
G21 ; set units to millimeters
G90 ; use absolute coordinates
M83 ; use relative distances for extrusion
M900 K0.05 ; Filament gcode LA 1.5
M900 K30 ; Filament gcode LA 1.0
;BEFORE_LAYER_CHANGE
G92 E0.0
;0.2


G1 E-0.80000 F2100.00000
G1 Z0.600 F10800.000
;AFTER_LAYER_CHANGE
;0.2
G1 X80.774 Y69.436
G1 Z0.200
G1 E0.80000 F2100.00000
M204 S1000
G1 F1200
G1 X81.487 Y69.311 E0.02270
G1 X168.504 Y69.311 E2.72835
G1 X169.330 Y69.475 E0.02642
G1 X170.034 Y69.939 E0.02642
G1 X170.510 Y70.634 E0.02642
G1 X170.688 Y71.458 E0.02642
G1 X170.688 Y138.526 E2.10287
G1 X170.629 Y139.007 E0.01521
G1 X170.465 Y139.464 E0.01521
G1 X170.204 Y139.873 E0.01521
G1 X169.863 Y140.212 E0.01510
G1 X169.226 Y140.564 E0.02281
G1 X168.513 Y140.689 E0.02270
G1 X81.493 Y140.689 E2.72847
G1 X81.007 Y140.632 E0.01532
G1 X80.546 Y140.470 E0.01532
G1 X80.133 Y140.209 E0.01532
G1 X79.788 Y139.863 E0.01532
G1 X79.437 Y139.230 E0.02270
G1 X79.312 Y138.517 E0.02270
G1 X79.311 Y71.489 E2.10161
G1 X79.368 Y71.004 E0.01532
G1 X79.532 Y70.543 E0.01532
G1 X79.793 Y70.130 E0.01532
G1 X80.137 Y69.788 E0.01521
G1 X80.721 Y69.465 E0.02093
G1 F8640
G1 X81.487 Y69.311 E-0.18032
G1 X83.997 Y69.311 E-0.57968
G1 E-0.04000 F2100.00000
G1 Z0.800 F10800.000
G1 X82.087 Y72.087
G1 Z0.200
G1 E0.80000 F2100.00000
G1 F1200
G1 X167.913 Y72.087 E2.69101
G1 X167.913 Y137.913 E2.06392
G1 X82.087 Y137.913 E2.69101
G1 X82.087 Y72.147 E2.06204
G1 X81.710 Y71.710 F10800.000
G1 F1200
G1 X168.290 Y71.710 E2.71466
G1 X168.290 Y138.290 E2.08757
G1 X81.710 Y138.290 E2.71466
G1 X81.710 Y71.770 E2.08569
G1 X82.100 Y71.797 F10800.000
G1 F8640
G1 X85.001 Y71.768 E-0.76000
G1 E-0.04000 F2100.00000
G1 Z0.800 F10800.000
G1 X82.200 Y137.036
G1 Z0.200
G1 E0.80000 F2100.00000
G1 F1200
G1 X82.795 Y137.630 E0.02643
G1 X83.329 Y137.630 E0.01680
G1 X82.370 Y136.671 E0.04264
G1 X82.370 Y136.136 E0.01680
G1 X83.864 Y137.630 E0.06640
G1 X84.398 Y137.630 E0.01680
G1 X82.370 Y135.602 E0.09016
G1 X82.370 Y135.067 E0.01680
G1 X84.933 Y137.630 E0.11392
G1 X85.467 Y137.630 E0.01680
G1 X82.370 Y134.533 E0.13768
G1 X82.370 Y133.998 E0.01680
G1 X86.002 Y137.630 E0.16144
G1 X86.537 Y137.630 E0.01680
G1 X82.370 Y133.463 E0.18520
G1 X82.370 Y132.929 E0.01680
G1 X87.071 Y137.630 E0.20895
G1 X87.606 Y137.630 E0.01680
G1 X82.370 Y132.394 E0.23271
G1 X82.370 Y131.860 E0.01680
G1 X88.140 Y137.630 E0.25647
G1 X88.675 Y137.630 E0.01680
G1 X82.370 Y131.325 E0.28023
G1 X82.370 Y130.791 E0.01680
G1 X89.209 Y137.630 E0.30399
G1 X89.744 Y137.630 E0.01680
G1 X82.370 Y130.256 E0.32775
G1 X82.370 Y129.722 E0.01680
G1 X90.278 Y137.630 E0.35151
G1 X90.813 Y137.630 E0.01680
G1 X82.370 Y129.187 E0.37526
G1 X82.370 Y128.653 E0.01680
G1 X91.347 Y137.630 E0.39902
G1 X91.882 Y137.630 E0.01680
G1 X82.370 Y128.118 E0.42278
G1 X82.370 Y127.584 E0.01680
G1 X92.416 Y137.630 E0.44654
G1 X92.951 Y137.630 E0.01680
G1 X82.370 Y127.049 E0.47030
M73 Q1 S88
G1 X82.370 Y126.514 E0.01680
G1 X93.486 Y137.630 E0.49406
M73 P1 R88
G1 X94.020 Y137.630 E0.01680
G1 X82.370 Y125.980 E0.51782
G1 X82.370 Y125.445 E0.01680
G1 X94.555 Y137.630 E0.54158
G1 X95.089 Y137.630 E0.01680
G1 X82.370 Y124.911 E0.56533
G1 X82.370 Y124.376 E0.01680
G1 X95.624 Y137.630 E0.58909
G1 X96.158 Y137.630 E0.01680
G1 X82.370 Y123.842 E0.61285
G1 X82.370 Y123.307 E0.01680
G1 X96.693 Y137.630 E0.63661
G1 X97.227 Y137.630 E0.01680
G1 X82.370 Y122.773 E0.66037
G1 X82.370 Y122.238 E0.01680
G1 X97.762 Y137.630 E0.68413
G1 X98.296 Y137.630 E0.01680
G1 X82.370 Y121.704 E0.70789
G1 X82.370 Y121.169 E0.01680
G1 X98.831 Y137.630 E0.73165
G1 X99.365 Y137.630 E0.01680
G1 X82.370 Y120.635 E0.75540
G1 X82.370 Y120.100 E0.01680
G1 X99.900 Y137.630 E0.77916
G1 X100.435 Y137.630 E0.01680
G1 X82.370 Y119.565 E0.80292
G1 X82.370 Y119.031 E0.01680
G1 X100.969 Y137.630 E0.82668
G1 X101.504 Y137.630 E0.01680
G1 X82.370 Y118.496 E0.85044
G1 X82.370 Y117.962 E0.01680
G1 X102.038 Y137.630 E0.87420
G1 X102.573 Y137.630 E0.01680
G1 X82.370 Y117.427 E0.89796
G1 X82.370 Y116.893 E0.01680
G1 X103.107 Y137.630 E0.92171
G1 X103.642 Y137.630 E0.01680
G1 X82.370 Y116.358 E0.94547
G1 X82.370 Y115.824 E0.01680
G1 X104.176 Y137.630 E0.96923
G1 X104.711 Y137.630 E0.01680
G1 X82.370 Y115.289 E0.99299
G1 X82.370 Y114.755 E0.01680
G1 X105.245 Y137.630 E1.01675
G1 X105.780 Y137.630 E0.01680
G1 X82.370 Y114.220 E1.04051
G1 X82.370 Y113.686 E0.01680
G1 X106.314 Y137.630 E1.06427
G1 X106.849 Y137.630 E0.01680
G1 X82.370 Y113.151 E1.08803
G1 X82.370 Y112.616 E0.01680
G1 X107.384 Y137.630 E1.11178
G1 X107.918 Y137.630 E0.01680
G1 X82.370 Y112.082 E1.13554
G1 X82.370 Y111.547 E0.01680
G1 X108.453 Y137.630 E1.15930
G1 X108.987 Y137.630 E0.01680
G1 X82.370 Y111.013 E1.18306
G1 X82.370 Y110.478 E0.01680
G1 X109.522 Y137.630 E1.20682
G1 X110.056 Y137.630 E0.01680
G1 X82.370 Y109.944 E1.23058
G1 X82.370 Y109.409 E0.01680
G1 X110.591 Y137.630 E1.25434
G1 X111.125 Y137.630 E0.01680
G1 X82.370 Y108.875 E1.27809
G1 X82.370 Y108.340 E0.01680
G1 X111.660 Y137.630 E1.30185
G1 X112.194 Y137.630 E0.01680
G1 X82.370 Y107.806 E1.32561
G1 X82.370 Y107.271 E0.01680
G1 X112.729 Y137.630 E1.34937
G1 X113.263 Y137.630 E0.01680
G1 X82.370 Y106.737 E1.37313
G1 X82.370 Y106.202 E0.01680
G1 X113.798 Y137.630 E1.39689
M73 Q2 S87
G1 X114.333 Y137.630 E0.01680
G1 X82.370 Y105.667 E1.42065
M73 P2 R87
G1 X82.370 Y105.133 E0.01680
G1 X114.867 Y137.630 E1.44441
G1 X115.402 Y137.630 E0.01680
G1 X82.370 Y104.598 E1.46816
G1 X82.370 Y104.064 E0.01680
G1 X115.936 Y137.630 E1.49192
G1 X116.471 Y137.630 E0.01680
G1 X82.370 Y103.529 E1.51568
G1 X82.370 Y102.995 E0.01680
G1 X117.005 Y137.630 E1.53944
G1 X117.540 Y137.630 E0.01680
G1 X82.370 Y102.460 E1.56320
G1 X82.370 Y101.926 E0.01680
G1 X118.074 Y137.630 E1.58696
G1 X118.609 Y137.630 E0.01680
G1 X82.370 Y101.391 E1.61072
G1 X82.370 Y100.857 E0.01680
G1 X119.143 Y137.630 E1.63448
G1 X119.678 Y137.630 E0.01680
G1 X82.370 Y100.322 E1.65823
G1 X82.370 Y99.788 E0.01680
G1 X120.212 Y137.630 E1.68199
G1 X120.747 Y137.630 E0.01680
G1 X82.370 Y99.253 E1.70575
G1 X82.370 Y98.718 E0.01680
G1 X121.282 Y137.630 E1.72951
G1 X121.816 Y137.630 E0.01680
G1 X82.370 Y98.184 E1.75327
G1 X82.370 Y97.649 E0.01680
G1 X122.351 Y137.630 E1.77703
G1 X122.885 Y137.630 E0.01680
G1 X82.370 Y97.115 E1.80079
G1 X82.370 Y96.580 E0.01680
G1 X123.420 Y137.630 E1.82454
G1 X123.954 Y137.630 E0.01680
G1 X82.370 Y96.046 E1.84830
G1 X82.370 Y95.511 E0.01680
G1 X124.489 Y137.630 E1.87206
G1 X125.023 Y137.630 E0.01680
G1 X82.370 Y94.977 E1.89582
G1 X82.370 Y94.442 E0.01680
G1 X125.558 Y137.630 E1.91958
G1 X126.092 Y137.630 E0.01680
G1 X82.370 Y93.908 E1.94334
M73 Q3 S86
M73 P3 R86
G1 X82.370 Y93.373 E0.01680
G1 X126.627 Y137.630 E1.96710
G1 X127.161 Y137.630 E0.01680
G1 X82.370 Y92.839 E1.99086
G1 X82.370 Y92.304 E0.01680
G1 X127.696 Y137.630 E2.01461
G1 X128.231 Y137.630 E0.01680
G1 X82.370 Y91.769 E2.03837
G1 X82.370 Y91.235 E0.01680
G1 X128.765 Y137.630 E2.06213
G1 X129.300 Y137.630 E0.01680
G1 X82.370 Y90.700 E2.08589
G1 X82.370 Y90.166 E0.01680
G1 X129.834 Y137.630 E2.10965
G1 X130.369 Y137.630 E0.01680
G1 X82.370 Y89.631 E2.13341
G1 X82.370 Y89.097 E0.01680
G1 X130.903 Y137.630 E2.15717
G1 X131.438 Y137.630 E0.01680
G1 X82.370 Y88.562 E2.18093
G1 X82.370 Y88.028 E0.01680
G1 X131.972 Y137.630 E2.20468
G1 X132.507 Y137.630 E0.01680
G1 X82.370 Y87.493 E2.22844
G1 X82.370 Y86.959 E0.01680
G1 X133.041 Y137.630 E2.25220
G1 X133.576 Y137.630 E0.01680
G1 X82.370 Y86.424 E2.27596
G1 X82.370 Y85.890 E0.01680
G1 X134.110 Y137.630 E2.29972
G1 X134.645 Y137.630 E0.01680
G1 X82.370 Y85.355 E2.32348
G1 X82.370 Y84.820 E0.01680
G1 X135.180 Y137.630 E2.34724
G1 X135.714 Y137.630 E0.01680
G1 X82.370 Y84.286 E2.37099
M73 Q4 S85
M73 P4 R85
G1 X82.370 Y83.751 E0.01680
G1 X136.249 Y137.630 E2.39475
G1 X136.783 Y137.630 E0.01680
G1 X82.370 Y83.217 E2.41851
G1 X82.370 Y82.682 E0.01680
G1 X137.318 Y137.630 E2.44227
G1 X137.852 Y137.630 E0.01680
G1 X82.370 Y82.148 E2.46603
G1 X82.370 Y81.613 E0.01680
G1 X138.387 Y137.630 E2.48979
G1 X138.921 Y137.630 E0.01680
G1 X82.370 Y81.079 E2.51355
G1 X82.370 Y80.544 E0.01680
G1 X139.456 Y137.630 E2.53731
G1 X139.990 Y137.630 E0.01680
G1 X82.370 Y80.010 E2.56106
G1 X82.370 Y79.475 E0.01680
G1 X140.525 Y137.630 E2.58482
G1 X141.059 Y137.630 E0.01680
G1 X82.370 Y78.941 E2.60858
G1 X82.370 Y78.406 E0.01680
G1 X141.594 Y137.630 E2.63234
G1 X142.129 Y137.630 E0.01680
G1 X82.370 Y77.871 E2.65610
G1 X82.370 Y77.337 E0.01680
G1 X142.663 Y137.630 E2.67986
G1 X143.198 Y137.630 E0.01680
G1 X82.370 Y76.802 E2.70362
G1 X82.370 Y76.268 E0.01680
G1 X143.732 Y137.630 E2.72737
M73 Q5 S84
M73 P5 R84
G1 X144.267 Y137.630 E0.01680
G1 X82.370 Y75.733 E2.75113
G1 X82.370 Y75.199 E0.01680
G1 X144.801 Y137.630 E2.77489
G1 X145.336 Y137.630 E0.01680
G1 X82.370 Y74.664 E2.79865
G1 X82.370 Y74.130 E0.01680
G1 X145.870 Y137.630 E2.82241
G1 X146.405 Y137.630 E0.01680
G1 X82.370 Y73.595 E2.84617
G1 X82.370 Y73.061 E0.01680
G1 X146.939 Y137.630 E2.86993
G1 X147.474 Y137.630 E0.01680
G1 X82.370 Y72.526 E2.89369
G1 X82.370 Y72.370 E0.00491
G1 X82.748 Y72.370 E0.01189
G1 X148.008 Y137.630 E2.90063
G1 X148.543 Y137.630 E0.01680
G1 X83.283 Y72.370 E2.90063
G1 X83.817 Y72.370 E0.01680
G1 X149.078 Y137.630 E2.90063
G1 X149.612 Y137.630 E0.01680
G1 X84.352 Y72.370 E2.90063
G1 X84.886 Y72.370 E0.01680
G1 X150.147 Y137.630 E2.90063
G1 X150.681 Y137.630 E0.01680
G1 X85.421 Y72.370 E2.90063
G1 X85.955 Y72.370 E0.01680
G1 X151.216 Y137.630 E2.90063
M73 Q7 S83
M73 P7 R82
G1 X151.750 Y137.630 E0.01680
G1 X86.490 Y72.370 E2.90063
G1 X87.025 Y72.370 E0.01680
G1 X152.285 Y137.630 E2.90063
G1 X152.819 Y137.630 E0.01680
G1 X87.559 Y72.370 E2.90063
G1 X88.094 Y72.370 E0.01680
G1 X153.354 Y137.630 E2.90063
G1 X153.888 Y137.630 E0.01680
G1 X88.628 Y72.370 E2.90063
G1 X89.163 Y72.370 E0.01680
G1 X154.423 Y137.630 E2.90063
G1 X154.957 Y137.630 E0.01680
G1 X89.697 Y72.370 E2.90063
G1 X90.232 Y72.370 E0.01680
G1 X155.492 Y137.630 E2.90063
G1 X156.027 Y137.630 E0.01680
G1 X90.766 Y72.370 E2.90063
G1 X91.301 Y72.370 E0.01680
G1 X156.561 Y137.630 E2.90063
G1 X157.096 Y137.630 E0.01680
G1 X91.835 Y72.370 E2.90063
G1 X92.370 Y72.370 E0.01680
G1 X157.630 Y137.630 E2.90063
G1 X158.165 Y137.630 E0.01680
G1 X92.904 Y72.370 E2.90063
M73 Q8 S82
M73 P8 R81
G1 X93.439 Y72.370 E0.01680
G1 X158.699 Y137.630 E2.90063
G1 X159.234 Y137.630 E0.01680
G1 X93.974 Y72.370 E2.90063
G1 X94.508 Y72.370 E0.01680
G1 X159.768 Y137.630 E2.90063
G1 X160.303 Y137.630 E0.01680
G1 X95.043 Y72.370 E2.90063
G1 X95.577 Y72.370 E0.01680
G1 X160.837 Y137.630 E2.90063
G1 X161.372 Y137.630 E0.01680
G1 X96.112 Y72.370 E2.90063
G1 X96.646 Y72.370 E0.01680
G1 X161.906 Y137.630 E2.90063
G1 X162.441 Y137.630 E0.01680
G1 X97.181 Y72.370 E2.90063
G1 X97.715 Y72.370 E0.01680
G1 X162.976 Y137.630 E2.90063
G1 X163.510 Y137.630 E0.01680
G1 X98.250 Y72.370 E2.90063
G1 X98.784 Y72.370 E0.01680
G1 X164.045 Y137.630 E2.90063
G1 X164.579 Y137.630 E0.01680
G1 X99.319 Y72.370 E2.90063
G1 X99.853 Y72.370 E0.01680
G1 X165.114 Y137.630 E2.90063
M73 Q9 S81
M73 P9 R80
G1 X165.648 Y137.630 E0.01680
G1 X100.388 Y72.370 E2.90063
G1 X100.923 Y72.370 E0.01680
G1 X166.183 Y137.630 E2.90063
G1 X166.717 Y137.630 E0.01680
G1 X101.457 Y72.370 E2.90063
G1 X101.992 Y72.370 E0.01680
G1 X167.252 Y137.630 E2.90063
G1 X167.630 Y137.630 E0.01189
G1 X167.630 Y137.474 E0.00491
G1 X102.526 Y72.370 E2.89368
G1 X103.061 Y72.370 E0.01680
G1 X167.630 Y136.939 E2.86992
G1 X167.630 Y136.405 E0.01680
G1 X103.595 Y72.370 E2.84617
G1 X104.130 Y72.370 E0.01680
G1 X167.630 Y135.870 E2.82241
G1 X167.630 Y135.336 E0.01680
G1 X104.664 Y72.370 E2.79865
G1 X105.199 Y72.370 E0.01680
G1 X167.630 Y134.801 E2.77489
G1 X167.630 Y134.267 E0.01680
G1 X105.733 Y72.370 E2.75113
G1 X106.268 Y72.370 E0.01680
G1 X167.630 Y133.732 E2.72737
G1 X167.630 Y133.198 E0.01680
G1 X106.802 Y72.370 E2.70361
G1 X107.337 Y72.370 E0.01680
G1 X167.630 Y132.663 E2.67985
M73 Q10 S79
M73 P10 R79
G1 X167.630 Y132.128 E0.01680
G1 X107.872 Y72.370 E2.65610
G1 X108.406 Y72.370 E0.01680
G1 X167.630 Y131.594 E2.63234
G1 X167.630 Y131.059 E0.01680
G1 X108.941 Y72.370 E2.60858
G1 X109.475 Y72.370 E0.01680
G1 X167.630 Y130.525 E2.58482
G1 X167.630 Y129.990 E0.01680
G1 X110.010 Y72.370 E2.56106
G1 X110.544 Y72.370 E0.01680
G1 X167.630 Y129.456 E2.53730
G1 X167.630 Y128.921 E0.01680
G1 X111.079 Y72.370 E2.51354
G1 X111.613 Y72.370 E0.01680
G1 X167.630 Y128.387 E2.48978
G1 X167.630 Y127.852 E0.01680
G1 X112.148 Y72.370 E2.46603
G1 X112.682 Y72.370 E0.01680
G1 X167.630 Y127.318 E2.44227
G1 X167.630 Y126.783 E0.01680
G1 X113.217 Y72.370 E2.41851
G1 X113.751 Y72.370 E0.01680
G1 X167.630 Y126.249 E2.39475
G1 X167.630 Y125.714 E0.01680
G1 X114.286 Y72.370 E2.37099
G1 X114.821 Y72.370 E0.01680
G1 X167.630 Y125.179 E2.34723
G1 X167.630 Y124.645 E0.01680
G1 X115.355 Y72.370 E2.32347
G1 X115.890 Y72.370 E0.01680
M73 Q11 S78
M73 P11 R78
G1 X167.630 Y124.110 E2.29972
G1 X167.630 Y123.576 E0.01680
G1 X116.424 Y72.370 E2.27596
G1 X116.959 Y72.370 E0.01680
G1 X167.630 Y123.041 E2.25220
G1 X167.630 Y122.507 E0.01680
G1 X117.493 Y72.370 E2.22844
G1 X118.028 Y72.370 E0.01680
G1 X167.630 Y121.972 E2.20468
G1 X167.630 Y121.438 E0.01680
G1 X118.562 Y72.370 E2.18092
G1 X119.097 Y72.370 E0.01680
G1 X167.630 Y120.903 E2.15716
G1 X167.630 Y120.369 E0.01680
G1 X119.631 Y72.370 E2.13340
G1 X120.166 Y72.370 E0.01680
G1 X167.630 Y119.834 E2.10965
G1 X167.630 Y119.300 E0.01680
G1 X120.700 Y72.370 E2.08589
G1 X121.235 Y72.370 E0.01680
G1 X167.630 Y118.765 E2.06213
G1 X167.630 Y118.230 E0.01680
G1 X121.770 Y72.370 E2.03837
G1 X122.304 Y72.370 E0.01680
G1 X167.630 Y117.696 E2.01461
G1 X167.630 Y117.161 E0.01680
G1 X122.839 Y72.370 E1.99085
G1 X123.373 Y72.370 E0.01680
G1 X167.630 Y116.627 E1.96709
G1 X167.630 Y116.092 E0.01680
G1 X123.908 Y72.370 E1.94333
G1 X124.442 Y72.370 E0.01680
G1 X167.630 Y115.558 E1.91958
G1 X167.630 Y115.023 E0.01680
G1 X124.977 Y72.370 E1.89582
M73 Q12 S77
M73 P12 R77
G1 X125.511 Y72.370 E0.01680
G1 X167.630 Y114.489 E1.87206
G1 X167.630 Y113.954 E0.01680
G1 X126.046 Y72.370 E1.84830
G1 X126.580 Y72.370 E0.01680
G1 X167.630 Y113.420 E1.82454
G1 X167.630 Y112.885 E0.01680
G1 X127.115 Y72.370 E1.80078
G1 X127.649 Y72.370 E0.01680
G1 X167.630 Y112.351 E1.77702
G1 X167.630 Y111.816 E0.01680
G1 X128.184 Y72.370 E1.75327
G1 X128.719 Y72.370 E0.01680
G1 X167.630 Y111.281 E1.72951
G1 X167.630 Y110.747 E0.01680
G1 X129.253 Y72.370 E1.70575
G1 X129.788 Y72.370 E0.01680
G1 X167.630 Y110.212 E1.68199
G1 X167.630 Y109.678 E0.01680
G1 X130.322 Y72.370 E1.65823
G1 X130.857 Y72.370 E0.01680
G1 X167.630 Y109.143 E1.63447
G1 X167.630 Y108.609 E0.01680
G1 X131.391 Y72.370 E1.61071
G1 X131.926 Y72.370 E0.01680
G1 X167.630 Y108.074 E1.58695
G1 X167.630 Y107.540 E0.01680
G1 X132.460 Y72.370 E1.56320
G1 X132.995 Y72.370 E0.01680
G1 X167.630 Y107.005 E1.53944
G1 X167.630 Y106.471 E0.01680
G1 X133.529 Y72.370 E1.51568
G1 X134.064 Y72.370 E0.01680
