; generated by PrusaSlicer 2.1.1 on 2020-09-08 at 16:13:47 UTC

; 

; external perimeters extrusion width = 0.45mm
; perimeters extrusion width = 0.45mm
; infill extrusion width = 0.45mm
; solid infill extrusion width = 0.45mm
; top infill extrusion width = 0.40mm
; first layer extrusion width = 0.42mm

M73 P0 R44
M73 Q0 S44
M201 X1000 Y1000 Z200 E5000 ; sets maximum accelerations, mm/sec^2
M203 X200 Y200 Z12 E120 ; sets maximum feedrates, mm/sec
M204 P1250 R1250 T1250 ; sets acceleration (P, T) and retract acceleration (R), mm/sec^2
M205 X8.00 Y8.00 Z0.40 E4.50 ; sets the jerk limits, mm/sec
M205 S0 T0 ; sets the minimum extruding and travel feed rate, mm/sec
M107
M862.3 P "MK3S" ; printer model check
M862.1 P0.4 ; nozzle diameter check
M115 U3.9.0 ; tell printer latest fw version
G90 ; use absolute coordinates
M83 ; extruder relative mode
M104 S215 ; set extruder temp
M140 S60 ; set bed temp
M190 S60 ; wait for bed temp
M109 S215 ; wait for extruder temp
G28 W ; home all without mesh bed level
G80 ; mesh bed leveling
G1 Y-3.0 F1000.0 ; go outside print area
G92 E0.0
G1 X60.0 E9.0 F1000.0 ; intro line
M73 Q0 S44
M73 P0 R44
G1 X100.0 E12.5 F1000.0 ; intro line
G92 E0.0
M221 S95
G21 ; set units to millimeters
G90 ; use absolute coordinates
M83 ; use relative distances for extrusion
M900 K0.06 ; Filament gcode LA 1.5
M900 K30 ; Filament gcode LA 1.0
;BEFORE_LAYER_CHANGE
G92 E0.0
;0.2


G1 E-0.80000 F2100.00000
G1 Z0.600 F10800.000
;AFTER_LAYER_CHANGE
;0.2
G1 X127.525 Y93.257
G1 Z0.200
G1 E0.80000 F2100.00000
M204 S1000
G1 F1200
G1 X128.043 Y92.741 E0.02293
G1 X128.676 Y92.366 E0.02306
G1 X129.378 Y92.162 E0.02293
G1 X138.049 Y92.124 E0.27189
G1 X138.832 Y92.231 E0.02477
G1 X139.562 Y92.545 E0.02491
G1 X140.178 Y93.040 E0.02477
G1 X140.643 Y93.684 E0.02491
G1 X140.940 Y94.537 E0.02832
G1 X141.561 Y98.723 E0.13270
G1 X141.582 Y106.019 E0.22875
G1 X140.959 Y111.274 E0.16593
G1 X140.741 Y112.047 E0.02517
G1 X140.348 Y112.698 E0.02385
G1 X139.805 Y113.225 E0.02372
G1 X139.146 Y113.596 E0.02372
G1 X138.410 Y113.787 E0.02385
G1 X129.777 Y113.809 E0.27066
G1 X129.206 Y113.739 E0.01804
G1 X128.663 Y113.562 E0.01791
G1 X127.985 Y113.148 E0.02491
G1 X127.446 Y112.571 E0.02477
G1 X127.079 Y111.871 E0.02477
G1 X126.911 Y111.094 E0.02491
G1 X126.903 Y95.025 E0.50385
G1 X126.969 Y94.444 E0.01831
G1 X127.150 Y93.885 E0.01844
G1 X127.494 Y93.309 E0.02105
G1 X127.816 Y93.504 F10800.000
G1 F1200
G1 X128.299 Y93.020 E0.02143
G1 X128.860 Y92.698 E0.02029
G1 X129.481 Y92.527 E0.02017
G1 X138.049 Y92.501 E0.26866
G1 X138.748 Y92.600 E0.02214
G1 X139.398 Y92.887 E0.02226
G1 X139.941 Y93.338 E0.02214
G1 X140.342 Y93.924 E0.02226
G1 X140.573 Y94.628 E0.02324
G1 X141.192 Y98.812 E0.13260
G1 X141.206 Y105.995 E0.22524
G1 X140.587 Y111.218 E0.16490
G1 X140.388 Y111.912 E0.02263
G1 X140.042 Y112.477 E0.02079
G1 X139.560 Y112.938 E0.02091
G1 X138.975 Y113.258 E0.02091
G1 X138.331 Y113.417 E0.02079
G1 X129.790 Y113.432 E0.26781
G1 X129.284 Y113.370 E0.01598
G1 X128.800 Y113.210 E0.01598
G1 X128.210 Y112.844 E0.02177
G1 X127.740 Y112.333 E0.02177
G1 X127.424 Y111.715 E0.02177
G1 X127.285 Y111.039 E0.02165
G1 X127.280 Y95.035 E0.50177
G1 X127.339 Y94.517 E0.01635
G1 X127.502 Y94.022 E0.01635
G1 X127.785 Y93.555 E0.01712
G1 X127.854 Y94.160 F10800.000
G1 F1200
G1 X128.145 Y93.689 E0.01737
G1 X128.549 Y93.304 E0.01749
G1 X129.033 Y93.035 E0.01737
G1 X129.573 Y92.895 E0.01749
G1 X138.049 Y92.878 E0.26575
G1 X138.662 Y92.967 E0.01942
G1 X139.225 Y93.224 E0.01942
G1 X139.697 Y93.631 E0.01953
G1 X140.033 Y94.151 E0.01942
G1 X140.204 Y94.708 E0.01828
G1 X140.821 Y98.887 E0.13244
G1 X140.830 Y105.968 E0.22204
G1 X140.214 Y111.162 E0.16400
G1 X140.036 Y111.775 E0.01998
G1 X139.735 Y112.257 E0.01783
G1 X139.317 Y112.648 E0.01794
G1 X138.816 Y112.915 E0.01783
G1 X138.259 Y113.045 E0.01794
G1 X129.801 Y113.055 E0.26517
G1 X128.938 Y112.859 E0.02777
G1 X128.438 Y112.544 E0.01851
G1 X128.039 Y112.104 E0.01862
G1 X127.775 Y111.576 E0.01851
G1 X127.660 Y110.993 E0.01862
G1 X127.657 Y95.041 E0.50016
G1 X127.840 Y94.218 E0.02645
G1 F8640
G1 X128.145 Y93.689 E-0.14109
G1 X128.549 Y93.304 E-0.12877
G1 X129.033 Y93.035 E-0.12793
G1 X129.573 Y92.895 E-0.12877
G1 X130.584 Y92.893 E-0.23345
G1 E-0.04000 F2100.00000
G1 Z0.800 F10800.000
G1 X130.432 Y95.654
G1 Z0.200
G1 E0.80000 F2100.00000
G1 F1200
G1 X137.458 Y95.654 E0.22029
G1 X137.458 Y110.280 E0.45858
G1 X130.432 Y110.280 E0.22029
G1 X130.432 Y95.714 E0.45670
G1 X130.055 Y95.277 F10800.000
G1 F1200
G1 X137.835 Y95.277 E0.24394
G1 X137.835 Y110.657 E0.48223
G1 X130.055 Y110.657 E0.24394
G1 X130.055 Y95.337 E0.48035
G1 X130.428 Y95.421 F10800.000
G1 F8640
G1 X133.346 Y95.312 E-0.76000
G1 E-0.04000 F2100.00000
G1 Z0.800 F10800.000
G1 X137.345 Y96.548
G1 Z0.200
G1 E0.80000 F2100.00000
G1 F1200
G1 X136.734 Y95.937 E0.02771
G1 X136.188 Y95.937 E0.01750
G1 X137.175 Y96.924 E0.04476
G1 X137.175 Y97.469 E0.01750
G1 X135.643 Y95.937 E0.06950
G1 X135.097 Y95.937 E0.01750
G1 X137.175 Y98.015 E0.09425
G1 X137.175 Y98.560 E0.01750
G1 X134.552 Y95.937 E0.11899
G1 X134.006 Y95.937 E0.01750
G1 X137.175 Y99.106 E0.14373
G1 X137.175 Y99.651 E0.01750
G1 X133.461 Y95.937 E0.16848
G1 X132.915 Y95.937 E0.01750
G1 X137.175 Y100.197 E0.19322
G1 X137.175 Y100.742 E0.01750
G1 X132.370 Y95.937 E0.21796
G1 X131.824 Y95.937 E0.01750
G1 X137.175 Y101.288 E0.24271
G1 X137.175 Y101.833 E0.01750
G1 X131.279 Y95.937 E0.26745
G1 X130.733 Y95.937 E0.01750
G1 X137.175 Y102.379 E0.29219
G1 X137.175 Y102.924 E0.01750
G1 X130.715 Y96.464 E0.29303
G1 X130.715 Y97.009 E0.01750
G1 X137.175 Y103.470 E0.29303
G1 X137.175 Y104.015 E0.01750
G1 X130.715 Y97.555 E0.29303
G1 X130.715 Y98.100 E0.01750
G1 X137.175 Y104.561 E0.29303
G1 X137.175 Y105.106 E0.01750
G1 X130.715 Y98.646 E0.29303
G1 X130.715 Y99.191 E0.01750
G1 X137.175 Y105.652 E0.29303
G1 X137.175 Y106.197 E0.01750
G1 X130.715 Y99.737 E0.29303
G1 X130.715 Y100.282 E0.01750
G1 X137.175 Y106.743 E0.29303
G1 X137.175 Y107.288 E0.01750
G1 X130.715 Y100.828 E0.29303
G1 X130.715 Y101.373 E0.01750
G1 X137.175 Y107.834 E0.29303
G1 X137.175 Y108.379 E0.01750
G1 X130.715 Y101.919 E0.29303
G1 X130.715 Y102.464 E0.01750
G1 X137.175 Y108.925 E0.29303
G1 X137.175 Y109.470 E0.01750
G1 X130.715 Y103.010 E0.29303
G1 X130.715 Y103.555 E0.01750
G1 X137.157 Y109.997 E0.29219
G1 X136.611 Y109.997 E0.01750
G1 X130.715 Y104.101 E0.26744
G1 X130.715 Y104.646 E0.01750
G1 X136.066 Y109.997 E0.24270
G1 X135.520 Y109.997 E0.01750
G1 X130.715 Y105.192 E0.21796
G1 X130.715 Y105.737 E0.01750
G1 X134.975 Y109.997 E0.19321
G1 X134.429 Y109.997 E0.01750
G1 X130.715 Y106.283 E0.16847
G1 X130.715 Y106.828 E0.01750
G1 X133.884 Y109.997 E0.14373
G1 X133.338 Y109.997 E0.01750
G1 X130.715 Y107.374 E0.11898
G1 X130.715 Y107.919 E0.01750
G1 X132.793 Y109.997 E0.09424
G1 X132.247 Y109.997 E0.01750
G1 X130.715 Y108.465 E0.06950
G1 X130.715 Y109.010 E0.01750
G1 X131.702 Y109.997 E0.04475
G1 X131.156 Y109.997 E0.01750
G1 X130.545 Y109.386 E0.02771
M106 S255
;BEFORE_LAYER_CHANGE
G92 E0.0
;0.3


G1 F8640
G1 X131.156 Y109.997 E-0.19946
G1 X131.702 Y109.997 E-0.12596
G1 X130.715 Y109.010 E-0.32218
G1 X130.715 Y108.524 E-0.11241
G1 E-0.04000 F2100.00000
G1 Z0.800 F10800.000
;AFTER_LAYER_CHANGE
;0.3
G1 X127.079 Y111.871
G1 Z0.300
G1 E0.80000 F2100.00000
G1 F1142
G1 X126.911 Y111.094 E0.01316
G1 X126.903 Y95.025 E0.26626
G1 X126.969 Y94.444 E0.00967
G1 X127.150 Y93.885 E0.00974
G1 X127.525 Y93.257 E0.01212
G1 X128.043 Y92.741 E0.01212
G1 X128.676 Y92.366 E0.01219
G1 X129.378 Y92.162 E0.01212
G1 X138.049 Y92.124 E0.14368
G1 X138.832 Y92.231 E0.01309
G1 X139.562 Y92.545 E0.01316
G1 X140.178 Y93.040 E0.01309
G1 X140.643 Y93.684 E0.01316
G1 X140.940 Y94.537 E0.01497
G1 X141.561 Y98.723 E0.07013
G1 X141.582 Y106.019 E0.12088
G1 X140.959 Y111.274 E0.08769
G1 X140.741 Y112.047 E0.01330
G1 X140.348 Y112.698 E0.01260
G1 X139.805 Y113.225 E0.01253
G1 X139.146 Y113.596 E0.01253
G1 X138.410 Y113.787 E0.01260
G1 X129.777 Y113.809 E0.14303
G1 X129.206 Y113.739 E0.00953
G1 X128.663 Y113.562 E0.00946
G1 X127.985 Y113.148 E0.01316
G1 X127.446 Y112.571 E0.01309
G1 X127.107 Y111.924 E0.01210
G1 F8640
G1 X126.911 Y111.094 E-0.19680
G1 X126.910 Y108.655 E-0.56320
G1 E-0.04000 F2100.00000
G1 Z0.900 F10800.000
G1 X130.499 Y110.213
G1 Z0.300
G1 E0.80000 F2100.00000
M204 S800
G1 F1142
G1 X130.499 Y95.721 E0.25821
G1 X137.392 Y95.721 E0.12281
G1 X137.392 Y110.213 E0.25821
G1 X130.559 Y110.213 E0.12174
M204 S1000
G1 X130.070 Y110.642 F10800.000
M204 S800
G1 F1142
G1 X130.070 Y95.292 E0.27349
G1 X137.820 Y95.292 E0.13808
G1 X137.820 Y110.642 E0.27349
G1 X130.130 Y110.642 E0.13701
M204 S1000
G1 X130.132 Y110.247 F10800.000
G1 F8640
G1 X130.117 Y107.351 E-0.76000
G1 E-0.04000 F2100.00000
G1 Z0.900 F10800.000
G1 X136.381 Y110.085
G1 Z0.300
G1 E0.80000 F2100.00000
G1 F1142
G1 X137.070 Y109.396 E0.01766
G1 X137.070 Y108.780 E0.01117
G1 X135.958 Y109.892 E0.02851
G1 X135.341 Y109.892 E0.01117
G1 X137.070 Y108.163 E0.04431
G1 X137.070 Y107.547 E0.01117
G1 X134.725 Y109.892 E0.06010
G1 X134.108 Y109.892 E0.01117
G1 X137.070 Y106.930 E0.07590
G1 X137.070 Y106.314 E0.01117
G1 X133.492 Y109.892 E0.09169
G1 X132.876 Y109.892 E0.01117
G1 X137.070 Y105.698 E0.10749
G1 X137.070 Y105.081 E0.01117
G1 X132.259 Y109.892 E0.12329
G1 X131.643 Y109.892 E0.01117
G1 X137.070 Y104.465 E0.13908
G1 X137.070 Y103.848 E0.01117
G1 X131.026 Y109.892 E0.15488
G1 X130.820 Y109.892 E0.00374
G1 X130.820 Y109.482 E0.00743
G1 X137.070 Y103.232 E0.16017
G1 X137.070 Y102.616 E0.01117
G1 X130.820 Y108.866 E0.16017
G1 X130.820 Y108.249 E0.01117
G1 X137.070 Y101.999 E0.16017
G1 X137.070 Y101.383 E0.01117
G1 X130.820 Y107.633 E0.16017
G1 X130.820 Y107.017 E0.01117
G1 X137.070 Y100.766 E0.16017
G1 X137.070 Y100.150 E0.01117
G1 X130.820 Y106.400 E0.16017
G1 X130.820 Y105.784 E0.01117
G1 X137.070 Y99.534 E0.16017
G1 X137.070 Y98.917 E0.01117
G1 X130.820 Y105.167 E0.16017
G1 X130.820 Y104.551 E0.01117
G1 X137.070 Y98.301 E0.16017
G1 X137.070 Y97.684 E0.01117
G1 X130.820 Y103.935 E0.16017
G1 X130.820 Y103.318 E0.01117
G1 X137.070 Y97.068 E0.16017
G1 X137.070 Y96.452 E0.01117
G1 X130.820 Y102.702 E0.16017
G1 X130.820 Y102.085 E0.01117
G1 X136.864 Y96.042 E0.15488
G1 X136.247 Y96.042 E0.01117
G1 X130.820 Y101.469 E0.13908
G1 X130.820 Y100.853 E0.01117
G1 X135.631 Y96.042 E0.12328
G1 X135.014 Y96.042 E0.01117
G1 X130.820 Y100.236 E0.10749
G1 X130.820 Y99.620 E0.01117
G1 X134.398 Y96.042 E0.09169
G1 X133.782 Y96.042 E0.01117
G1 X130.820 Y99.003 E0.07589
G1 X130.820 Y98.387 E0.01117
G1 X133.165 Y96.042 E0.06010
G1 X132.549 Y96.042 E0.01117
G1 X130.820 Y97.771 E0.04430
G1 X130.820 Y97.154 E0.01117
G1 X131.932 Y96.042 E0.02851
G1 X131.316 Y96.042 E0.01117
G1 X130.627 Y96.731 E0.01765
;BEFORE_LAYER_CHANGE
G92 E0.0
;0.4


G1 F8640
G1 X131.316 Y96.042 E-0.22494
G1 X131.932 Y96.042 E-0.14233
G1 X130.820 Y97.154 E-0.36325
G1 X130.820 Y97.282 E-0.02949
G1 E-0.04000 F2100.00000
G1 Z0.900 F10800.000
;AFTER_LAYER_CHANGE
;0.4
G1 X127.525 Y93.257
G1 Z0.400
G1 E0.80000 F2100.00000
G1 F1173
G1 X128.043 Y92.741 E0.01212
G1 X128.676 Y92.366 E0.01219
G1 X129.378 Y92.162 E0.01212
G1 X138.049 Y92.124 E0.14368
G1 X138.832 Y92.231 E0.01309
G1 X139.562 Y92.545 E0.01316
G1 X140.178 Y93.040 E0.01309
G1 X140.643 Y93.684 E0.01316
G1 X140.940 Y94.537 E0.01497
G1 X141.561 Y98.723 E0.07013
G1 X141.582 Y106.019 E0.12088
G1 X140.959 Y111.274 E0.08769
G1 X140.741 Y112.047 E0.01330
G1 X140.348 Y112.698 E0.01260
G1 X139.805 Y113.225 E0.01253
G1 X139.146 Y113.596 E0.01253
G1 X138.410 Y113.787 E0.01260
G1 X129.777 Y113.809 E0.14303
G1 X129.206 Y113.739 E0.00953
G1 X128.663 Y113.562 E0.00946
G1 X127.985 Y113.148 E0.01316
G1 X127.446 Y112.571 E0.01309
G1 X127.079 Y111.871 E0.01309
G1 X126.911 Y111.094 E0.01316
G1 X126.903 Y95.025 E0.26626
G1 X126.969 Y94.444 E0.00967
G1 X127.150 Y93.885 E0.00974
G1 X127.494 Y93.309 E0.01112
G1 F8640
G1 X128.043 Y92.741 E-0.18231
G1 X128.676 Y92.366 E-0.16983
G1 X129.378 Y92.162 E-0.16886
G1 X130.413 Y92.157 E-0.23901
G1 E-0.04000 F2100.00000
G1 Z1.000 F10800.000
G1 X130.499 Y95.721
G1 Z0.400
G1 E0.80000 F2100.00000
M204 S800
G1 F1173
G1 X137.392 Y95.721 E0.12281
G1 X137.392 Y99.771 E0.07216
G1 X137.992 Y99.771 E0.01069
G1 X137.992 Y105.183 E0.09644
G1 X137.392 Y105.183 E0.01069
G1 X137.392 Y110.213 E0.08962
G1 X130.499 Y110.213 E0.12281
G1 X130.499 Y95.781 E0.25715
M73 Q2 S43
M204 S1000
G1 F8640
G1 X133.790 Y95.752 E-0.76000
M73 P2 R43
G1 E-0.04000 F2100.00000
G1 Z1.000 F10800.000
G1 X137.820 Y105.612
G1 Z0.400
G1 E0.80000 F2100.00000
M204 S800
G1 F1173
G1 X137.820 Y110.642 E0.08962
G1 X130.070 Y110.642 E0.13808
G1 X130.070 Y95.292 E0.27349
G1 X137.820 Y95.292 E0.13808
G1 X137.820 Y99.342 E0.07216
G1 X138.245 Y99.342 E0.00757
G1 F1800
G1 X138.420 Y99.342 E0.00640
G1 X138.420 Y105.612 E0.22930
G1 X138.245 Y105.612 E0.00640
G1 F1173
G1 X137.880 Y105.612 E0.00650
M204 S1000
G1 F8640
G1 X137.841 Y108.903 E-0.76000
G1 E-0.04000 F2100.00000
G1 Z1.000 F10800.000
G1 X131.509 Y110.085
G1 Z0.400
G1 E0.80000 F2100.00000
G1 F1173
G1 X130.820 Y109.396 E0.01765
G1 X130.820 Y108.780 E0.01117
G1 X131.932 Y109.892 E0.02851
G1 X132.549 Y109.892 E0.01117
G1 X130.820 Y108.163 E0.04430
G1 X130.820 Y107.547 E0.01117
G1 X133.165 Y109.892 E0.06010
G1 X133.782 Y109.892 E0.01117
G1 X130.820 Y106.930 E0.07589
G1 X130.820 Y106.314 E0.01117
G1 X134.398 Y109.892 E0.09169
G1 X135.014 Y109.892 E0.01117
G1 X130.820 Y105.698 E0.10749
G1 X130.820 Y105.081 E0.01117
G1 X135.631 Y109.892 E0.12328
G1 X136.247 Y109.892 E0.01117
G1 X130.820 Y104.465 E0.13908
G1 X130.820 Y103.849 E0.01117
G1 X136.864 Y109.892 E0.15488
G1 X137.070 Y109.892 E0.00374
G1 X137.070 Y109.482 E0.00743
G1 X130.820 Y103.232 E0.16017
G1 X130.820 Y102.616 E0.01117
G1 X137.070 Y108.866 E0.16017
G1 X137.070 Y108.249 E0.01117
G1 X130.820 Y101.999 E0.16017
G1 X130.820 Y101.383 E0.01117
G1 X137.070 Y107.633 E0.16017
G1 X137.070 Y107.017 E0.01117
G1 X130.820 Y100.767 E0.16017
G1 X130.820 Y100.150 E0.01117
G1 X137.070 Y106.400 E0.16017
G1 X137.070 Y105.784 E0.01117
G1 X130.820 Y99.534 E0.16017
G1 X130.820 Y98.917 E0.01117
G1 X137.070 Y105.168 E0.16017
G1 X137.070 Y104.862 E0.00554
G1 X137.381 Y104.862 E0.00563
G1 X130.820 Y98.301 E0.16814
G1 X130.820 Y97.685 E0.01117
G1 X137.670 Y104.535 E0.17555
G1 X137.670 Y103.918 E0.01117
G1 X130.820 Y97.068 E0.17555
G1 X130.820 Y96.452 E0.01117
G1 X137.670 Y103.302 E0.17555
G1 X137.670 Y102.686 E0.01117
G1 X131.026 Y96.042 E0.17025
G1 X131.643 Y96.042 E0.01117
G1 X137.670 Y102.069 E0.15446
G1 X137.670 Y101.453 E0.01117
G1 X132.259 Y96.042 E0.13866
G1 X132.876 Y96.042 E0.01117
G1 X137.670 Y100.836 E0.12287
G1 X137.670 Y100.220 E0.01117
G1 X137.542 Y100.092 E0.00328
G1 X137.070 Y100.092 E0.00855
G1 X137.070 Y99.620 E0.00855
G1 X133.492 Y96.042 E0.09169
G1 X134.108 Y96.042 E0.01117
G1 X137.070 Y99.004 E0.07590
G1 X137.070 Y98.387 E0.01117
G1 X134.725 Y96.042 E0.06010
G1 X135.341 Y96.042 E0.01117
G1 X137.070 Y97.771 E0.04431
G1 X137.070 Y97.154 E0.01117
G1 X135.958 Y96.042 E0.02851
G1 X136.574 Y96.042 E0.01117
G1 X137.263 Y96.731 E0.01766
;BEFORE_LAYER_CHANGE
G92 E0.0
;0.5


G1 F8640
G1 X136.574 Y96.042 E-0.22498
G1 X135.958 Y96.042 E-0.14233
G1 X137.070 Y97.154 E-0.36329
G1 X137.070 Y97.282 E-0.02941
G1 E-0.04000 F2100.00000
G1 Z1.000 F10800.000
;AFTER_LAYER_CHANGE
;0.5
G1 X137.392 Y99.771
G1 Z0.500
G1 E0.80000 F2100.00000
M204 S800
G1 F966
G1 X137.992 Y99.771 E0.01069
G1 X137.992 Y105.183 E0.09644
G1 X137.392 Y105.183 E0.01069
G1 X137.392 Y110.213 E0.08962
G1 X130.499 Y110.213 E0.12281
G1 X130.499 Y95.721 E0.25821
G1 X137.392 Y95.721 E0.12281
G1 X137.392 Y99.711 E0.07109
M204 S1000
G1 X137.820 Y99.342 F10800.000
M204 S800
G1 F966
G1 X138.420 Y99.342 E0.01069
G1 X138.420 Y105.612 E0.11171
G1 X137.820 Y105.612 E0.01069
G1 X137.820 Y110.642 E0.08962
G1 X130.070 Y110.642 E0.13808
G1 X130.070 Y95.292 E0.27349
G1 X137.820 Y95.292 E0.13808
G1 X137.820 Y99.282 E0.07109
M204 S1000
G1 X137.962 Y99.716 F10800.000
G1 F8640
G1 X138.420 Y99.342 E-0.13923
G1 X138.420 Y102.030 E-0.62077
G1 E-0.04000 F2100.00000
G1 Z1.100 F10800.000
G1 X137.263 Y105.505
G1 Z0.500
