; generated by PrusaSlicer 2.1.1 on 2020-12-28 at 16:59:02 UTC

; 

; external perimeters extrusion width = 0.60mm
; perimeters extrusion width = 0.50mm
; infill extrusion width = 0.50mm
; solid infill extrusion width = 0.50mm
; top infill extrusion width = 0.45mm
; support material extrusion width = 0.38mm
; first layer extrusion width = 0.42mm

M73 P0 R97
M73 Q0 S97
M201 X1000 Y1000 Z200 E5000 ; sets maximum accelerations, mm/sec^2
M203 X200 Y200 Z12 E120 ; sets maximum feedrates, mm/sec
M204 P1250 R1250 T1250 ; sets acceleration (P, T) and retract acceleration (R), mm/sec^2
M205 X8.00 Y8.00 Z0.40 E4.50 ; sets the jerk limits, mm/sec
M205 S0 T0 ; sets the minimum extruding and travel feed rate, mm/sec
M107
M862.3 P "MK3S" ; printer model check
M862.1 P0.4 ; nozzle diameter check
M115 U3.9.1 ; tell printer latest fw version
G90 ; use absolute coordinates
M83 ; extruder relative mode
M104 S215 ; set extruder temp
M140 S60 ; set bed temp
M190 S60 ; wait for bed temp
M109 S215 ; wait for extruder temp
G28 W ; home all without mesh bed level
G80 ; mesh bed leveling
G1 Y-3.0 F1000.0 ; go outside print area
G92 E0.0
G1 X60.0 E9.0 F1000.0 ; intro line
M73 Q0 S97
M73 P0 R97
G1 X100.0 E12.5 F1000.0 ; intro line
G92 E0.0
M221 S95
G21 ; set units to millimeters
G90 ; use absolute coordinates
M83 ; use relative distances for extrusion
M900 K0.05 ; Filament gcode LA 1.5
M900 K30 ; Filament gcode LA 1.0
;BEFORE_LAYER_CHANGE
G92 E0.0
;0.2


G1 E-0.80000 F2100.00000
G1 Z0.600 F10800.000
;AFTER_LAYER_CHANGE
;0.2
G1 X90.713 Y92.569
G1 Z0.200
G1 E0.80000 F2100.00000
M204 S1000
G1 F1200
G1 X91.222 Y91.844 E0.02777
G1 X91.613 Y91.552 E0.01529
G1 X115.397 Y77.643 E0.86388
G1 X116.086 Y77.527 E0.02191
G1 X133.388 Y77.527 E0.54250
G1 X133.980 Y77.608 E0.01873
G1 X134.528 Y77.847 E0.01873
G1 X157.229 Y91.752 E0.83470
G1 X157.630 Y92.074 E0.01612
G1 X157.943 Y92.477 E0.01601
G1 X158.174 Y93.005 E0.01805
G1 X158.259 Y93.578 E0.01817
G1 X158.259 Y115.959 E0.70175
G1 X158.072 Y116.810 E0.02732
G1 X157.569 Y117.521 E0.02732
G1 X134.101 Y131.719 E0.85999
G1 X133.402 Y131.839 E0.02225
G1 X116.093 Y131.839 E0.54272
G1 X115.522 Y131.761 E0.01805
G1 X114.995 Y131.539 E0.01794
G1 X91.597 Y117.634 E0.85340
G1 X91.126 Y117.255 E0.01896
G1 X90.695 Y116.585 E0.02496
G1 X90.533 Y115.810 E0.02484
G1 X90.532 Y93.432 E0.70164
G1 X90.701 Y92.627 E0.02577
G1 F8640
G1 X91.222 Y91.844 E-0.21729
G1 X91.613 Y91.552 E-0.11263
G1 X93.221 Y90.612 E-0.43008
G1 E-0.04000 F2100.00000
G1 Z0.800 F10800.000
G1 X92.721 Y93.439
G1 Z0.200
G1 E0.80000 F2100.00000
G1 F1200
G1 X92.721 Y115.757 E0.69975
G1 X93.475 Y115.757 E0.02365
G1 X93.475 Y93.609 E0.69443
G1 X94.229 Y93.609 E0.02365
G1 X94.229 Y115.757 E0.69443
G1 X94.983 Y115.757 E0.02365
G1 X94.983 Y93.609 E0.69443
G1 X95.738 Y93.609 E0.02365
G1 X95.738 Y115.757 E0.69443
G1 X96.492 Y115.757 E0.02365
G1 X96.492 Y93.609 E0.69443
G1 X97.246 Y93.609 E0.02365
G1 X97.246 Y115.757 E0.69443
G1 X98.000 Y115.757 E0.02365
G1 X98.000 Y93.609 E0.69443
G1 X98.754 Y93.609 E0.02365
G1 X98.754 Y115.757 E0.69443
G1 X99.508 Y115.757 E0.02365
G1 X99.508 Y93.609 E0.69443
G1 X100.262 Y93.609 E0.02365
G1 X100.262 Y115.757 E0.69443
G1 X101.017 Y115.757 E0.02365
G1 X101.017 Y93.609 E0.69443
G1 X101.771 Y93.609 E0.02365
G1 X101.771 Y115.757 E0.69443
G1 X102.525 Y115.757 E0.02365
G1 X102.525 Y93.609 E0.69443
G1 X103.279 Y93.609 E0.02365
G1 X103.279 Y115.757 E0.69443
G1 X104.033 Y115.757 E0.02365
G1 X104.033 Y93.609 E0.69443
G1 X104.787 Y93.609 E0.02365
G1 X104.787 Y115.926 E0.69975
G1 F8640
G1 X104.787 Y112.635 E-0.76000
G1 E-0.04000 F2100.00000
G1 Z0.800 F10800.000
G1 X131.183 Y106.223
G1 Z0.200
G1 E0.80000 F2100.00000
G1 F1200
G1 X131.183 Y104.104 E0.06643
G1 X131.413 Y103.726 E0.01386
G1 X131.399 Y103.698 E0.00099
G1 X131.430 Y103.705 E0.00099
G1 X131.815 Y103.345 E0.01653
G1 X131.810 Y103.314 E0.00099
G1 X131.837 Y103.329 E0.00099
G1 X131.937 Y103.278 E0.00352
G1 X131.937 Y106.722 E0.10799
G1 X132.306 Y106.913 E0.01301
G1 X132.309 Y106.945 E0.00099
G1 X132.331 Y106.922 E0.00099
G1 X132.691 Y106.997 E0.01153
G1 X132.691 Y103.003 E0.12523
G1 X132.848 Y102.970 E0.00500
G1 X132.859 Y102.941 E0.00099
G1 X132.875 Y102.969 E0.00099
G1 X133.401 Y103.005 E0.01653
G1 X133.420 Y102.979 E0.00099
G1 X133.445 Y103.017 E0.00141
G1 X133.445 Y106.983 E0.12438
G1 X133.924 Y106.813 E0.01593
G1 X133.949 Y106.832 E0.00099
G1 X133.948 Y106.801 E0.00099
G1 X134.200 Y106.623 E0.00964
G1 X134.200 Y103.377 E0.10180
G1 X134.379 Y103.503 E0.00689
G1 X134.409 Y103.492 E0.00099
G1 X134.399 Y103.522 E0.00099
G1 X134.732 Y103.931 E0.01653
G1 X134.763 Y103.928 E0.00099
G1 X134.746 Y103.954 E0.00099
G1 X134.954 Y104.433 E0.01635
G1 X134.954 Y105.993 E0.04893
G1 F8640
G1 X134.954 Y104.433 E-0.36036
G1 X134.746 Y103.954 E-0.12044
G1 X134.763 Y103.928 E-0.00731
G1 X134.732 Y103.931 E-0.00731
G1 X134.399 Y103.522 E-0.12176
G1 X134.409 Y103.492 E-0.00730
G1 X134.379 Y103.503 E-0.00731
G1 X134.200 Y103.377 E-0.05074
G1 X134.200 Y103.712 E-0.07747
G1 E-0.04000 F2100.00000
G1 Z0.800 F10800.000
G1 X140.233 Y115.926
G1 Z0.200
G1 E0.80000 F2100.00000
G1 F1200
G1 X140.233 Y106.927 E0.28217
G1 X140.040 Y107.553 E0.02055
G1 X139.845 Y108.038 E0.01639
G1 X139.479 Y108.747 E0.02501
G1 X139.479 Y115.757 E0.21978
G1 X138.725 Y115.757 E0.02365
G1 X138.725 Y109.827 E0.18591
G1 X138.381 Y110.208 E0.01608
G1 X137.970 Y110.599 E0.01778
G1 X137.970 Y115.757 E0.16170
G1 X137.216 Y115.757 E0.02365
G1 X137.216 Y111.188 E0.14325
G1 X136.752 Y111.481 E0.01723
G1 X136.462 Y111.636 E0.01029
G1 X136.462 Y115.757 E0.12921
G1 X135.708 Y115.757 E0.02365
G1 X135.708 Y111.979 E0.11844
G1 X135.322 Y112.119 E0.01287
G1 X134.954 Y112.226 E0.01202
G1 X134.954 Y115.757 E0.11071
G1 X134.200 Y115.757 E0.02365
G1 X134.200 Y112.389 E0.10558
G1 X133.791 Y112.447 E0.01293
G1 X133.445 Y112.471 E0.01087
G1 X133.445 Y115.757 E0.10301
G1 X133.388 Y115.757 E0.00181
G1 X133.388 Y129.650 E0.43563
G1 X132.691 Y129.650 E0.02184
G1 X132.691 Y112.481 E0.53833
G1 X131.937 Y112.408 E0.02376
G1 X131.937 Y129.650 E0.54061
G1 X131.183 Y129.650 E0.02365
G1 X131.183 Y112.265 E0.54511
G1 X130.429 Y112.029 E0.02478
G1 X130.429 Y129.650 E0.55251
G1 X129.675 Y129.650 E0.02365
G1 X129.675 Y111.708 E0.56256
G1 X129.263 Y111.490 E0.01462
G1 X128.921 Y111.276 E0.01265
G1 X128.921 Y129.650 E0.57611
G1 X128.166 Y129.650 E0.02365
G1 X128.166 Y110.714 E0.59373
G1 X127.619 Y110.208 E0.02337
G1 X127.412 Y109.979 E0.00967
G1 X127.412 Y129.650 E0.61677
G1 X126.658 Y129.650 E0.02365
G1 X126.658 Y108.982 E0.64805
G1 X126.392 Y108.523 E0.01662
G1 X126.162 Y108.054 E0.01639
G1 X125.904 Y107.380 E0.02262
G1 X125.904 Y129.650 E0.69827
G1 X125.150 Y129.650 E0.02365
G1 X125.150 Y105.187 E0.76703
G1 X124.396 Y105.187 E0.02365
G1 X124.396 Y129.650 E0.76703
G1 X123.641 Y129.650 E0.02365
G1 X123.641 Y105.187 E0.76703
G1 X122.887 Y105.187 E0.02365
G1 X122.887 Y129.650 E0.76703
G1 X122.133 Y129.650 E0.02365
G1 X122.133 Y105.187 E0.76703
G1 X121.379 Y105.187 E0.02365
G1 X121.379 Y129.650 E0.76703
G1 X120.625 Y129.650 E0.02365
G1 X120.625 Y105.187 E0.76703
G1 X119.871 Y105.187 E0.02365
G1 X119.871 Y129.650 E0.76703
M73 Q1 S96
G1 X119.116 Y129.650 E0.02365
M73 P1 R96
G1 X119.116 Y105.187 E0.76703
G1 X118.362 Y105.187 E0.02365
G1 X118.362 Y129.650 E0.76703
G1 X117.608 Y129.650 E0.02365
G1 X117.608 Y105.187 E0.76703
G1 X116.854 Y105.187 E0.02365
G1 X116.854 Y129.650 E0.76703
G1 X116.100 Y129.650 E0.02365
G1 X116.100 Y105.187 E0.76703
G1 X115.346 Y105.187 E0.02365
G1 X115.346 Y115.757 E0.33140
G1 X114.591 Y115.757 E0.02365
G1 X114.591 Y105.187 E0.33140
G1 X113.837 Y105.187 E0.02365
G1 X113.837 Y115.757 E0.33140
G1 X113.083 Y115.757 E0.02365
G1 X113.083 Y105.187 E0.33140
G1 X112.329 Y105.187 E0.02365
G1 X112.329 Y115.757 E0.33140
G1 X111.575 Y115.757 E0.02365
G1 X111.575 Y105.187 E0.33140
G1 X110.821 Y105.187 E0.02365
G1 X110.821 Y115.757 E0.33140
G1 X110.067 Y115.757 E0.02365
G1 X110.067 Y105.187 E0.33140
G1 X109.312 Y105.187 E0.02365
G1 X109.312 Y115.757 E0.33140
G1 X108.558 Y115.757 E0.02365
G1 X108.558 Y105.187 E0.33140
G1 X107.804 Y105.187 E0.02365
G1 X107.804 Y115.757 E0.33140
G1 X107.050 Y115.757 E0.02365
G1 X107.050 Y105.187 E0.33140
G1 X106.296 Y105.187 E0.02365
G1 X106.296 Y115.757 E0.33140
G1 X105.542 Y115.757 E0.02365
G1 X105.542 Y93.609 E0.69443
G1 X106.296 Y93.609 E0.02365
G1 X106.296 Y104.179 E0.33140
G1 X107.050 Y104.179 E0.02365
G1 X107.050 Y93.609 E0.33140
G1 X107.804 Y93.609 E0.02365
G1 X107.804 Y104.179 E0.33140
G1 X108.558 Y104.179 E0.02365
G1 X108.558 Y93.609 E0.33140
G1 X109.312 Y93.609 E0.02365
G1 X109.312 Y104.179 E0.33140
G1 X110.067 Y104.179 E0.02365
G1 X110.067 Y93.609 E0.33140
G1 X110.821 Y93.609 E0.02365
G1 X110.821 Y104.179 E0.33140
G1 X111.575 Y104.179 E0.02365
G1 X111.575 Y93.609 E0.33140
G1 X112.329 Y93.609 E0.02365
G1 X112.329 Y104.179 E0.33140
G1 X113.083 Y104.179 E0.02365
G1 X113.083 Y93.609 E0.33140
G1 X113.837 Y93.609 E0.02365
G1 X113.837 Y104.179 E0.33140
G1 X114.591 Y104.179 E0.02365
G1 X114.591 Y93.609 E0.33140
G1 X115.346 Y93.609 E0.02365
G1 X115.346 Y104.179 E0.33140
G1 X116.100 Y104.179 E0.02365
G1 X116.100 Y79.715 E0.76703
G1 X116.854 Y79.715 E0.02365
G1 X116.854 Y104.179 E0.76703
G1 X117.608 Y104.179 E0.02365
G1 X117.608 Y79.715 E0.76703
G1 X118.362 Y79.715 E0.02365
G1 X118.362 Y104.179 E0.76703
G1 X119.116 Y104.179 E0.02365
G1 X119.116 Y79.715 E0.76703
G1 X119.871 Y79.715 E0.02365
G1 X119.871 Y104.179 E0.76703
G1 X120.625 Y104.179 E0.02365
G1 X120.625 Y79.715 E0.76703
G1 X121.379 Y79.715 E0.02365
G1 X121.379 Y104.179 E0.76703
G1 X122.133 Y104.179 E0.02365
G1 X122.133 Y79.715 E0.76703
G1 X122.887 Y79.715 E0.02365
G1 X122.887 Y104.179 E0.76703
G1 X123.641 Y104.179 E0.02365
G1 X123.641 Y79.715 E0.76703
G1 X124.396 Y79.715 E0.02365
G1 X124.396 Y104.179 E0.76703
G1 X124.667 Y104.179 E0.00851
G1 X125.150 Y104.496 E0.01811
G1 X125.150 Y79.715 E0.77697
G1 X125.904 Y79.715 E0.02365
G1 X125.904 Y102.620 E0.71816
G1 X126.162 Y101.946 E0.02262
G1 X126.392 Y101.477 E0.01639
G1 X126.658 Y101.018 E0.01662
G1 X126.658 Y79.715 E0.66794
G1 X127.412 Y79.715 E0.02365
G1 X127.412 Y100.021 E0.63667
G1 X127.619 Y99.792 E0.00968
G1 X128.166 Y99.286 E0.02337
G1 X128.166 Y79.715 E0.61363
G1 X128.921 Y79.715 E0.02365
G1 X128.921 Y98.724 E0.59600
G1 X129.263 Y98.510 E0.01265
G1 X129.675 Y98.292 E0.01462
G1 X129.675 Y79.715 E0.58245
G1 X130.429 Y79.715 E0.02365
G1 X130.429 Y97.971 E0.57241
G1 X131.183 Y97.735 E0.02478
G1 X131.183 Y79.715 E0.56501
G1 X131.937 Y79.715 E0.02365
G1 X131.937 Y97.592 E0.56050
G1 X132.691 Y97.519 E0.02376
G1 X132.691 Y79.715 E0.55823
G1 X133.388 Y79.715 E0.02184
G1 X133.388 Y93.609 E0.43563
G1 X133.445 Y93.609 E0.00181
G1 X133.445 Y97.529 E0.12290
G1 X133.791 Y97.553 E0.01087
G1 X134.200 Y97.611 E0.01293
G1 X134.200 Y93.609 E0.12548
G1 X134.954 Y93.609 E0.02365
G1 X134.954 Y97.774 E0.13061
G1 X135.322 Y97.881 E0.01202
G1 X135.708 Y98.021 E0.01287
G1 X135.708 Y93.609 E0.13834
G1 X136.462 Y93.609 E0.02365
G1 X136.462 Y98.364 E0.14910
G1 X136.752 Y98.519 E0.01029
G1 X137.216 Y98.812 E0.01723
G1 X137.216 Y93.609 E0.16315
G1 X137.970 Y93.609 E0.02365
G1 X137.970 Y99.401 E0.18160
G1 X138.381 Y99.792 E0.01778
G1 X138.725 Y100.173 E0.01608
G1 X138.725 Y93.609 E0.20581
G1 X139.479 Y93.609 E0.02365
G1 X139.479 Y101.253 E0.23968
G1 X139.845 Y101.962 E0.02501
G1 X140.040 Y102.447 E0.01639
G1 X140.233 Y103.073 E0.02055
G1 X140.233 Y93.439 E0.30206
G1 X145.512 Y93.439 F10800.000
G1 F1200
G1 X145.512 Y104.179 E0.33672
G1 X144.758 Y104.179 E0.02365
G1 X144.758 Y93.609 E0.33140
G1 X144.004 Y93.609 E0.02365
G1 X144.004 Y104.179 E0.33140
G1 X143.250 Y104.179 E0.02365
G1 X143.250 Y93.609 E0.33140
G1 X142.495 Y93.609 E0.02365
G1 X142.495 Y104.179 E0.33140
G1 X141.741 Y104.179 E0.02365
G1 X141.741 Y93.609 E0.33140
G1 X140.987 Y93.609 E0.02365
G1 X140.987 Y115.757 E0.69443
G1 X141.741 Y115.757 E0.02365
G1 X141.741 Y104.857 E0.34174
G1 X142.433 Y105.187 E0.02404
G1 X142.495 Y105.187 E0.00194
G1 X142.495 Y115.757 E0.33140
G1 X143.250 Y115.757 E0.02365
G1 X143.250 Y105.187 E0.33140
M73 Q2 S95
M73 P2 R95
G1 X144.004 Y105.187 E0.02365
G1 X144.004 Y115.757 E0.33140
G1 X144.758 Y115.757 E0.02365
G1 X144.758 Y105.187 E0.33140
G1 X145.512 Y105.187 E0.02365
G1 X145.512 Y115.757 E0.33140
G1 X146.266 Y115.757 E0.02365
G1 X146.266 Y93.609 E0.69443
G1 X147.020 Y93.609 E0.02365
G1 X147.020 Y115.757 E0.69443
G1 X147.774 Y115.757 E0.02365
G1 X147.774 Y93.609 E0.69443
G1 X148.529 Y93.609 E0.02365
G1 X148.529 Y115.757 E0.69443
G1 X149.283 Y115.757 E0.02365
G1 X149.283 Y93.609 E0.69443
G1 X150.037 Y93.609 E0.02365
G1 X150.037 Y115.757 E0.69443
G1 X150.791 Y115.757 E0.02365
G1 X150.791 Y93.609 E0.69443
G1 X151.545 Y93.609 E0.02365
G1 X151.545 Y115.757 E0.69443
G1 X152.299 Y115.757 E0.02365
G1 X152.299 Y93.609 E0.69443
G1 X153.054 Y93.609 E0.02365
G1 X153.054 Y115.757 E0.69443
G1 X153.808 Y115.757 E0.02365
G1 X153.808 Y93.609 E0.69443
G1 X154.562 Y93.609 E0.02365
G1 X154.562 Y115.757 E0.69443
G1 X155.316 Y115.757 E0.02365
G1 X155.316 Y93.609 E0.69443
G1 X156.070 Y93.609 E0.02365
G1 X156.070 Y115.926 E0.69975
G1 F8640
G1 X156.070 Y112.635 E-0.76000
G1 E-0.04000 F2100.00000
G1 Z0.800 F10800.000
G1 X136.901 Y107.372
G1 Z0.200
G1 E0.80000 F2100.00000
G1 F1200
G1 X135.774 Y107.257 E0.03551
G1 X136.116 Y108.337 E0.03551
G1 X135.062 Y107.922 E0.03551
G1 X135.100 Y109.054 E0.03551
G1 X134.198 Y108.370 E0.03551
G1 X133.929 Y109.470 E0.03551
G1 X133.244 Y108.568 E0.03551
G1 X132.688 Y109.555 E0.03551
G1 X132.272 Y108.501 E0.03551
G1 X131.471 Y109.302 E0.03551
G1 X131.355 Y108.175 E0.03551
G1 X130.367 Y108.730 E0.03551
G1 X130.559 Y107.614 E0.03551
G1 X129.459 Y107.881 E0.03551
G1 X129.944 Y106.858 E0.03551
G1 X128.813 Y106.819 E0.03551
G1 X129.556 Y105.965 E0.03551
G1 X128.477 Y105.622 E0.03551
G1 X129.424 Y105.000 E0.03551
G1 X128.477 Y104.378 E0.03551
G1 X129.556 Y104.035 E0.03551
G1 X128.813 Y103.181 E0.03551
G1 X129.944 Y103.142 E0.03551
G1 X129.459 Y102.119 E0.03551
G1 X130.559 Y102.386 E0.03551
G1 X130.367 Y101.270 E0.03551
G1 X131.355 Y101.825 E0.03551
G1 X131.471 Y100.698 E0.03551
G1 X132.272 Y101.499 E0.03551
G1 X132.688 Y100.445 E0.03551
G1 X133.244 Y101.432 E0.03551
G1 X133.929 Y100.530 E0.03551
G1 X134.198 Y101.630 E0.03551
G1 X135.100 Y100.946 E0.03551
G1 X135.062 Y102.078 E0.03551
G1 X136.116 Y101.663 E0.03551
G1 X135.774 Y102.743 E0.03551
G1 X136.901 Y102.628 E0.03551
G1 X136.280 Y103.575 E0.03551
G1 X137.396 Y103.768 E0.03551
G1 X136.543 Y104.513 E0.03551
G1 X137.565 Y105.000 E0.03551
G1 X136.543 Y105.487 E0.03551
G1 X137.396 Y106.232 E0.03551
G1 X136.280 Y106.425 E0.03551
G1 X136.868 Y107.322 E0.03363
G1 X136.151 Y106.916 F10800.000
G1 F1200
G1 X135.241 Y106.823 E0.02869
G1 X135.518 Y107.696 E0.02869
G1 X134.666 Y107.360 E0.02869
G1 X134.697 Y108.275 E0.02869
G1 X133.968 Y107.722 E0.02869
G1 X133.750 Y108.611 E0.02869
G1 X133.197 Y107.882 E0.02869
G1 X132.748 Y108.680 E0.02869
G1 X132.412 Y107.829 E0.02869
G1 X131.765 Y108.475 E0.02869
G1 X131.671 Y107.565 E0.02869
G1 X130.873 Y108.013 E0.02869
G1 X131.028 Y107.112 E0.02869
G1 X130.139 Y107.328 E0.02869
G1 X130.531 Y106.501 E0.02869
G1 X129.617 Y106.469 E0.02869
G1 X130.218 Y105.779 E0.02869
G1 X129.346 Y105.502 E0.02869
G1 X130.111 Y105.000 E0.02869
G1 X129.346 Y104.498 E0.02869
G1 X130.218 Y104.221 E0.02869
G1 X129.617 Y103.531 E0.02869
G1 X130.531 Y103.499 E0.02869
G1 X130.139 Y102.672 E0.02869
G1 X131.028 Y102.888 E0.02869
G1 X130.873 Y101.987 E0.02869
G1 X131.671 Y102.435 E0.02869
G1 X131.765 Y101.525 E0.02869
G1 X132.412 Y102.171 E0.02869
G1 X132.748 Y101.320 E0.02869
G1 X133.197 Y102.118 E0.02869
G1 X133.750 Y101.389 E0.02869
G1 X133.968 Y102.278 E0.02869
G1 X134.697 Y101.725 E0.02869
G1 X134.666 Y102.640 E0.02869
G1 X135.518 Y102.304 E0.02869
G1 X135.241 Y103.177 E0.02869
G1 X136.151 Y103.084 E0.02869
G1 X135.650 Y103.849 E0.02869
G1 X136.552 Y104.005 E0.02869
G1 X135.862 Y104.607 E0.02869
G1 X136.688 Y105.000 E0.02869
G1 X135.862 Y105.393 E0.02869
G1 X136.552 Y105.995 E0.02869
G1 X135.650 Y106.151 E0.02869
G1 X136.119 Y106.866 E0.02681
G1 X136.070 Y107.308 F10800.000
G1 F8640
