; generated by PrusaSlicer 2.1.1 on 2020-12-28 at 19:14:18 UTC

; 

; external perimeters extrusion width = 0.60mm
; perimeters extrusion width = 0.50mm
; infill extrusion width = 0.50mm
; solid infill extrusion width = 0.50mm
; top infill extrusion width = 0.45mm
; support material extrusion width = 0.38mm
; first layer extrusion width = 0.42mm

M73 P0 R32
M73 Q0 S32
M201 X1000 Y1000 Z200 E5000 ; sets maximum accelerations, mm/sec^2
M203 X200 Y200 Z12 E120 ; sets maximum feedrates, mm/sec
M204 P1250 R1250 T1250 ; sets acceleration (P, T) and retract acceleration (R), mm/sec^2
M205 X8.00 Y8.00 Z0.40 E4.50 ; sets the jerk limits, mm/sec
M205 S0 T0 ; sets the minimum extruding and travel feed rate, mm/sec
M107
M862.3 P "MK3S" ; printer model check
M862.1 P0.4 ; nozzle diameter check
M115 U3.9.1 ; tell printer latest fw version
G90 ; use absolute coordinates
M83 ; extruder relative mode
M104 S215 ; set extruder temp
M140 S60 ; set bed temp
M190 S60 ; wait for bed temp
M109 S215 ; wait for extruder temp
G28 W ; home all without mesh bed level
G80 ; mesh bed leveling
G1 Y-3.0 F1000.0 ; go outside print area
G92 E0.0
G1 X60.0 E9.0 F1000.0 ; intro line
M73 Q0 S32
M73 P0 R32
G1 X100.0 E12.5 F1000.0 ; intro line
G92 E0.0
M221 S95
G21 ; set units to millimeters
G90 ; use absolute coordinates
M83 ; use relative distances for extrusion
M900 K0.05 ; Filament gcode LA 1.5
M900 K30 ; Filament gcode LA 1.0
;BEFORE_LAYER_CHANGE
G92 E0.0
;0.2


G1 E-0.80000 F2100.00000
G1 Z0.600 F10800.000
;AFTER_LAYER_CHANGE
;0.2
G1 X145.939 Y90.866
G1 Z0.200
G1 E0.80000 F2100.00000
M204 S1000
G1 F1200
G1 X146.742 Y91.370 E0.02973
G1 X147.307 Y92.131 E0.02973
G1 X147.557 Y93.046 E0.02973
G1 X147.551 Y103.530 E0.32871
G1 X147.409 Y104.137 E0.01956
G1 X147.126 Y104.689 E0.01943
G1 X146.717 Y105.159 E0.01956
G1 X146.210 Y105.515 E0.01943
G1 X120.472 Y118.064 E0.89780
G1 X118.884 Y118.703 E0.05367
G1 X117.172 Y119.129 E0.05534
G1 X115.358 Y119.313 E0.05716
G1 X114.472 Y119.306 E0.02778
G1 X112.906 Y119.142 E0.04936
G1 X111.127 Y118.707 E0.05744
G1 X109.490 Y118.046 E0.05534
G1 X107.916 Y117.130 E0.05709
G1 X107.205 Y116.607 E0.02769
G1 X106.058 Y115.578 E0.04831
G1 X104.845 Y114.154 E0.05866
G1 X103.908 Y112.658 E0.05534
G1 X103.221 Y111.127 E0.05261
G1 X102.900 Y110.139 E0.03258
G1 X102.557 Y108.504 E0.05237
G1 X102.436 Y106.843 E0.05224
G1 X102.471 Y105.800 E0.03270
G1 X102.708 Y104.147 E0.05236
G1 X103.163 Y102.540 E0.05236
G1 X103.529 Y101.623 E0.03097
G1 X103.946 Y100.780 E0.02948
G1 X104.785 Y99.437 E0.04964
G1 X105.962 Y98.023 E0.05769
G1 X113.285 Y91.345 E0.31076
G1 X113.789 Y90.991 E0.01931
G1 X114.363 Y90.768 E0.01931
G1 X114.974 Y90.688 E0.01931
G1 X145.004 Y90.687 E0.94157
G1 X145.880 Y90.854 E0.02797
G1 X145.803 Y91.217 F10800.000
G1 F1200
G1 X146.494 Y91.654 E0.02563
G1 X146.975 Y92.311 E0.02552
G1 X147.183 Y93.097 E0.02552
G1 X147.178 Y103.465 E0.32506
G1 X147.060 Y103.991 E0.01692
G1 X146.817 Y104.473 E0.01692
G1 X146.463 Y104.880 E0.01692
G1 X146.018 Y105.191 E0.01703
G1 X120.313 Y117.722 E0.89663
G1 X118.769 Y118.344 E0.05218
G1 X117.119 Y118.756 E0.05331
G1 X115.359 Y118.935 E0.05548
G1 X114.501 Y118.930 E0.02690
G1 X112.983 Y118.772 E0.04786
G1 X111.244 Y118.348 E0.05613
G1 X109.657 Y117.708 E0.05366
G1 X108.133 Y116.822 E0.05526
G1 X107.443 Y116.315 E0.02683
G1 X106.291 Y115.279 E0.04858
G1 X105.143 Y113.923 E0.05570
G1 X104.233 Y112.465 E0.05389
G1 X103.571 Y110.986 E0.05080
G1 X103.265 Y110.045 E0.03102
G1 X102.930 Y108.449 E0.05114
G1 X102.813 Y106.826 E0.05103
G1 X102.847 Y105.833 E0.03114
G1 X103.077 Y104.222 E0.05103
G1 X103.523 Y102.653 E0.05114
G1 X103.877 Y101.769 E0.02988
G1 X104.274 Y100.967 E0.02805
G1 X105.097 Y99.648 E0.04874
G1 X106.233 Y98.286 E0.05560
G1 X113.538 Y91.625 E0.30998
G1 X113.984 Y91.315 E0.01703
G1 X114.468 Y91.130 E0.01623
G1 X114.981 Y91.065 E0.01623
G1 X145.004 Y91.065 E0.94133
G1 X145.744 Y91.206 E0.02364
G1 F8640
G1 X146.494 Y91.654 E-0.20172
G1 X146.975 Y92.311 E-0.18794
G1 X147.183 Y93.097 E-0.18794
G1 X147.183 Y93.887 E-0.18241
G1 E-0.04000 F2100.00000
G1 Z0.800 F10800.000
G1 X117.067 Y108.460
G1 Z0.200
G1 E0.80000 F2100.00000
G1 F1200
G1 X117.067 Y105.329 E0.09817
G1 X116.924 Y105.139 E0.00745
G1 X116.680 Y104.887 E0.01098
G1 X116.312 Y104.614 E0.01437
G1 X116.312 Y108.892 E0.13415
G1 X115.941 Y109.081 E0.01308
G1 X115.608 Y109.190 E0.01098
G1 X115.558 Y109.200 E0.00158
G1 X115.558 Y104.306 E0.15345
G1 X115.262 Y104.256 E0.00941
G1 X114.804 Y104.251 E0.01437
G1 X114.804 Y109.255 E0.15690
G1 X114.392 Y109.190 E0.01307
G1 X114.050 Y109.077 E0.01131
G1 X114.050 Y104.429 E0.14574
G1 X113.596 Y104.671 E0.01614
G1 X113.296 Y104.910 E0.01202
G1 X113.296 Y108.596 E0.11557
G1 X113.076 Y108.367 E0.00994
G1 X112.870 Y108.084 E0.01098
G1 X112.706 Y107.774 E0.01099
G1 X112.586 Y107.445 E0.01098
G1 X112.542 Y107.263 E0.00588
G1 X112.542 Y105.685 E0.04947
G1 X111.702 Y105.346 F10800.000
G1 F1200
G1 X111.952 Y104.861 E0.01713
G1 X112.103 Y104.636 E0.00849
G1 X112.412 Y104.268 E0.01506
G1 X112.610 Y104.078 E0.00860
G1 X112.985 Y103.784 E0.01494
G1 X113.215 Y103.641 E0.00849
G1 X113.656 Y103.426 E0.01537
G1 X114.132 Y103.271 E0.01570
G1 X114.615 Y103.186 E0.01538
G1 X114.885 Y103.167 E0.00849
G1 X115.375 Y103.184 E0.01537
G1 X115.858 Y103.269 E0.01538
G1 X116.354 Y103.430 E0.01634
G1 X116.785 Y103.641 E0.01505
G1 X117.015 Y103.784 E0.00850
G1 X117.393 Y104.080 E0.01505
G1 X117.588 Y104.268 E0.00849
G1 X117.897 Y104.636 E0.01505
G1 X118.048 Y104.861 E0.00849
G1 X118.273 Y105.284 E0.01505
G1 X118.375 Y105.536 E0.00850
G1 X118.507 Y105.997 E0.01505
G1 X118.554 Y106.264 E0.00849
G1 X118.588 Y106.749 E0.01526
G1 X118.554 Y107.242 E0.01548
G1 X118.507 Y107.509 E0.00850
G1 X118.375 Y107.970 E0.01505
G1 X118.273 Y108.222 E0.00850
G1 X118.048 Y108.646 E0.01505
G1 X117.897 Y108.870 E0.00849
G1 X117.588 Y109.238 E0.01506
G1 X117.390 Y109.429 E0.00860
G1 X117.015 Y109.722 E0.01494
G1 X116.785 Y109.865 E0.00849
G1 X116.344 Y110.080 E0.01537
G1 X115.868 Y110.235 E0.01570
G1 X115.385 Y110.320 E0.01538
G1 X115.115 Y110.339 E0.00849
G1 X114.625 Y110.322 E0.01537
G1 X114.142 Y110.237 E0.01538
G1 X113.646 Y110.076 E0.01634
G1 X113.215 Y109.865 E0.01505
G1 X112.985 Y109.722 E0.00850
G1 X112.607 Y109.426 E0.01505
G1 X112.412 Y109.238 E0.00849
G1 X112.103 Y108.870 E0.01505
G1 X111.952 Y108.646 E0.00849
G1 X111.727 Y108.222 E0.01505
G1 X111.625 Y107.970 E0.00850
G1 X111.493 Y107.509 E0.01505
G1 X111.446 Y107.242 E0.00849
G1 X111.412 Y106.757 E0.01526
G1 X111.446 Y106.264 E0.01548
G1 X111.493 Y105.997 E0.00850
G1 X111.679 Y105.402 E0.01956
G1 X112.029 Y105.543 F10800.000
G1 F1200
G1 X112.276 Y105.055 E0.01715
G1 X112.405 Y104.863 E0.00726
G1 X112.688 Y104.526 E0.01382
G1 X112.857 Y104.363 E0.00736
G1 X113.202 Y104.094 E0.01371
G1 X113.398 Y103.971 E0.00725
G1 X113.797 Y103.776 E0.01393
G1 X114.223 Y103.638 E0.01404
G1 X114.661 Y103.561 E0.01393
G1 X114.892 Y103.545 E0.00726
G1 X115.336 Y103.560 E0.01393
G1 X115.773 Y103.637 E0.01393
G1 X116.206 Y103.778 E0.01427
G1 X116.602 Y103.971 E0.01381
G1 X116.798 Y104.094 E0.00726
G1 X117.145 Y104.365 E0.01381
G1 X117.312 Y104.526 E0.00726
G1 X117.595 Y104.863 E0.01381
G1 X117.724 Y105.055 E0.00726
G1 X117.931 Y105.444 E0.01381
G1 X118.018 Y105.659 E0.00726
G1 X118.139 Y106.082 E0.01381
G1 X118.180 Y106.310 E0.00725
G1 X118.210 Y106.750 E0.01382
G1 X118.180 Y107.196 E0.01403
G1 X118.139 Y107.424 E0.00726
G1 X118.018 Y107.848 E0.01381
G1 X117.931 Y108.062 E0.00726
G1 X117.724 Y108.451 E0.01381
G1 X117.595 Y108.643 E0.00726
G1 X117.312 Y108.981 E0.01382
G1 X117.143 Y109.143 E0.00736
G1 X116.798 Y109.412 E0.01371
G1 X116.602 Y109.535 E0.00725
G1 X116.203 Y109.730 E0.01393
G1 X115.777 Y109.868 E0.01404
G1 X115.339 Y109.945 E0.01393
G1 X115.108 Y109.961 E0.00726
G1 X114.664 Y109.946 E0.01393
G1 X114.227 Y109.869 E0.01393
G1 X113.794 Y109.728 E0.01427
G1 X113.398 Y109.535 E0.01381
G1 X113.202 Y109.412 E0.00726
G1 X112.855 Y109.141 E0.01381
G1 X112.688 Y108.980 E0.00726
G1 X112.405 Y108.643 E0.01381
G1 X112.276 Y108.451 E0.00726
G1 X112.069 Y108.062 E0.01381
G1 X111.982 Y107.848 E0.00726
G1 X111.861 Y107.424 E0.01381
G1 X111.820 Y107.196 E0.00725
G1 X111.790 Y106.756 E0.01382
G1 X111.820 Y106.310 E0.01403
G1 X111.861 Y106.082 E0.00726
G1 X112.006 Y105.599 E0.01583
G1 X111.788 Y105.224 F10800.000
G1 F8640
G1 X112.276 Y105.055 E-0.14009
G1 X112.405 Y104.863 E-0.05343
G1 X112.688 Y104.526 E-0.10175
G1 X112.857 Y104.363 E-0.05421
G1 X113.202 Y104.094 E-0.10093
G1 X113.398 Y103.971 E-0.05343
G1 X113.797 Y103.776 E-0.10257
G1 X114.223 Y103.638 E-0.10342
G1 X114.437 Y103.600 E-0.05017
G1 E-0.04000 F2100.00000
G1 Z0.800 F10800.000
G1 X123.550 Y102.666
G1 Z0.200
G1 E0.80000 F2100.00000
G1 F1200
G1 X124.048 Y104.161 E0.04941
G1 X124.207 Y104.796 E0.02053
G1 X124.321 Y105.443 E0.02060
G1 X124.390 Y106.096 E0.02060
G1 X124.413 Y106.753 E0.02060
G1 X124.390 Y107.410 E0.02060
G1 X124.321 Y108.063 E0.02060
G1 X124.207 Y108.710 E0.02060
G1 X124.048 Y109.347 E0.02060
G1 X123.845 Y109.972 E0.02060
G1 X123.599 Y110.581 E0.02060
G1 X123.311 Y111.172 E0.02060
G1 X122.982 Y111.741 E0.02059
G1 X122.611 Y112.291 E0.02082
G1 X122.210 Y112.803 E0.02039
G1 X121.771 Y113.292 E0.02060
G1 X121.298 Y113.748 E0.02060
G1 X120.795 Y114.170 E0.02060
G1 X120.263 Y114.556 E0.02060
G1 X119.706 Y114.905 E0.02060
G1 X119.126 Y115.213 E0.02060
G1 X118.526 Y115.480 E0.02060
G1 X117.909 Y115.705 E0.02060
G1 X117.277 Y115.886 E0.02060
G1 X116.634 Y116.023 E0.02060
G1 X115.984 Y116.114 E0.02060
G1 X115.328 Y116.160 E0.02060
G1 X114.672 Y116.160 E0.02060
G1 X114.023 Y116.115 E0.02039
G1 X113.365 Y116.023 E0.02082
G1 X112.723 Y115.886 E0.02059
G1 X112.091 Y115.705 E0.02060
G1 X111.474 Y115.480 E0.02060
G1 X110.874 Y115.213 E0.02060
G1 X110.294 Y114.905 E0.02060
G1 X109.742 Y114.560 E0.02039
G1 X109.205 Y114.170 E0.02082
G1 X108.702 Y113.748 E0.02059
G1 X108.229 Y113.292 E0.02060
G1 X107.790 Y112.803 E0.02060
G1 X107.385 Y112.286 E0.02060
G1 X107.018 Y111.741 E0.02060
G1 X106.689 Y111.172 E0.02060
G1 X106.401 Y110.582 E0.02059
G1 X106.153 Y109.966 E0.02082
G1 X105.952 Y109.347 E0.02039
G1 X105.793 Y108.710 E0.02060
G1 X105.679 Y108.063 E0.02060
G1 X105.610 Y107.410 E0.02060
G1 X105.587 Y106.753 E0.02059
G1 X105.611 Y106.090 E0.02082
G1 X105.679 Y105.443 E0.02039
G1 X105.793 Y104.796 E0.02060
G1 X105.952 Y104.159 E0.02060
G1 X106.155 Y103.534 E0.02060
G1 X106.401 Y102.925 E0.02060
G1 X106.689 Y102.334 E0.02060
G1 X107.018 Y101.765 E0.02060
G1 X107.385 Y101.220 E0.02060
G1 X107.790 Y100.703 E0.02060
G1 X108.229 Y100.215 E0.02060
G1 X108.702 Y99.758 E0.02060
G1 X109.205 Y99.336 E0.02060
G1 X109.731 Y98.954 E0.02039
G1 X110.294 Y98.601 E0.02082
G1 X110.874 Y98.293 E0.02059
G1 X111.474 Y98.026 E0.02060
G1 X112.091 Y97.801 E0.02060
G1 X112.723 Y97.620 E0.02060
G1 X113.366 Y97.483 E0.02060
G1 X114.016 Y97.392 E0.02060
G1 X114.672 Y97.346 E0.02060
G1 X115.587 Y97.346 E0.02871
G1 X115.587 Y93.840 E0.10993
G1 X144.413 Y93.840 E0.90381
G1 X144.413 Y102.666 E0.27673
G1 X143.410 Y102.666 E0.03145
G1 X143.375 Y102.532 E0.00434
G1 X143.168 Y102.068 E0.01592
G1 X142.903 Y101.644 E0.01570
G1 X142.588 Y101.268 E0.01538
G1 X142.393 Y101.080 E0.00849
G1 X142.015 Y100.784 E0.01505
G1 X141.785 Y100.641 E0.00850
G1 X141.344 Y100.426 E0.01537
G1 X140.868 Y100.271 E0.01570
G1 X140.385 Y100.186 E0.01538
G1 X140.115 Y100.167 E0.00850
G1 X139.625 Y100.184 E0.01537
G1 X139.142 Y100.269 E0.01538
G1 X138.881 Y100.344 E0.00850
G1 X138.436 Y100.524 E0.01505
G1 X138.197 Y100.651 E0.00849
G1 X137.799 Y100.920 E0.01505
G1 X137.592 Y101.094 E0.00850
G1 X137.251 Y101.446 E0.01537
G1 X136.963 Y101.843 E0.01537
G1 X136.827 Y102.078 E0.00849
G1 X136.625 Y102.532 E0.01560
G1 X136.590 Y102.666 E0.00434
G1 X123.610 Y102.666 E0.40698
G1 X124.073 Y103.043 F10800.000
G1 F1200
G1 X124.411 Y104.055 E0.03346
G1 X124.576 Y104.718 E0.02140
G1 X124.695 Y105.391 E0.02143
G1 X124.766 Y106.070 E0.02143
G1 X124.790 Y106.753 E0.02143
G1 X124.766 Y107.436 E0.02143
G1 X124.695 Y108.116 E0.02143
G1 X124.576 Y108.788 E0.02143
G1 X124.411 Y109.451 E0.02142
G1 X124.199 Y110.101 E0.02143
G1 X123.943 Y110.735 E0.02143
G1 X123.644 Y111.349 E0.02142
G1 X123.302 Y111.941 E0.02142
G1 X122.916 Y112.513 E0.02164
G1 X122.499 Y113.046 E0.02121
G1 X122.042 Y113.554 E0.02142
G1 X121.551 Y114.028 E0.02143
G1 X121.027 Y114.468 E0.02143
G1 X120.474 Y114.869 E0.02143
G1 X119.895 Y115.231 E0.02143
G1 X119.292 Y115.552 E0.02143
G1 X118.667 Y115.830 E0.02142
G1 X118.025 Y116.064 E0.02143
G1 X117.368 Y116.252 E0.02143
G1 X116.700 Y116.394 E0.02143
G1 X116.023 Y116.489 E0.02143
G1 X115.342 Y116.537 E0.02143
G1 X114.658 Y116.537 E0.02143
G1 X113.984 Y116.490 E0.02121
G1 X113.300 Y116.394 E0.02164
G1 X112.632 Y116.252 E0.02142
G1 X111.975 Y116.064 E0.02143
G1 X111.333 Y115.830 E0.02143
G1 X110.708 Y115.552 E0.02142
G1 X110.105 Y115.231 E0.02143
G1 X109.531 Y114.873 E0.02121
G1 X108.973 Y114.468 E0.02164
G1 X108.449 Y114.028 E0.02142
G1 X107.958 Y113.554 E0.02143
G1 X107.501 Y113.046 E0.02142
G1 X107.080 Y112.507 E0.02143
G1 X106.698 Y111.941 E0.02143
G1 X106.356 Y111.349 E0.02142
G1 X106.057 Y110.735 E0.02142
G1 X105.798 Y110.095 E0.02164
G1 X105.589 Y109.451 E0.02121
G1 X105.424 Y108.788 E0.02142
G1 X105.305 Y108.116 E0.02143
G1 X105.234 Y107.436 E0.02143
G1 X105.210 Y106.753 E0.02142
G1 X105.235 Y106.063 E0.02164
G1 X105.305 Y105.391 E0.02121
G1 X105.424 Y104.718 E0.02143
G1 X105.589 Y104.055 E0.02142
G1 X105.801 Y103.405 E0.02143
G1 X106.057 Y102.771 E0.02143
G1 X106.356 Y102.157 E0.02143
G1 X106.698 Y101.565 E0.02142
G1 X107.080 Y100.999 E0.02143
G1 X107.501 Y100.460 E0.02143
G1 X107.958 Y99.952 E0.02142
G1 X108.449 Y99.478 E0.02143
G1 X108.973 Y99.039 E0.02143
G1 X109.520 Y98.641 E0.02121
G1 X110.105 Y98.275 E0.02164
G1 X110.708 Y97.954 E0.02142
G1 X111.333 Y97.676 E0.02142
G1 X111.975 Y97.442 E0.02143
G1 X112.632 Y97.254 E0.02143
G1 X113.300 Y97.112 E0.02143
G1 X113.977 Y97.017 E0.02143
G1 X114.658 Y96.969 E0.02143
G1 X115.210 Y96.969 E0.01730
G1 X115.210 Y93.463 E0.10993
G1 X144.790 Y93.463 E0.92746
G1 X144.790 Y103.043 E0.30037
G1 X143.119 Y103.043 E0.05241
G1 X143.018 Y102.657 E0.01250
G1 X142.835 Y102.246 E0.01412
G1 X142.597 Y101.866 E0.01404
G1 X142.312 Y101.526 E0.01393
G1 X142.145 Y101.365 E0.00725
G1 X141.798 Y101.094 E0.01381
G1 X141.602 Y100.971 E0.00726
G1 X141.203 Y100.776 E0.01393
G1 X140.777 Y100.638 E0.01404
G1 X140.339 Y100.561 E0.01393
G1 X140.108 Y100.545 E0.00726
G1 X139.664 Y100.560 E0.01393
G1 X139.227 Y100.637 E0.01393
G1 X139.004 Y100.701 E0.00726
G1 X138.596 Y100.866 E0.01381
G1 X138.392 Y100.975 E0.00726
G1 X138.026 Y101.221 E0.01381
G1 X137.849 Y101.370 E0.00726
G1 X137.541 Y101.689 E0.01393
G1 X137.280 Y102.049 E0.01393
G1 X137.164 Y102.249 E0.00725
G1 X136.982 Y102.657 E0.01401
G1 X136.881 Y103.043 E0.01250
G1 X124.133 Y103.043 E0.39971
G1 X123.683 Y103.132 F10800.000
G1 F8640
G1 X124.411 Y104.055 E-0.24237
G1 X124.576 Y104.718 E-0.15759
G1 X124.695 Y105.391 E-0.15778
G1 X124.766 Y106.070 E-0.15778
G1 X124.773 Y106.263 E-0.04447
G1 E-0.04000 F2100.00000
G1 Z0.800 F10800.000
G1 X116.382 Y103.321
G1 Z0.200
G1 E0.80000 F2100.00000
G1 F1200
G1 X111.420 Y98.359 E0.22154
G1 X111.049 Y98.525 E0.01284
G1 X115.431 Y102.907 E0.19568
G1 X114.872 Y102.885 E0.01768
G1 X110.695 Y98.708 E0.18649
G1 X110.350 Y98.900 E0.01247
G1 X114.389 Y102.939 E0.18035
G1 X113.947 Y103.034 E0.01427
G1 X110.020 Y99.107 E0.17537
G1 X109.701 Y99.325 E0.01220
G1 X113.543 Y103.166 E0.17153
G1 X113.182 Y103.342 E0.01268
G1 X109.390 Y99.551 E0.16930
G1 X109.097 Y99.795 E0.01204
G1 X112.842 Y103.540 E0.16722
G1 X112.539 Y103.774 E0.01209
G1 X108.811 Y100.046 E0.16647
G1 X108.538 Y100.310 E0.01199
G1 X112.255 Y104.027 E0.16598
G1 X112.005 Y104.314 E0.01202
G1 X108.276 Y100.585 E0.16650
G1 X108.022 Y100.868 E0.01201
G1 X111.773 Y104.619 E0.16753
G1 X111.578 Y104.961 E0.01243
G1 X107.785 Y101.168 E0.16938
G1 X107.555 Y101.475 E0.01211
G1 X111.405 Y105.325 E0.17193
G1 X111.275 Y105.732 E0.01348
G1 X107.338 Y101.795 E0.17577
G1 X107.134 Y102.129 E0.01233
G1 X111.175 Y106.169 E0.18044
G1 X111.134 Y106.666 E0.01572
