; generated by PrusaSlicer 2.1.1 on 2020-12-28 at 20:53:02 UTC

; 

; external perimeters extrusion width = 0.60mm
; perimeters extrusion width = 0.50mm
; infill extrusion width = 0.50mm
; solid infill extrusion width = 0.50mm
; top infill extrusion width = 0.45mm
; first layer extrusion width = 0.42mm

M73 P0 R32
M73 Q0 S33
M201 X1000 Y1000 Z200 E5000 ; sets maximum accelerations, mm/sec^2
M203 X200 Y200 Z12 E120 ; sets maximum feedrates, mm/sec
M204 P1250 R1250 T1250 ; sets acceleration (P, T) and retract acceleration (R), mm/sec^2
M205 X8.00 Y8.00 Z0.40 E4.50 ; sets the jerk limits, mm/sec
M205 S0 T0 ; sets the minimum extruding and travel feed rate, mm/sec
M107
M862.3 P "MK3S" ; printer model check
M862.1 P0.4 ; nozzle diameter check
M115 U3.9.1 ; tell printer latest fw version
G90 ; use absolute coordinates
M83 ; extruder relative mode
M104 S215 ; set extruder temp
M140 S60 ; set bed temp
M190 S60 ; wait for bed temp
M109 S215 ; wait for extruder temp
G28 W ; home all without mesh bed level
G80 ; mesh bed leveling
G1 Y-3.0 F1000.0 ; go outside print area
G92 E0.0
G1 X60.0 E9.0 F1000.0 ; intro line
M73 Q0 S33
M73 P0 R32
G1 X100.0 E12.5 F1000.0 ; intro line
G92 E0.0
M221 S95
G21 ; set units to millimeters
G90 ; use absolute coordinates
M83 ; use relative distances for extrusion
M900 K0.05 ; Filament gcode LA 1.5
M900 K30 ; Filament gcode LA 1.0
;BEFORE_LAYER_CHANGE
G92 E0.0
;0.2


G1 E-0.80000 F2100.00000
G1 Z0.600 F10800.000
;AFTER_LAYER_CHANGE
;0.2
G1 X156.508 Y79.131
G1 Z0.200
G1 E0.80000 F2100.00000
M204 S1000
G1 F1200
G1 X156.688 Y79.954 E0.02642
G1 X156.688 Y130.044 E1.57053
G1 X156.612 Y130.574 E0.01680
G1 X156.409 Y131.070 E0.01680
G1 X156.092 Y131.502 E0.01680
G1 X155.679 Y131.844 E0.01680
G1 X155.140 Y132.093 E0.01862
G1 X154.553 Y132.188 E0.01862
G1 X144.485 Y132.188 E0.31567
G1 X143.979 Y132.126 E0.01601
G1 X94.858 Y117.592 E1.60614
G1 X94.175 Y117.242 E0.02405
G1 X93.656 Y116.678 E0.02405
G1 X93.404 Y116.128 E0.01896
G1 X93.312 Y115.534 E0.01885
G1 X93.312 Y94.438 E0.66146
G1 X93.392 Y93.912 E0.01669
G1 X93.596 Y93.420 E0.01669
G1 X93.913 Y92.993 E0.01669
G1 X94.321 Y92.656 E0.01658
G1 X94.874 Y92.403 E0.01908
G1 X143.974 Y77.876 E1.60546
G1 X144.488 Y77.811 E0.01623
G1 X154.504 Y77.811 E0.31403
G1 X155.330 Y77.975 E0.02642
G1 X156.031 Y78.436 E0.02631
G1 X156.474 Y79.081 E0.02454
G1 F8640
G1 X156.688 Y79.954 E-0.20746
G1 X156.688 Y82.347 E-0.55254
G1 E-0.04000 F2100.00000
G1 Z0.800 F10800.000
G1 X143.210 Y95.290
G1 Z0.200
G1 E0.80000 F2100.00000
G1 F1200
G1 X143.210 Y114.710 E0.60890
G1 X101.790 Y114.710 E1.29869
G1 X101.790 Y95.290 E0.60890
G1 X143.150 Y95.290 E1.29681
G1 X143.606 Y95.232 F10800.000
G1 F8640
G1 X143.160 Y98.581 E-0.76000
G1 E-0.04000 F2100.00000
G1 Z0.800 F10800.000
G1 X101.136 Y109.272
G1 Z0.200
G1 E0.80000 F2100.00000
G1 F1200
G1 X101.248 Y109.618 E0.01141
G1 X101.284 Y109.875 E0.00815
G1 X101.284 Y110.135 E0.00815
G1 X101.221 Y110.494 E0.01141
G1 X101.081 Y110.840 E0.01173
G1 X100.872 Y111.151 E0.01173
G1 X100.602 Y111.411 E0.01174
G1 X100.285 Y111.609 E0.01174
G1 X99.933 Y111.737 E0.01173
G1 X99.563 Y111.789 E0.01173
G1 X99.199 Y111.764 E0.01141
G1 X98.937 Y111.698 E0.00847
G1 X98.605 Y111.550 E0.01141
G1 X98.302 Y111.330 E0.01174
G1 X98.052 Y111.052 E0.01173
G1 X97.864 Y110.728 E0.01174
G1 X97.752 Y110.382 E0.01141
G1 X97.716 Y110.125 E0.00815
G1 X97.716 Y109.865 E0.00815
G1 X97.779 Y109.506 E0.01141
G1 X97.919 Y109.160 E0.01173
G1 X98.128 Y108.849 E0.01173
G1 X98.398 Y108.589 E0.01174
G1 X98.715 Y108.391 E0.01173
G1 X99.067 Y108.263 E0.01173
G1 X99.438 Y108.211 E0.01174
G1 X99.801 Y108.236 E0.01141
G1 X100.063 Y108.302 E0.00847
G1 X100.395 Y108.450 E0.01141
G1 X100.698 Y108.670 E0.01174
G1 X100.948 Y108.948 E0.01173
G1 X101.106 Y109.220 E0.00985
G1 X100.779 Y109.408 F10800.000
G1 F1200
G1 X100.879 Y109.703 E0.00976
G1 X100.907 Y109.902 E0.00629
G1 X100.907 Y110.102 E0.00629
G1 X100.856 Y110.389 E0.00913
G1 X100.746 Y110.662 E0.00925
G1 X100.581 Y110.907 E0.00925
G1 X100.369 Y111.112 E0.00925
G1 X100.119 Y111.268 E0.00925
G1 X99.841 Y111.369 E0.00925
G1 X99.549 Y111.410 E0.00925
G1 X99.259 Y111.390 E0.00914
G1 X99.061 Y111.341 E0.00640
G1 X98.794 Y111.222 E0.00913
G1 X98.556 Y111.049 E0.00925
G1 X98.358 Y110.829 E0.00925
G1 X98.211 Y110.574 E0.00925
G1 X98.121 Y110.297 E0.00913
G1 X98.093 Y110.098 E0.00628
G1 X98.093 Y109.898 E0.00629
G1 X98.144 Y109.611 E0.00914
G1 X98.254 Y109.338 E0.00925
G1 X98.419 Y109.093 E0.00925
G1 X98.631 Y108.888 E0.00925
G1 X98.881 Y108.732 E0.00925
G1 X99.159 Y108.631 E0.00925
G1 X99.451 Y108.590 E0.00925
G1 X99.741 Y108.610 E0.00914
G1 X99.939 Y108.659 E0.00640
G1 X100.206 Y108.778 E0.00913
G1 X100.444 Y108.951 E0.00925
G1 X100.642 Y109.171 E0.00925
G1 X100.749 Y109.356 E0.00673
G1 X101.089 Y109.438 F10800.000
G1 F8640
G1 X100.879 Y109.703 E-0.08549
G1 X100.907 Y109.902 E-0.04628
G1 X100.907 Y110.102 E-0.04630
G1 X100.856 Y110.389 E-0.06727
G1 X100.746 Y110.662 E-0.06811
G1 X100.581 Y110.907 E-0.06811
G1 X100.369 Y111.112 E-0.06814
G1 X100.119 Y111.268 E-0.06813
G1 X99.841 Y111.369 E-0.06811
G1 X99.549 Y111.410 E-0.06811
G1 X99.259 Y111.390 E-0.06728
G1 X99.096 Y111.349 E-0.03868
G1 E-0.04000 F2100.00000
G1 Z0.800 F10800.000
G1 X99.562 Y101.789
G1 Z0.200
G1 E0.80000 F2100.00000
G1 F1200
G1 X99.199 Y101.764 E0.01141
G1 X98.937 Y101.698 E0.00847
G1 X98.605 Y101.550 E0.01141
G1 X98.302 Y101.330 E0.01174
G1 X98.052 Y101.052 E0.01173
G1 X97.864 Y100.728 E0.01174
G1 X97.752 Y100.382 E0.01141
G1 X97.716 Y100.125 E0.00815
G1 X97.716 Y99.865 E0.00815
G1 X97.779 Y99.506 E0.01141
G1 X97.919 Y99.160 E0.01173
G1 X98.128 Y98.849 E0.01173
G1 X98.398 Y98.589 E0.01174
G1 X98.715 Y98.391 E0.01174
G1 X99.067 Y98.263 E0.01173
G1 X99.437 Y98.211 E0.01173
G1 X99.801 Y98.236 E0.01141
G1 X100.063 Y98.302 E0.00847
G1 X100.395 Y98.450 E0.01141
G1 X100.698 Y98.670 E0.01174
G1 X100.948 Y98.948 E0.01173
G1 X101.136 Y99.272 E0.01174
G1 X101.248 Y99.618 E0.01141
G1 X101.284 Y99.875 E0.00815
G1 X101.284 Y100.135 E0.00815
G1 X101.221 Y100.494 E0.01141
G1 X101.081 Y100.840 E0.01173
G1 X100.872 Y101.151 E0.01173
G1 X100.602 Y101.411 E0.01174
G1 X100.285 Y101.609 E0.01173
G1 X99.933 Y101.737 E0.01173
G1 X99.622 Y101.781 E0.00985
G1 X99.569 Y101.407 F10800.000
G1 F1200
G1 X99.259 Y101.390 E0.00976
G1 X99.061 Y101.341 E0.00640
G1 X98.794 Y101.222 E0.00913
G1 X98.556 Y101.049 E0.00925
G1 X98.358 Y100.829 E0.00925
G1 X98.211 Y100.574 E0.00925
G1 X98.121 Y100.297 E0.00913
G1 X98.093 Y100.098 E0.00628
G1 X98.093 Y99.898 E0.00629
G1 X98.144 Y99.611 E0.00913
G1 X98.254 Y99.338 E0.00925
G1 X98.419 Y99.093 E0.00925
G1 X98.631 Y98.888 E0.00925
G1 X98.881 Y98.732 E0.00925
G1 X99.159 Y98.631 E0.00925
G1 X99.451 Y98.590 E0.00925
G1 X99.741 Y98.610 E0.00914
G1 X99.939 Y98.659 E0.00640
G1 X100.206 Y98.778 E0.00913
G1 X100.444 Y98.951 E0.00925
G1 X100.642 Y99.171 E0.00925
G1 X100.789 Y99.426 E0.00925
G1 X100.879 Y99.703 E0.00913
G1 X100.907 Y99.902 E0.00629
G1 X100.907 Y100.102 E0.00629
G1 X100.856 Y100.389 E0.00913
G1 X100.746 Y100.662 E0.00925
G1 X100.581 Y100.907 E0.00925
G1 X100.369 Y101.112 E0.00925
G1 X100.119 Y101.268 E0.00925
G1 X99.841 Y101.369 E0.00925
G1 X99.629 Y101.399 E0.00673
G1 X99.426 Y101.684 F10800.000
G1 F8640
G1 X99.259 Y101.390 E-0.08552
G1 X99.061 Y101.341 E-0.04713
G1 X98.794 Y101.222 E-0.06726
G1 X98.556 Y101.049 E-0.06813
G1 X98.358 Y100.829 E-0.06811
G1 X98.211 Y100.574 E-0.06813
G1 X98.121 Y100.297 E-0.06727
G1 X98.093 Y100.098 E-0.04628
G1 X98.093 Y99.898 E-0.04630
G1 X98.144 Y99.611 E-0.06727
G1 X98.254 Y99.338 E-0.06811
G1 X98.401 Y99.120 E-0.06050
G1 E-0.04000 F2100.00000
G1 Z0.800 F10800.000
G1 X101.413 Y95.087
G1 Z0.200
G1 E0.80000 F2100.00000
G1 F1200
G1 X101.413 Y114.913 E0.62163
G1 X96.087 Y114.913 E0.16699
G1 X96.087 Y95.087 E0.62163
G1 X101.353 Y95.087 E0.16511
G1 F8640
G1 X101.363 Y98.378 E-0.76000
G1 E-0.04000 F2100.00000
G1 Z0.800 F10800.000
G1 X143.779 Y109.506
G1 Z0.200
G1 E0.80000 F2100.00000
G1 F1200
G1 X143.919 Y109.160 E0.01173
G1 X144.128 Y108.849 E0.01173
G1 X144.398 Y108.589 E0.01174
G1 X144.715 Y108.391 E0.01173
G1 X145.067 Y108.263 E0.01173
G1 X145.438 Y108.211 E0.01174
G1 X145.801 Y108.236 E0.01141
G1 X146.063 Y108.302 E0.00847
G1 X146.395 Y108.450 E0.01141
G1 X146.698 Y108.670 E0.01174
G1 X146.948 Y108.948 E0.01173
G1 X147.136 Y109.272 E0.01174
G1 X147.248 Y109.618 E0.01141
G1 X147.284 Y109.875 E0.00815
G1 X147.284 Y110.135 E0.00815
G1 X147.221 Y110.494 E0.01141
G1 X147.081 Y110.840 E0.01173
G1 X146.872 Y111.151 E0.01173
G1 X146.602 Y111.411 E0.01174
G1 X146.285 Y111.609 E0.01174
G1 X145.933 Y111.737 E0.01173
G1 X145.563 Y111.789 E0.01173
G1 X145.199 Y111.764 E0.01141
G1 X144.937 Y111.698 E0.00847
G1 X144.605 Y111.550 E0.01141
G1 X144.302 Y111.330 E0.01174
G1 X144.052 Y111.052 E0.01173
G1 X143.864 Y110.728 E0.01174
G1 X143.752 Y110.382 E0.01141
G1 X143.716 Y110.125 E0.00815
G1 X143.716 Y109.865 E0.00815
G1 X143.769 Y109.566 E0.00953
G1 X144.140 Y109.631 F10800.000
G1 F1200
G1 X144.254 Y109.338 E0.00987
G1 X144.419 Y109.093 E0.00925
G1 X144.631 Y108.888 E0.00925
G1 X144.881 Y108.732 E0.00925
G1 X145.159 Y108.631 E0.00925
G1 X145.451 Y108.590 E0.00925
G1 X145.741 Y108.610 E0.00914
G1 X145.939 Y108.659 E0.00640
G1 X146.206 Y108.778 E0.00913
G1 X146.444 Y108.951 E0.00925
G1 X146.642 Y109.171 E0.00925
G1 X146.789 Y109.426 E0.00925
G1 X146.879 Y109.703 E0.00913
G1 X146.907 Y109.902 E0.00628
G1 X146.907 Y110.102 E0.00629
G1 X146.856 Y110.389 E0.00913
G1 X146.746 Y110.662 E0.00925
G1 X146.581 Y110.907 E0.00925
G1 X146.369 Y111.112 E0.00925
G1 X146.119 Y111.268 E0.00925
G1 X145.841 Y111.369 E0.00925
G1 X145.549 Y111.410 E0.00925
G1 X145.259 Y111.390 E0.00914
G1 X145.061 Y111.341 E0.00640
G1 X144.794 Y111.222 E0.00913
G1 X144.556 Y111.049 E0.00925
G1 X144.358 Y110.829 E0.00925
G1 X144.211 Y110.574 E0.00925
G1 X144.121 Y110.297 E0.00913
G1 X144.093 Y110.098 E0.00628
G1 X144.093 Y109.898 E0.00629
G1 X144.130 Y109.690 E0.00661
G1 X143.922 Y109.404 F10800.000
G1 F8640
G1 X144.254 Y109.338 E-0.08635
G1 X144.419 Y109.093 E-0.06811
G1 X144.631 Y108.888 E-0.06813
G1 X144.881 Y108.732 E-0.06812
G1 X145.159 Y108.631 E-0.06811
G1 X145.451 Y108.590 E-0.06812
G1 X145.741 Y108.610 E-0.06728
G1 X145.939 Y108.659 E-0.04713
G1 X146.206 Y108.778 E-0.06727
G1 X146.444 Y108.951 E-0.06813
G1 X146.642 Y109.171 E-0.06811
G1 X146.674 Y109.227 E-0.01515
G1 E-0.04000 F2100.00000
G1 Z0.800 F10800.000
G1 X145.562 Y101.789
G1 Z0.200
G1 E0.80000 F2100.00000
G1 F1200
G1 X145.199 Y101.764 E0.01141
G1 X144.937 Y101.698 E0.00847
G1 X144.605 Y101.550 E0.01141
G1 X144.302 Y101.330 E0.01174
G1 X144.052 Y101.052 E0.01173
G1 X143.864 Y100.728 E0.01174
G1 X143.752 Y100.382 E0.01141
G1 X143.716 Y100.125 E0.00815
G1 X143.716 Y99.865 E0.00815
G1 X143.779 Y99.506 E0.01141
G1 X143.919 Y99.160 E0.01173
G1 X144.128 Y98.849 E0.01173
G1 X144.398 Y98.589 E0.01174
G1 X144.715 Y98.391 E0.01174
G1 X145.067 Y98.263 E0.01173
G1 X145.437 Y98.211 E0.01173
G1 X145.801 Y98.236 E0.01141
G1 X146.063 Y98.302 E0.00847
G1 X146.395 Y98.450 E0.01141
G1 X146.698 Y98.670 E0.01174
G1 X146.948 Y98.948 E0.01173
G1 X147.136 Y99.272 E0.01174
G1 X147.248 Y99.618 E0.01141
G1 X147.284 Y99.875 E0.00815
G1 X147.284 Y100.135 E0.00815
G1 X147.221 Y100.494 E0.01141
G1 X147.081 Y100.840 E0.01173
G1 X146.872 Y101.151 E0.01173
G1 X146.602 Y101.411 E0.01174
G1 X146.285 Y101.609 E0.01173
G1 X145.933 Y101.737 E0.01173
G1 X145.622 Y101.781 E0.00985
G1 X145.569 Y101.407 F10800.000
G1 F1200
G1 X145.259 Y101.390 E0.00976
G1 X145.061 Y101.341 E0.00640
G1 X144.794 Y101.222 E0.00913
G1 X144.556 Y101.049 E0.00925
G1 X144.358 Y100.829 E0.00925
G1 X144.211 Y100.574 E0.00925
G1 X144.121 Y100.297 E0.00913
G1 X144.093 Y100.098 E0.00628
G1 X144.093 Y99.898 E0.00629
G1 X144.144 Y99.611 E0.00913
G1 X144.254 Y99.338 E0.00925
G1 X144.419 Y99.093 E0.00925
G1 X144.631 Y98.888 E0.00925
G1 X144.881 Y98.732 E0.00925
G1 X145.159 Y98.631 E0.00925
G1 X145.451 Y98.590 E0.00925
G1 X145.741 Y98.610 E0.00914
G1 X145.939 Y98.659 E0.00640
G1 X146.206 Y98.778 E0.00913
G1 X146.444 Y98.951 E0.00925
G1 X146.642 Y99.171 E0.00925
G1 X146.789 Y99.426 E0.00925
G1 X146.879 Y99.703 E0.00913
G1 X146.907 Y99.902 E0.00628
G1 X146.907 Y100.102 E0.00629
G1 X146.856 Y100.389 E0.00913
G1 X146.746 Y100.662 E0.00925
G1 X146.581 Y100.907 E0.00925
G1 X146.369 Y101.112 E0.00925
G1 X146.119 Y101.268 E0.00925
G1 X145.841 Y101.369 E0.00925
G1 X145.629 Y101.399 E0.00673
G1 X145.426 Y101.684 F10800.000
G1 F8640
G1 X145.259 Y101.390 E-0.08552
G1 X145.061 Y101.341 E-0.04713
G1 X144.794 Y101.222 E-0.06727
G1 X144.556 Y101.049 E-0.06813
G1 X144.358 Y100.829 E-0.06811
G1 X144.211 Y100.574 E-0.06813
G1 X144.121 Y100.297 E-0.06727
G1 X144.093 Y100.098 E-0.04628
G1 X144.093 Y99.898 E-0.04629
G1 X144.144 Y99.611 E-0.06727
G1 X144.254 Y99.338 E-0.06811
G1 X144.401 Y99.120 E-0.06050
G1 E-0.04000 F2100.00000
G1 Z0.800 F10800.000
G1 X145.087 Y114.913
G1 Z0.200
G1 E0.80000 F2100.00000
G1 F1200
G1 X143.587 Y114.913 E0.04703
G1 X143.587 Y95.087 E0.62163
G1 X145.087 Y95.087 E0.04703
G1 X145.087 Y80.587 E0.45464
G1 X153.913 Y80.587 E0.27673
G1 X153.913 Y129.413 E1.53090
G1 X145.087 Y129.413 E0.27673
G1 X145.087 Y114.973 E0.45276
G1 X144.710 Y115.290 F10800.000
G1 F1200
G1 X95.710 Y115.290 E1.53636
G1 X95.710 Y94.710 E0.64527
G1 X144.710 Y94.710 E1.53636
G1 X144.710 Y80.210 E0.45464
G1 X154.290 Y80.210 E0.30037
G1 X154.290 Y129.790 E1.55455
G1 X144.710 Y129.790 E0.30037
G1 X144.710 Y115.350 E0.45276
G1 X144.633 Y114.898 F10800.000
G1 X144.847 Y114.800
G1 F1200
G1 X143.870 Y113.822 E0.04350
G1 X143.870 Y114.358 E0.01685
G1 X144.312 Y114.800 E0.01968
G1 X143.399 Y115.000 F10800.000
G1 F1200
G1 X101.601 Y115.000 E0.70525
G1 X100.740 Y114.800 F10800.000
G1 F1200
G1 X96.370 Y110.429 E0.19572
G1 X96.370 Y110.968 E0.01705
G1 X100.032 Y114.630 E0.16401
G1 X99.494 Y114.630 E0.01705
G1 X96.370 Y111.506 E0.13989
G1 X96.370 Y112.045 E0.01705
G1 X98.955 Y114.630 E0.11577
G1 X98.416 Y114.630 E0.01705
G1 X96.370 Y112.584 E0.09165
G1 X96.370 Y113.122 E0.01705
G1 X97.878 Y114.630 E0.06753
G1 X97.339 Y114.630 E0.01705
G1 X96.370 Y113.661 E0.04341
G1 X96.370 Y114.199 E0.01705
G1 X96.970 Y114.800 E0.02689
G1 F8640
G1 X96.370 Y114.199 E-0.19608
G1 X96.370 Y113.661 E-0.12436
G1 X97.339 Y114.630 E-0.31654
G1 X97.872 Y114.630 E-0.12303
G1 E-0.04000 F2100.00000
G1 Z0.800 F10800.000
G1 X101.300 Y111.589
G1 Z0.200
G1 E0.80000 F2100.00000
G1 F1200
G1 X101.066 Y111.356 E0.01046
G1 X100.792 Y111.620 E0.01206
G1 X101.130 Y111.958 E0.01513
G1 X101.130 Y112.497 E0.01705
G1 X100.464 Y111.831 E0.02983
G1 X100.080 Y111.985 E0.01312
G1 X101.130 Y113.035 E0.04705
G1 X101.130 Y113.574 E0.01705
G1 X99.623 Y112.066 E0.06751
G1 X99.155 Y112.044 E0.01483
G1 X99.031 Y112.013 E0.00405
G1 X101.130 Y114.112 E0.09401
G1 X101.130 Y114.630 E0.01639
G1 X101.109 Y114.630 E0.00066
G1 X96.370 Y109.891 E0.21224
G1 X96.370 Y109.352 E0.01705
G1 X97.481 Y110.463 E0.04976
G1 X97.433 Y110.145 E0.01021
G1 X97.433 Y109.877 E0.00848
G1 X96.370 Y108.814 E0.04761
G1 X96.370 Y108.275 E0.01705
G1 X97.511 Y109.416 E0.05109
G1 X97.666 Y109.032 E0.01310
G1 X96.370 Y107.736 E0.05803
G1 X96.370 Y107.198 E0.01705
G1 X97.882 Y108.710 E0.06770
G1 X98.148 Y108.437 E0.01206
G1 X96.370 Y106.659 E0.07963
G1 X96.370 Y106.121 E0.01705
G1 X98.464 Y108.215 E0.09377
G1 X98.591 Y108.135 E0.00474
G1 X98.834 Y108.047 E0.00821
G1 X96.370 Y105.582 E0.11037
G1 X96.370 Y105.044 E0.01705
G1 X99.274 Y107.948 E0.13008
G1 X99.428 Y107.927 E0.00490
G1 X99.819 Y107.954 E0.01242
G1 X96.370 Y104.505 E0.15446
G1 X96.370 Y103.966 E0.01705
G1 X101.130 Y108.727 E0.21318
G1 X101.130 Y108.188 E0.01705
G1 X96.370 Y103.428 E0.21318
G1 X96.370 Y102.889 E0.01705
G1 X101.130 Y107.649 E0.21318
G1 X101.130 Y107.111 E0.01705
G1 X96.370 Y102.351 E0.21318
G1 X96.370 Y101.812 E0.01705
G1 X101.130 Y106.572 E0.21318
G1 X101.130 Y106.034 E0.01705
G1 X96.370 Y101.273 E0.21318
G1 X96.370 Y100.735 E0.01705
G1 X101.130 Y105.495 E0.21318
G1 X101.130 Y104.957 E0.01705
G1 X96.370 Y100.196 E0.21318
G1 X96.370 Y99.658 E0.01705
G1 X101.300 Y104.588 E0.22078
G1 F8640
G1 X98.972 Y102.260 E-0.76000
