; generated by PrusaSlicer 2.1.1 on 2020-12-06 at 10:58:17 UTC

; 

; external perimeters extrusion width = 0.45mm
; perimeters extrusion width = 0.45mm
; infill extrusion width = 0.45mm
; solid infill extrusion width = 0.45mm
; top infill extrusion width = 0.40mm
; support material extrusion width = 0.35mm
; first layer extrusion width = 0.42mm

M73 P0 R16
M73 Q0 S16
M201 X1000 Y1000 Z200 E5000 ; sets maximum accelerations, mm/sec^2
M203 X200 Y200 Z12 E120 ; sets maximum feedrates, mm/sec
M204 P1250 R1250 T1250 ; sets acceleration (P, T) and retract acceleration (R), mm/sec^2
M205 X8.00 Y8.00 Z0.40 E4.50 ; sets the jerk limits, mm/sec
M205 S0 T0 ; sets the minimum extruding and travel feed rate, mm/sec
M107
M862.3 P "MK3S" ; printer model check
M862.1 P0.4 ; nozzle diameter check
M115 U3.9.1 ; tell printer latest fw version
G90 ; use absolute coordinates
M83 ; extruder relative mode
M104 S230 ; set extruder temp
M140 S85 ; set bed temp
M190 S85 ; wait for bed temp
M109 S230 ; wait for extruder temp
G28 W ; home all without mesh bed level
G80 ; mesh bed leveling
G1 Y-3.0 F1000.0 ; go outside print area
G92 E0.0
G1 X60.0 E9.0 F1000.0 ; intro line
M73 Q0 S16
M73 P0 R16
G1 X100.0 E12.5 F1000.0 ; intro line
G92 E0.0
M221 S95
G21 ; set units to millimeters
G90 ; use absolute coordinates
M83 ; use relative distances for extrusion
M900 K0.08 ; Filament gcode LA 1.5
M900 K45 ; Filament gcode LA 1.0
;BEFORE_LAYER_CHANGE
G92 E0.0
;0.2


G1 E-1.40000 F2100.00000
G1 Z0.200 F10800.000
;AFTER_LAYER_CHANGE
;0.2
G1 Z0.400
G1 X108.786 Y97.976
G1 Z0.200
G1 E1.40000 F2100.00000
M204 S1000
G1 F1200
G1 X109.420 Y97.784 E0.02079
G1 X121.683 Y96.101 E0.38808
G1 X128.273 Y96.085 E0.20663
G1 X139.058 Y97.812 E0.34246
G1 X139.929 Y98.186 E0.02973
G1 X140.602 Y98.848 E0.02961
G1 X140.930 Y99.500 E0.02288
G1 X141.062 Y100.221 E0.02300
G1 X141.062 Y111.148 E0.34261
G1 X140.986 Y111.688 E0.01709
G1 X140.795 Y112.203 E0.01721
G1 X140.500 Y112.666 E0.01721
G1 X140.116 Y113.052 E0.01709
G1 X139.379 Y113.471 E0.02655
G1 X138.547 Y113.626 E0.02655
G1 X109.812 Y113.627 E0.90096
G1 X109.255 Y113.559 E0.01758
G1 X108.726 Y113.373 E0.01758
G1 X108.248 Y113.073 E0.01771
G1 X107.849 Y112.679 E0.01758
G1 X107.443 Y111.976 E0.02545
G1 X107.277 Y111.178 E0.02557
G1 X107.275 Y100.248 E0.34269
G1 X107.349 Y99.700 E0.01734
G1 X107.537 Y99.184 E0.01721
G1 X107.833 Y98.717 E0.01734
G1 X108.222 Y98.324 E0.01734
G1 X108.735 Y98.008 E0.01891
G1 X108.929 Y98.330 F10800.000
G1 F1200
G1 X109.492 Y98.155 E0.01847
G1 X121.733 Y96.474 E0.38741
G1 X128.272 Y96.462 E0.20505
G1 X138.957 Y98.176 E0.33929
G1 X139.701 Y98.487 E0.02529
G1 X140.282 Y99.048 E0.02529
G1 X140.571 Y99.615 E0.01998
G1 X140.685 Y100.242 E0.01998
G1 X140.685 Y111.127 E0.34128
G1 X140.620 Y111.597 E0.01487
G1 X140.455 Y112.041 E0.01487
G1 X140.195 Y112.443 E0.01498
G1 X139.858 Y112.776 E0.01487
G1 X139.235 Y113.122 E0.02236
G1 X138.533 Y113.250 E0.02236
G1 X109.814 Y113.250 E0.90046
G1 X109.333 Y113.190 E0.01521
G1 X108.876 Y113.026 E0.01521
G1 X108.467 Y112.766 E0.01521
G1 X108.125 Y112.422 E0.01521
G1 X107.788 Y111.822 E0.02157
G1 X107.653 Y111.148 E0.02157
G1 X107.652 Y100.261 E0.34135
G1 X107.716 Y99.787 E0.01498
G1 X107.881 Y99.339 E0.01498
G1 X108.140 Y98.937 E0.01498
G1 X108.479 Y98.601 E0.01498
G1 X108.878 Y98.361 E0.01458
G1 F8640
G1 X109.492 Y98.155 E-0.14954
G1 X114.557 Y97.459 E-1.18046
G1 E-0.07000 F2100.00000
G1 Z0.400 F10800.000
G1 X109.840 Y111.061
G1 Z0.200
G1 E1.40000 F2100.00000
G1 F1200
G1 X109.840 Y100.315 E0.33693
G1 X110.594 Y100.315 E0.02365
G1 X110.594 Y110.892 E0.33161
G1 X111.348 Y110.892 E0.02365
G1 X111.348 Y100.315 E0.33161
G1 X112.102 Y100.315 E0.02365
G1 X112.102 Y110.892 E0.33161
G1 X112.856 Y110.892 E0.02365
G1 X112.856 Y100.315 E0.33161
G1 X113.610 Y100.315 E0.02365
G1 X113.610 Y110.892 E0.33161
G1 X114.365 Y110.892 E0.02365
G1 X114.365 Y100.315 E0.33161
G1 X115.119 Y100.315 E0.02365
G1 X115.119 Y110.892 E0.33161
G1 X115.873 Y110.892 E0.02365
G1 X115.873 Y100.315 E0.33161
G1 X116.627 Y100.315 E0.02365
G1 X116.627 Y110.892 E0.33161
G1 X117.381 Y110.892 E0.02365
G1 X117.381 Y100.315 E0.33161
G1 X118.135 Y100.315 E0.02365
G1 X118.135 Y110.892 E0.33161
G1 X118.890 Y110.892 E0.02365
G1 X118.890 Y100.315 E0.33161
G1 X119.644 Y100.315 E0.02365
G1 X119.644 Y110.892 E0.33161
G1 X120.398 Y110.892 E0.02365
G1 X120.398 Y100.315 E0.33161
G1 X121.152 Y100.315 E0.02365
G1 X121.152 Y111.061 E0.33693
G1 F8640
G1 X121.152 Y105.301 E-1.33000
G1 E-0.07000 F2100.00000
G1 Z0.400 F10800.000
G1 X128.694 Y111.061
G1 Z0.200
G1 E1.40000 F2100.00000
G1 F1200
G1 X128.694 Y100.315 E0.33693
G1 X129.448 Y100.315 E0.02365
G1 X129.448 Y110.892 E0.33161
G1 X130.202 Y110.892 E0.02365
G1 X130.202 Y100.315 E0.33161
G1 X130.956 Y100.315 E0.02365
G1 X130.956 Y110.892 E0.33161
G1 X131.710 Y110.892 E0.02365
G1 X131.710 Y100.315 E0.33161
G1 X132.464 Y100.315 E0.02365
G1 X132.464 Y110.892 E0.33161
G1 X133.219 Y110.892 E0.02365
G1 X133.219 Y100.315 E0.33161
G1 X133.973 Y100.315 E0.02365
G1 X133.973 Y110.892 E0.33161
G1 X134.727 Y110.892 E0.02365
G1 X134.727 Y100.315 E0.33161
G1 X135.481 Y100.315 E0.02365
G1 X135.481 Y110.892 E0.33161
G1 X136.235 Y110.892 E0.02365
G1 X136.235 Y100.315 E0.33161
G1 X136.989 Y100.315 E0.02365
G1 X136.989 Y110.892 E0.33161
G1 X137.744 Y110.892 E0.02365
G1 X137.744 Y100.315 E0.33161
G1 X138.498 Y100.315 E0.02365
G1 X138.498 Y111.061 E0.33693
G1 F8640
G1 X138.498 Y105.301 E-1.33000
G1 E-0.07000 F2100.00000
G1 Z0.400 F10800.000
G1 X127.682 Y110.063
G1 Z0.200
G1 E1.40000 F2100.00000
G1 F1200
G1 X122.556 Y110.063 E0.16072
G1 X122.556 Y99.237 E0.33944
G1 X127.682 Y99.237 E0.16072
G1 X127.682 Y110.003 E0.33756
G1 X128.059 Y110.440 F10800.000
G1 F1200
G1 X122.179 Y110.440 E0.18436
G1 X122.179 Y98.860 E0.36308
G1 X128.059 Y98.860 E0.18436
G1 X128.059 Y110.380 E0.36120
G1 X127.685 Y110.297 F10800.000
G1 F8640
G1 X122.299 Y110.439 E-1.33000
G1 E-0.07000 F2100.00000
G1 Z0.400 F10800.000
G1 X122.669 Y109.182
G1 Z0.200
G1 E1.40000 F2100.00000
G1 F1200
G1 X123.267 Y109.780 E0.02671
G1 X123.804 Y109.780 E0.01696
G1 X122.839 Y108.815 E0.04312
G1 X122.839 Y108.278 E0.01696
G1 X124.341 Y109.780 E0.06710
G1 X124.878 Y109.780 E0.01696
G1 X122.839 Y107.741 E0.09108
G1 X122.839 Y107.204 E0.01696
G1 X125.415 Y109.780 E0.11507
G1 X125.952 Y109.780 E0.01696
G1 X122.839 Y106.667 E0.13905
G1 X122.839 Y106.129 E0.01696
G1 X126.489 Y109.780 E0.16303
G1 X127.027 Y109.780 E0.01696
G1 X122.839 Y105.592 E0.18702
G1 X122.839 Y105.055 E0.01696
G1 X127.399 Y109.616 E0.20365
G1 X127.399 Y109.079 E0.01696
G1 X122.839 Y104.518 E0.20365
G1 X122.839 Y103.981 E0.01696
G1 X127.399 Y108.541 E0.20365
G1 X127.399 Y108.004 E0.01696
G1 X122.839 Y103.444 E0.20365
G1 X122.839 Y102.907 E0.01696
G1 X127.399 Y107.467 E0.20365
G1 X127.399 Y106.930 E0.01696
G1 X122.839 Y102.370 E0.20365
G1 X122.839 Y101.833 E0.01696
G1 X127.399 Y106.393 E0.20365
G1 X127.399 Y105.856 E0.01696
G1 X122.839 Y101.296 E0.20365
G1 X122.839 Y100.759 E0.01696
G1 X127.399 Y105.319 E0.20365
G1 X127.399 Y104.782 E0.01696
G1 X122.839 Y100.222 E0.20365
G1 X122.839 Y99.685 E0.01696
G1 X127.399 Y104.245 E0.20365
G1 X127.399 Y103.708 E0.01696
G1 X123.211 Y99.520 E0.18702
G1 X123.748 Y99.520 E0.01696
G1 X127.399 Y103.171 E0.16304
G1 X127.399 Y102.634 E0.01696
G1 X124.285 Y99.520 E0.13905
G1 X124.822 Y99.520 E0.01696
G1 X127.399 Y102.097 E0.11507
G1 X127.399 Y101.560 E0.01696
G1 X125.359 Y99.520 E0.09109
G1 X125.896 Y99.520 E0.01696
G1 X127.399 Y101.023 E0.06711
G1 X127.399 Y100.486 E0.01696
G1 X126.433 Y99.520 E0.04312
G1 X126.970 Y99.520 E0.01696
G1 X127.569 Y100.118 E0.02672
;BEFORE_LAYER_CHANGE
G92 E0.0
;0.35


G1 F8640
G1 X126.970 Y99.520 E-0.19536
G1 X126.433 Y99.520 E-0.12401
G1 X127.399 Y100.486 E-0.31533
G1 X127.399 Y101.023 E-0.12401
G1 X125.896 Y99.520 E-0.49070
G1 X125.547 Y99.520 E-0.08060
G1 E-0.07000 F2100.00000
G1 Z0.400 F10800.000
;AFTER_LAYER_CHANGE
;0.35
M104 S240 ; set temperature
M140 S90 ; set bed temperature
G1 X139.929 Y98.186
G1 Z0.350
G1 E1.40000 F2100.00000
G1 F900
G1 X140.602 Y98.848 E0.02284
G1 X140.930 Y99.500 E0.01765
G1 X141.062 Y100.221 E0.01774
G1 X141.062 Y111.148 E0.26427
G1 X140.986 Y111.688 E0.01318
G1 X140.795 Y112.203 E0.01328
G1 X140.500 Y112.666 E0.01328
G1 X140.116 Y113.052 E0.01318
G1 X139.379 Y113.471 E0.02048
G1 X138.547 Y113.626 E0.02048
G1 X109.812 Y113.627 E0.69495
G1 X109.255 Y113.559 E0.01356
G1 X108.726 Y113.373 E0.01356
G1 X108.248 Y113.073 E0.01366
G1 X107.849 Y112.679 E0.01356
G1 X107.443 Y111.976 E0.01963
G1 X107.277 Y111.178 E0.01973
G1 X107.275 Y100.248 E0.26433
G1 X107.349 Y99.700 E0.01337
G1 X107.537 Y99.184 E0.01328
G1 X107.833 Y98.717 E0.01337
G1 X108.222 Y98.324 E0.01337
G1 X108.786 Y97.976 E0.01603
G1 X109.420 Y97.784 E0.01603
G1 X121.683 Y96.101 E0.29934
G1 X128.273 Y96.085 E0.15938
G1 X139.058 Y97.812 E0.26415
G1 X139.874 Y98.162 E0.02148
G1 F8640
G1 X140.602 Y98.848 E-0.23101
G1 X140.930 Y99.500 E-0.16847
G1 X141.062 Y100.221 E-0.16937
G1 X141.062 Y103.518 E-0.76115
G1 E-0.07000 F2100.00000
G1 Z0.550 F10800.000
G1 X127.626 Y99.293
G1 Z0.350
G1 E1.40000 F2100.00000
M204 S800
G1 F900
G1 X127.626 Y110.007 E0.27917
G1 X122.612 Y110.007 E0.13065
G1 X122.612 Y99.293 E0.27917
G1 X127.566 Y99.293 E0.12909
M204 S1000
G1 X128.044 Y98.875 F10800.000
M204 S800
G1 F900
G1 X128.044 Y110.425 E0.30094
G1 X122.194 Y110.425 E0.15243
G1 X122.194 Y98.875 E0.30094
G1 X127.984 Y98.875 E0.15086
M204 S1000
G1 X127.982 Y99.270 F10800.000
G1 F8640
G1 X128.014 Y104.635 E-1.33000
G1 E-0.07000 F2100.00000
G1 Z0.550 F10800.000
G1 X123.614 Y99.418
G1 Z0.350
G1 E1.40000 F2100.00000
G1 F900
G1 X122.925 Y100.107 E0.02631
G1 X122.925 Y100.720 E0.01654
G1 X124.038 Y99.606 E0.04252
G1 X124.651 Y99.606 E0.01654
G1 X122.925 Y101.332 E0.06591
G1 X122.925 Y101.944 E0.01654
G1 X125.263 Y99.606 E0.08930
G1 X125.876 Y99.606 E0.01654
G1 X122.925 Y102.557 E0.11269
G1 X122.925 Y103.169 E0.01654
G1 X126.488 Y99.606 E0.13608
G1 X127.100 Y99.606 E0.01654
G1 X122.925 Y103.782 E0.15947
G1 X122.925 Y104.394 E0.01654
G1 X127.313 Y100.006 E0.16758
G1 X127.313 Y100.619 E0.01654
G1 X122.925 Y105.007 E0.16758
G1 X122.925 Y105.619 E0.01654
G1 X127.313 Y101.231 E0.16758
G1 X127.313 Y101.844 E0.01654
G1 X122.925 Y106.231 E0.16758
G1 X122.925 Y106.844 E0.01654
G1 X127.313 Y102.456 E0.16758
G1 X127.313 Y103.069 E0.01654
G1 X122.925 Y107.456 E0.16758
M73 Q6 S15
G1 X122.925 Y108.069 E0.01654
G1 X127.313 Y103.681 E0.16758
M73 P6 R15
G1 X127.313 Y104.294 E0.01654
G1 X122.925 Y108.681 E0.16758
G1 X122.925 Y109.294 E0.01654
G1 X127.313 Y104.906 E0.16758
G1 X127.313 Y105.518 E0.01654
G1 X123.137 Y109.694 E0.15948
G1 X123.750 Y109.694 E0.01654
G1 X127.313 Y106.131 E0.13609
G1 X127.313 Y106.743 E0.01654
G1 X124.362 Y109.694 E0.11270
G1 X124.974 Y109.694 E0.01654
G1 X127.313 Y107.356 E0.08931
G1 X127.313 Y107.968 E0.01654
G1 X125.587 Y109.694 E0.06591
G1 X126.199 Y109.694 E0.01654
G1 X127.313 Y108.581 E0.04252
G1 X127.313 Y109.193 E0.01654
G1 X126.624 Y109.882 E0.02631
;BEFORE_LAYER_CHANGE
G92 E0.0
;0.439286


G1 F8640
G1 X127.313 Y109.193 E-0.22497
G1 X127.313 Y108.581 E-0.14141
G1 X126.199 Y109.694 E-0.36356
G1 X125.587 Y109.694 E-0.14141
G1 X126.991 Y108.289 E-0.45864
G1 E-0.07000 F2100.00000
G1 Z0.550 F10800.000
;AFTER_LAYER_CHANGE
;0.439286
G1 X128.883 Y107.921
G1 Z0.439
G1 E1.40000 F2100.00000
G1 F900
G1 X135.979 Y107.921 E0.21084
G1 X135.979 Y105.604 E0.06886
G1 X129.026 Y105.604 E0.20659
G1 X129.026 Y103.286 E0.06886
G1 X136.122 Y103.286 E0.21084
G1 F8640
G1 X130.362 Y103.286 E-1.33000
G1 E-0.07000 F2100.00000
G1 Z0.639 F10800.000
G1 X121.728 Y103.286
G1 Z0.439
G1 E1.40000 F2100.00000
G1 F900
G1 X112.801 Y103.286 E0.26523
G1 X112.801 Y105.604 E0.06886
G1 X121.585 Y105.604 E0.26098
G1 X121.585 Y107.921 E0.06886
G1 X112.658 Y107.921 E0.26523
;BEFORE_LAYER_CHANGE
G92 E0.0
;0.5


G1 F8640
G1 X118.418 Y107.921 E-1.33000
G1 E-0.07000 F2100.00000
G1 Z0.639 F10800.000
;AFTER_LAYER_CHANGE
;0.5
G1 X139.929 Y98.186
G1 Z0.500
G1 E1.40000 F2100.00000
G1 F900
G1 X140.602 Y98.848 E0.02284
G1 X140.930 Y99.500 E0.01765
G1 X141.062 Y100.221 E0.01774
G1 X141.062 Y111.148 E0.26427
G1 X140.986 Y111.688 E0.01318
G1 X140.795 Y112.203 E0.01328
G1 X140.500 Y112.666 E0.01328
G1 X140.116 Y113.052 E0.01318
G1 X139.379 Y113.471 E0.02048
G1 X138.547 Y113.626 E0.02048
G1 X109.812 Y113.627 E0.69495
G1 X109.255 Y113.559 E0.01356
G1 X108.726 Y113.373 E0.01356
G1 X108.248 Y113.073 E0.01366
G1 X107.849 Y112.679 E0.01356
G1 X107.443 Y111.976 E0.01963
G1 X107.277 Y111.178 E0.01973
G1 X107.275 Y100.248 E0.26433
G1 X107.349 Y99.700 E0.01337
G1 X107.537 Y99.184 E0.01328
G1 X107.833 Y98.717 E0.01337
G1 X108.222 Y98.324 E0.01337
G1 X108.786 Y97.976 E0.01603
G1 X109.420 Y97.784 E0.01603
G1 X121.683 Y96.101 E0.29934
G1 X128.273 Y96.085 E0.15938
G1 X139.058 Y97.812 E0.26415
G1 X139.874 Y98.162 E0.02148
G1 F8640
G1 X140.602 Y98.848 E-0.23101
G1 X140.930 Y99.500 E-0.16847
G1 X141.062 Y100.221 E-0.16937
G1 X141.062 Y103.518 E-0.76115
G1 E-0.07000 F2100.00000
G1 Z0.700 F10800.000
G1 X127.626 Y99.293
G1 Z0.500
G1 E1.40000 F2100.00000
M204 S800
G1 F900
G1 X127.626 Y110.007 E0.27917
G1 X122.612 Y110.007 E0.13065
G1 X122.612 Y99.293 E0.27917
G1 X127.566 Y99.293 E0.12909
M204 S1000
G1 X128.044 Y98.875 F10800.000
M204 S800
G1 F900
G1 X128.044 Y110.425 E0.30094
G1 X122.194 Y110.425 E0.15243
G1 X122.194 Y98.875 E0.30094
G1 X127.984 Y98.875 E0.15086
M204 S1000
G1 X127.982 Y99.270 F10800.000
G1 F8640
G1 X128.014 Y104.635 E-1.33000
G1 E-0.07000 F2100.00000
G1 Z0.700 F10800.000
G1 X127.501 Y100.295
G1 Z0.500
G1 E1.40000 F2100.00000
G1 F900
G1 X126.812 Y99.606 E0.02631
G1 X126.199 Y99.606 E0.01654
G1 X127.313 Y100.720 E0.04252
G1 X127.313 Y101.332 E0.01654
G1 X125.587 Y99.606 E0.06591
G1 X124.974 Y99.606 E0.01654
G1 X127.313 Y101.945 E0.08931
G1 X127.313 Y102.557 E0.01654
G1 X124.362 Y99.606 E0.11270
G1 X123.750 Y99.606 E0.01654
G1 X127.313 Y103.169 E0.13609
G1 X127.313 Y103.782 E0.01654
G1 X123.137 Y99.606 E0.15948
G1 X122.925 Y99.606 E0.00573
G1 X122.925 Y100.007 E0.01081
G1 X127.313 Y104.394 E0.16758
G1 X127.313 Y105.007 E0.01654
G1 X122.925 Y100.619 E0.16758
G1 X122.925 Y101.231 E0.01654
G1 X127.313 Y105.619 E0.16758
G1 X127.313 Y106.232 E0.01654
G1 X122.925 Y101.844 E0.16758
G1 X122.925 Y102.456 E0.01654
G1 X127.313 Y106.844 E0.16758
G1 X127.313 Y107.456 E0.01654
G1 X122.925 Y103.069 E0.16758
G1 X122.925 Y103.681 E0.01654
G1 X127.313 Y108.069 E0.16758
G1 X127.313 Y108.681 E0.01654
G1 X122.925 Y104.294 E0.16758
G1 X122.925 Y104.906 E0.01654
G1 X127.313 Y109.294 E0.16758
G1 X127.313 Y109.694 E0.01081
G1 X127.100 Y109.694 E0.00573
G1 X122.925 Y105.519 E0.15947
G1 X122.925 Y106.131 E0.01654
G1 X126.488 Y109.694 E0.13608
G1 X125.876 Y109.694 E0.01654
G1 X122.925 Y106.743 E0.11269
G1 X122.925 Y107.356 E0.01654
G1 X125.263 Y109.694 E0.08930
G1 X124.651 Y109.694 E0.01654
G1 X122.925 Y107.968 E0.06591
G1 X122.925 Y108.581 E0.01654
G1 X124.038 Y109.694 E0.04252
G1 X123.426 Y109.694 E0.01654
G1 X122.737 Y109.005 E0.02631
M106 S127.5
;BEFORE_LAYER_CHANGE
G92 E0.0
;0.65


G1 F8640
G1 X123.426 Y109.694 E-0.22493
G1 X124.038 Y109.694 E-0.14141
G1 X122.925 Y108.581 E-0.36352
G1 X122.925 Y107.968 E-0.14141
G1 X124.330 Y109.373 E-0.45872
G1 E-0.07000 F2100.00000
G1 Z0.700 F10800.000
;AFTER_LAYER_CHANGE
;0.65
G1 X122.612 Y110.007
G1 Z0.650
G1 E1.40000 F2100.00000
M204 S800
G1 F900
G1 X122.612 Y99.293 E0.27917
G1 X127.626 Y99.293 E0.13065
G1 X127.626 Y110.007 E0.27917
G1 X122.672 Y110.007 E0.12909
M204 S1000
G1 X122.194 Y110.425 F10800.000
M204 S800
G1 F900
G1 X122.194 Y98.875 E0.30094
G1 X128.044 Y98.875 E0.15243
G1 X128.044 Y110.425 E0.30094
G1 X122.254 Y110.425 E0.15086
M204 S1000
G1 X122.256 Y110.030 F10800.000
G1 F8640
G1 X122.224 Y104.665 E-1.33000
G1 E-0.07000 F2100.00000
G1 Z0.850 F10800.000
G1 X126.624 Y109.882
G1 Z0.650
G1 E1.40000 F2100.00000
G1 F900
G1 X127.313 Y109.193 E0.02631
G1 X127.313 Y108.581 E0.01654
G1 X126.199 Y109.694 E0.04252
G1 X125.587 Y109.694 E0.01654
G1 X127.313 Y107.968 E0.06591
G1 X127.313 Y107.356 E0.01654
G1 X124.974 Y109.694 E0.08931
G1 X124.362 Y109.694 E0.01654
G1 X127.313 Y106.743 E0.11270
