; generated by PrusaSlicer 2.1.1 on 2020-12-06 at 10:26:49 UTC

; 

; external perimeters extrusion width = 0.45mm
; perimeters extrusion width = 0.45mm
; infill extrusion width = 0.45mm
; solid infill extrusion width = 0.45mm
; top infill extrusion width = 0.40mm
; support material extrusion width = 0.35mm
; first layer extrusion width = 0.42mm

M73 P0 R15
M73 Q0 S15
M201 X1000 Y1000 Z200 E5000 ; sets maximum accelerations, mm/sec^2
M203 X200 Y200 Z12 E120 ; sets maximum feedrates, mm/sec
M204 P1250 R1250 T1250 ; sets acceleration (P, T) and retract acceleration (R), mm/sec^2
M205 X8.00 Y8.00 Z0.40 E4.50 ; sets the jerk limits, mm/sec
M205 S0 T0 ; sets the minimum extruding and travel feed rate, mm/sec
M107
M862.3 P "MK3S" ; printer model check
M862.1 P0.4 ; nozzle diameter check
M115 U3.9.1 ; tell printer latest fw version
G90 ; use absolute coordinates
M83 ; extruder relative mode
M104 S230 ; set extruder temp
M140 S85 ; set bed temp
M190 S85 ; wait for bed temp
M109 S230 ; wait for extruder temp
G28 W ; home all without mesh bed level
G80 ; mesh bed leveling
G1 Y-3.0 F1000.0 ; go outside print area
G92 E0.0
G1 X60.0 E9.0 F1000.0 ; intro line
M73 Q0 S15
M73 P0 R15
G1 X100.0 E12.5 F1000.0 ; intro line
G92 E0.0
M221 S95
G21 ; set units to millimeters
G90 ; use absolute coordinates
M83 ; use relative distances for extrusion
M900 K0.08 ; Filament gcode LA 1.5
M900 K45 ; Filament gcode LA 1.0
;BEFORE_LAYER_CHANGE
G92 E0.0
;0.2


G1 E-1.40000 F2100.00000
G1 Z0.200 F10800.000
;AFTER_LAYER_CHANGE
;0.2
G1 Z0.400
G1 X108.667 Y98.326
G1 Z0.200
G1 E1.40000 F2100.00000
M204 S1000
G1 F1200
G1 X109.302 Y98.134 E0.02079
G1 X121.564 Y96.450 E0.38808
G1 X128.154 Y96.434 E0.20663
G1 X138.939 Y98.162 E0.34246
G1 X139.810 Y98.536 E0.02973
G1 X140.483 Y99.198 E0.02961
G1 X140.811 Y99.850 E0.02288
G1 X140.943 Y100.571 E0.02300
G1 X140.943 Y111.498 E0.34261
G1 X140.867 Y112.038 E0.01709
G1 X140.677 Y112.553 E0.01721
G1 X140.381 Y113.016 E0.01721
G1 X139.997 Y113.402 E0.01709
G1 X139.261 Y113.821 E0.02655
G1 X138.428 Y113.976 E0.02655
G1 X109.693 Y113.977 E0.90096
G1 X109.136 Y113.909 E0.01758
G1 X108.608 Y113.723 E0.01758
G1 X108.129 Y113.423 E0.01771
G1 X107.730 Y113.029 E0.01758
G1 X107.324 Y112.326 E0.02545
G1 X107.158 Y111.528 E0.02557
G1 X107.156 Y100.598 E0.34269
G1 X107.230 Y100.050 E0.01734
G1 X107.418 Y99.534 E0.01721
G1 X107.714 Y99.067 E0.01734
G1 X108.103 Y98.674 E0.01734
G1 X108.616 Y98.358 E0.01891
G1 X108.810 Y98.680 F10800.000
G1 F1200
G1 X109.373 Y98.505 E0.01847
G1 X121.614 Y96.824 E0.38741
G1 X128.154 Y96.811 E0.20505
G1 X138.838 Y98.526 E0.33929
G1 X139.582 Y98.837 E0.02529
G1 X140.163 Y99.398 E0.02529
G1 X140.452 Y99.965 E0.01998
G1 X140.566 Y100.592 E0.01998
G1 X140.566 Y111.477 E0.34128
G1 X140.501 Y111.947 E0.01487
G1 X140.336 Y112.391 E0.01487
G1 X140.077 Y112.792 E0.01498
G1 X139.739 Y113.126 E0.01487
G1 X139.116 Y113.472 E0.02236
G1 X138.414 Y113.599 E0.02236
G1 X109.695 Y113.600 E0.90046
G1 X109.214 Y113.540 E0.01521
G1 X108.757 Y113.376 E0.01521
G1 X108.348 Y113.116 E0.01521
G1 X108.006 Y112.771 E0.01521
G1 X107.669 Y112.172 E0.02157
G1 X107.534 Y111.497 E0.02157
G1 X107.533 Y100.610 E0.34135
G1 X107.597 Y100.137 E0.01498
G1 X107.762 Y99.689 E0.01498
G1 X108.021 Y99.287 E0.01498
G1 X108.361 Y98.951 E0.01498
G1 X108.759 Y98.711 E0.01458
G1 F8640
G1 X109.373 Y98.505 E-0.14954
G1 X114.438 Y97.809 E-1.18046
G1 E-0.07000 F2100.00000
G1 Z0.400 F10800.000
G1 X109.721 Y111.411
G1 Z0.200
G1 E1.40000 F2100.00000
G1 F1200
G1 X109.721 Y100.665 E0.33693
G1 X110.475 Y100.665 E0.02365
G1 X110.475 Y111.242 E0.33161
G1 X111.229 Y111.242 E0.02365
G1 X111.229 Y100.665 E0.33161
G1 X111.983 Y100.665 E0.02365
G1 X111.983 Y111.242 E0.33161
G1 X112.738 Y111.242 E0.02365
G1 X112.738 Y100.665 E0.33161
G1 X113.492 Y100.665 E0.02365
G1 X113.492 Y111.242 E0.33161
G1 X114.246 Y111.242 E0.02365
G1 X114.246 Y100.665 E0.33161
G1 X115.000 Y100.665 E0.02365
G1 X115.000 Y111.242 E0.33161
G1 X115.754 Y111.242 E0.02365
G1 X115.754 Y100.665 E0.33161
G1 X116.508 Y100.665 E0.02365
G1 X116.508 Y111.242 E0.33161
G1 X117.262 Y111.242 E0.02365
G1 X117.262 Y100.665 E0.33161
G1 X118.017 Y100.665 E0.02365
G1 X118.017 Y111.242 E0.33161
G1 X118.771 Y111.242 E0.02365
G1 X118.771 Y100.665 E0.33161
G1 X119.525 Y100.665 E0.02365
G1 X119.525 Y111.242 E0.33161
G1 X120.279 Y111.242 E0.02365
G1 X120.279 Y100.665 E0.33161
G1 X121.033 Y100.665 E0.02365
G1 X121.033 Y111.411 E0.33693
G1 F8640
G1 X121.033 Y105.651 E-1.33000
G1 E-0.07000 F2100.00000
G1 Z0.400 F10800.000
G1 X128.575 Y111.411
G1 Z0.200
G1 E1.40000 F2100.00000
G1 F1200
G1 X128.575 Y100.665 E0.33693
G1 X129.329 Y100.665 E0.02365
G1 X129.329 Y111.242 E0.33161
G1 X130.083 Y111.242 E0.02365
G1 X130.083 Y100.665 E0.33161
G1 X130.837 Y100.665 E0.02365
G1 X130.837 Y111.242 E0.33161
G1 X131.591 Y111.242 E0.02365
G1 X131.591 Y100.665 E0.33161
G1 X132.346 Y100.665 E0.02365
G1 X132.346 Y111.242 E0.33161
G1 X133.100 Y111.242 E0.02365
G1 X133.100 Y100.665 E0.33161
G1 X133.854 Y100.665 E0.02365
G1 X133.854 Y111.242 E0.33161
G1 X134.608 Y111.242 E0.02365
G1 X134.608 Y100.665 E0.33161
G1 X135.362 Y100.665 E0.02365
G1 X135.362 Y111.242 E0.33161
G1 X136.116 Y111.242 E0.02365
G1 X136.116 Y100.665 E0.33161
G1 X136.871 Y100.665 E0.02365
G1 X136.871 Y111.242 E0.33161
G1 X137.625 Y111.242 E0.02365
G1 X137.625 Y100.665 E0.33161
G1 X138.379 Y100.665 E0.02365
G1 X138.379 Y111.411 E0.33693
G1 F8640
G1 X138.379 Y105.651 E-1.33000
G1 E-0.07000 F2100.00000
G1 Z0.400 F10800.000
G1 X127.563 Y110.413
G1 Z0.200
G1 E1.40000 F2100.00000
G1 F1200
G1 X122.437 Y110.413 E0.16072
G1 X122.437 Y99.587 E0.33944
G1 X127.563 Y99.587 E0.16072
G1 X127.563 Y110.353 E0.33756
G1 X127.940 Y110.790 F10800.000
G1 F1200
G1 X122.060 Y110.790 E0.18436
G1 X122.060 Y99.210 E0.36308
G1 X127.940 Y99.210 E0.18436
G1 X127.940 Y110.730 E0.36120
G1 X127.567 Y110.646 F10800.000
G1 F8640
G1 X122.180 Y110.789 E-1.33000
G1 E-0.07000 F2100.00000
G1 Z0.400 F10800.000
G1 X122.550 Y109.532
G1 Z0.200
G1 E1.40000 F2100.00000
G1 F1200
G1 X123.148 Y110.130 E0.02671
G1 X123.685 Y110.130 E0.01696
G1 X122.720 Y109.165 E0.04312
G1 X122.720 Y108.628 E0.01696
G1 X124.222 Y110.130 E0.06710
G1 X124.760 Y110.130 E0.01696
G1 X122.720 Y108.091 E0.09108
G1 X122.720 Y107.553 E0.01696
G1 X125.297 Y110.130 E0.11507
G1 X125.834 Y110.130 E0.01696
G1 X122.720 Y107.016 E0.13905
G1 X122.720 Y106.479 E0.01696
G1 X126.371 Y110.130 E0.16303
G1 X126.908 Y110.130 E0.01696
G1 X122.720 Y105.942 E0.18702
G1 X122.720 Y105.405 E0.01696
G1 X127.280 Y109.965 E0.20365
G1 X127.280 Y109.428 E0.01696
G1 X122.720 Y104.868 E0.20365
G1 X122.720 Y104.331 E0.01696
G1 X127.280 Y108.891 E0.20365
G1 X127.280 Y108.354 E0.01696
G1 X122.720 Y103.794 E0.20365
G1 X122.720 Y103.257 E0.01696
G1 X127.280 Y107.817 E0.20365
G1 X127.280 Y107.280 E0.01696
G1 X122.720 Y102.720 E0.20365
G1 X122.720 Y102.183 E0.01696
G1 X127.280 Y106.743 E0.20365
G1 X127.280 Y106.206 E0.01696
G1 X122.720 Y101.646 E0.20365
G1 X122.720 Y101.109 E0.01696
G1 X127.280 Y105.669 E0.20365
G1 X127.280 Y105.132 E0.01696
G1 X122.720 Y100.572 E0.20365
G1 X122.720 Y100.035 E0.01696
G1 X127.280 Y104.595 E0.20365
G1 X127.280 Y104.058 E0.01696
G1 X123.092 Y99.870 E0.18702
G1 X123.629 Y99.870 E0.01696
G1 X127.280 Y103.521 E0.16304
G1 X127.280 Y102.984 E0.01696
G1 X124.166 Y99.870 E0.13905
G1 X124.703 Y99.870 E0.01696
G1 X127.280 Y102.447 E0.11507
G1 X127.280 Y101.910 E0.01696
G1 X125.240 Y99.870 E0.09109
G1 X125.777 Y99.870 E0.01696
G1 X127.280 Y101.373 E0.06711
G1 X127.280 Y100.836 E0.01696
G1 X126.314 Y99.870 E0.04312
G1 X126.852 Y99.870 E0.01696
G1 X127.450 Y100.468 E0.02672
;BEFORE_LAYER_CHANGE
G92 E0.0
;0.35


G1 F8640
G1 X126.852 Y99.870 E-0.19536
G1 X126.314 Y99.870 E-0.12401
G1 X127.280 Y100.836 E-0.31533
G1 X127.280 Y101.373 E-0.12401
G1 X125.777 Y99.870 E-0.49070
G1 X125.428 Y99.870 E-0.08060
G1 E-0.07000 F2100.00000
G1 Z0.400 F10800.000
;AFTER_LAYER_CHANGE
;0.35
M104 S240 ; set temperature
M140 S90 ; set bed temperature
G1 X139.810 Y98.536
G1 Z0.350
G1 E1.40000 F2100.00000
G1 F900
G1 X140.483 Y99.198 E0.02284
G1 X140.811 Y99.850 E0.01765
G1 X140.943 Y100.571 E0.01774
G1 X140.943 Y111.498 E0.26427
G1 X140.867 Y112.038 E0.01318
G1 X140.677 Y112.553 E0.01328
G1 X140.381 Y113.016 E0.01328
G1 X139.997 Y113.402 E0.01318
G1 X139.261 Y113.821 E0.02048
G1 X138.428 Y113.976 E0.02048
G1 X109.693 Y113.977 E0.69495
G1 X109.136 Y113.909 E0.01356
G1 X108.608 Y113.723 E0.01356
G1 X108.129 Y113.423 E0.01366
G1 X107.730 Y113.029 E0.01356
G1 X107.324 Y112.326 E0.01963
G1 X107.158 Y111.528 E0.01973
G1 X107.156 Y100.598 E0.26433
G1 X107.230 Y100.050 E0.01337
G1 X107.418 Y99.534 E0.01328
G1 X107.714 Y99.067 E0.01337
G1 X108.103 Y98.674 E0.01337
G1 X108.667 Y98.326 E0.01603
G1 X109.302 Y98.134 E0.01603
G1 X121.564 Y96.450 E0.29934
G1 X128.154 Y96.434 E0.15938
G1 X138.939 Y98.162 E0.26415
G1 X139.755 Y98.512 E0.02148
G1 F8640
G1 X140.483 Y99.198 E-0.23101
G1 X140.811 Y99.850 E-0.16847
G1 X140.943 Y100.571 E-0.16937
G1 X140.943 Y103.868 E-0.76115
G1 E-0.07000 F2100.00000
G1 Z0.550 F10800.000
G1 X127.507 Y99.643
G1 Z0.350
G1 E1.40000 F2100.00000
M204 S800
G1 F900
G1 X127.507 Y110.357 E0.27917
G1 X122.493 Y110.357 E0.13065
G1 X122.493 Y99.643 E0.27917
G1 X127.447 Y99.643 E0.12909
M204 S1000
G1 X127.925 Y99.225 F10800.000
M204 S800
G1 F900
G1 X127.925 Y110.775 E0.30094
G1 X122.075 Y110.775 E0.15243
G1 X122.075 Y99.225 E0.30094
G1 X127.865 Y99.225 E0.15086
M204 S1000
G1 X127.863 Y99.620 F10800.000
G1 F8640
G1 X127.895 Y104.985 E-1.33000
G1 E-0.07000 F2100.00000
G1 Z0.550 F10800.000
G1 X123.495 Y99.768
G1 Z0.350
G1 E1.40000 F2100.00000
G1 F900
G1 X122.806 Y100.457 E0.02631
G1 X122.806 Y101.069 E0.01654
G1 X123.919 Y99.956 E0.04252
G1 X124.532 Y99.956 E0.01654
G1 X122.806 Y101.682 E0.06591
G1 X122.806 Y102.294 E0.01654
G1 X125.144 Y99.956 E0.08930
G1 X125.757 Y99.956 E0.01654
G1 X122.806 Y102.907 E0.11269
G1 X122.806 Y103.519 E0.01654
G1 X126.369 Y99.956 E0.13608
G1 X126.982 Y99.956 E0.01654
G1 X122.806 Y104.132 E0.15947
G1 X122.806 Y104.744 E0.01654
G1 X127.194 Y100.356 E0.16758
G1 X127.194 Y100.969 E0.01654
G1 X122.806 Y105.356 E0.16758
G1 X122.806 Y105.969 E0.01654
G1 X127.194 Y101.581 E0.16758
G1 X127.194 Y102.194 E0.01654
G1 X122.806 Y106.581 E0.16758
G1 X122.806 Y107.194 E0.01654
G1 X127.194 Y102.806 E0.16758
G1 X127.194 Y103.419 E0.01654
G1 X122.806 Y107.806 E0.16758
M73 Q6 S14
G1 X122.806 Y108.419 E0.01654
G1 X127.194 Y104.031 E0.16758
M73 P6 R14
G1 X127.194 Y104.643 E0.01654
G1 X122.806 Y109.031 E0.16758
G1 X122.806 Y109.644 E0.01654
G1 X127.194 Y105.256 E0.16758
G1 X127.194 Y105.868 E0.01654
G1 X123.018 Y110.044 E0.15948
G1 X123.631 Y110.044 E0.01654
G1 X127.194 Y106.481 E0.13609
G1 X127.194 Y107.093 E0.01654
G1 X124.243 Y110.044 E0.11270
G1 X124.856 Y110.044 E0.01654
G1 X127.194 Y107.706 E0.08931
G1 X127.194 Y108.318 E0.01654
G1 X125.468 Y110.044 E0.06591
G1 X126.080 Y110.044 E0.01654
G1 X127.194 Y108.930 E0.04252
G1 X127.194 Y109.543 E0.01654
G1 X126.505 Y110.232 E0.02631
;BEFORE_LAYER_CHANGE
G92 E0.0
;0.449352


G1 F8640
G1 X127.194 Y109.543 E-0.22497
G1 X127.194 Y108.930 E-0.14141
G1 X126.080 Y110.044 E-0.36356
G1 X125.468 Y110.044 E-0.14141
G1 X126.873 Y108.639 E-0.45864
G1 E-0.07000 F2100.00000
G1 Z0.550 F10800.000
;AFTER_LAYER_CHANGE
;0.449352
G1 X128.391 Y108.271
G1 Z0.449
G1 E1.40000 F2100.00000
G1 F900
G1 X135.860 Y108.271 E0.22958
G1 X135.860 Y105.953 E0.07124
G1 X128.534 Y105.953 E0.22519
G1 X128.534 Y103.636 E0.07124
G1 X136.003 Y103.636 E0.22958
G1 F8640
G1 X130.243 Y103.636 E-1.33000
G1 E-0.07000 F2100.00000
G1 Z0.649 F10800.000
G1 X121.609 Y103.636
G1 Z0.449
G1 E1.40000 F2100.00000
G1 F900
G1 X112.682 Y103.636 E0.27438
G1 X112.682 Y105.953 E0.07124
G1 X121.466 Y105.953 E0.26999
G1 X121.466 Y108.271 E0.07124
G1 X112.539 Y108.271 E0.27438
;BEFORE_LAYER_CHANGE
G92 E0.0
;0.5


G1 F8640
G1 X118.299 Y108.271 E-1.33000
G1 E-0.07000 F2100.00000
G1 Z0.649 F10800.000
;AFTER_LAYER_CHANGE
;0.5
G1 X139.810 Y98.536
G1 Z0.500
G1 E1.40000 F2100.00000
G1 F900
G1 X140.483 Y99.198 E0.02284
G1 X140.811 Y99.850 E0.01765
G1 X140.943 Y100.571 E0.01774
G1 X140.943 Y111.498 E0.26427
G1 X140.867 Y112.038 E0.01318
G1 X140.677 Y112.553 E0.01328
G1 X140.381 Y113.016 E0.01328
G1 X139.997 Y113.402 E0.01318
G1 X139.261 Y113.821 E0.02048
G1 X138.428 Y113.976 E0.02048
G1 X109.693 Y113.977 E0.69495
G1 X109.136 Y113.909 E0.01356
G1 X108.608 Y113.723 E0.01356
G1 X108.129 Y113.423 E0.01366
G1 X107.730 Y113.029 E0.01356
G1 X107.324 Y112.326 E0.01963
G1 X107.158 Y111.528 E0.01973
G1 X107.156 Y100.598 E0.26433
G1 X107.230 Y100.050 E0.01337
G1 X107.418 Y99.534 E0.01328
G1 X107.714 Y99.067 E0.01337
G1 X108.103 Y98.674 E0.01337
G1 X108.667 Y98.326 E0.01603
G1 X109.302 Y98.134 E0.01603
G1 X121.564 Y96.450 E0.29934
G1 X128.154 Y96.434 E0.15938
G1 X138.939 Y98.162 E0.26415
G1 X139.755 Y98.512 E0.02148
G1 F8640
G1 X140.483 Y99.198 E-0.23101
G1 X140.811 Y99.850 E-0.16847
G1 X140.943 Y100.571 E-0.16937
G1 X140.943 Y103.868 E-0.76115
G1 E-0.07000 F2100.00000
G1 Z0.700 F10800.000
G1 X127.507 Y99.643
G1 Z0.500
G1 E1.40000 F2100.00000
M204 S800
G1 F900
G1 X127.507 Y110.357 E0.27917
G1 X122.493 Y110.357 E0.13065
G1 X122.493 Y99.643 E0.27917
G1 X127.447 Y99.643 E0.12909
M204 S1000
G1 X127.925 Y99.225 F10800.000
M204 S800
G1 F900
G1 X127.925 Y110.775 E0.30094
G1 X122.075 Y110.775 E0.15243
G1 X122.075 Y99.225 E0.30094
G1 X127.865 Y99.225 E0.15086
M204 S1000
G1 X127.863 Y99.620 F10800.000
G1 F8640
G1 X127.895 Y104.985 E-1.33000
G1 E-0.07000 F2100.00000
G1 Z0.700 F10800.000
G1 X127.382 Y100.645
G1 Z0.500
G1 E1.40000 F2100.00000
G1 F900
G1 X126.693 Y99.956 E0.02631
G1 X126.080 Y99.956 E0.01654
G1 X127.194 Y101.070 E0.04252
G1 X127.194 Y101.682 E0.01654
G1 X125.468 Y99.956 E0.06591
G1 X124.856 Y99.956 E0.01654
G1 X127.194 Y102.294 E0.08931
G1 X127.194 Y102.907 E0.01654
G1 X124.243 Y99.956 E0.11270
G1 X123.631 Y99.956 E0.01654
G1 X127.194 Y103.519 E0.13609
G1 X127.194 Y104.132 E0.01654
G1 X123.018 Y99.956 E0.15948
G1 X122.806 Y99.956 E0.00573
G1 X122.806 Y100.356 E0.01081
G1 X127.194 Y104.744 E0.16758
G1 X127.194 Y105.357 E0.01654
G1 X122.806 Y100.969 E0.16758
G1 X122.806 Y101.581 E0.01654
G1 X127.194 Y105.969 E0.16758
G1 X127.194 Y106.581 E0.01654
G1 X122.806 Y102.194 E0.16758
G1 X122.806 Y102.806 E0.01654
G1 X127.194 Y107.194 E0.16758
G1 X127.194 Y107.806 E0.01654
G1 X122.806 Y103.419 E0.16758
G1 X122.806 Y104.031 E0.01654
G1 X127.194 Y108.419 E0.16758
G1 X127.194 Y109.031 E0.01654
G1 X122.806 Y104.644 E0.16758
G1 X122.806 Y105.256 E0.01654
G1 X127.194 Y109.644 E0.16758
G1 X127.194 Y110.044 E0.01081
G1 X126.982 Y110.044 E0.00573
G1 X122.806 Y105.868 E0.15947
G1 X122.806 Y106.481 E0.01654
G1 X126.369 Y110.044 E0.13608
G1 X125.757 Y110.044 E0.01654
G1 X122.806 Y107.093 E0.11269
G1 X122.806 Y107.706 E0.01654
G1 X125.144 Y110.044 E0.08930
G1 X124.532 Y110.044 E0.01654
G1 X122.806 Y108.318 E0.06591
G1 X122.806 Y108.931 E0.01654
G1 X123.919 Y110.044 E0.04252
G1 X123.307 Y110.044 E0.01654
G1 X122.618 Y109.355 E0.02631
M106 S127.5
;BEFORE_LAYER_CHANGE
G92 E0.0
;0.65


G1 F8640
G1 X123.307 Y110.044 E-0.22493
G1 X123.919 Y110.044 E-0.14141
G1 X122.806 Y108.931 E-0.36352
G1 X122.806 Y108.318 E-0.14141
G1 X124.211 Y109.723 E-0.45872
G1 E-0.07000 F2100.00000
G1 Z0.700 F10800.000
;AFTER_LAYER_CHANGE
;0.65
G1 X122.493 Y110.357
G1 Z0.650
G1 E1.40000 F2100.00000
M204 S800
G1 F900
G1 X122.493 Y99.643 E0.27917
G1 X127.507 Y99.643 E0.13065
G1 X127.507 Y110.357 E0.27917
G1 X122.553 Y110.357 E0.12909
M204 S1000
G1 X122.075 Y110.775 F10800.000
M204 S800
G1 F900
G1 X122.075 Y99.225 E0.30094
G1 X127.925 Y99.225 E0.15243
G1 X127.925 Y110.775 E0.30094
G1 X122.135 Y110.775 E0.15086
M204 S1000
G1 X122.137 Y110.380 F10800.000
G1 F8640
G1 X122.105 Y105.015 E-1.33000
G1 E-0.07000 F2100.00000
G1 Z0.850 F10800.000
G1 X126.505 Y110.232
G1 Z0.650
G1 E1.40000 F2100.00000
G1 F900
G1 X127.194 Y109.543 E0.02631
G1 X127.194 Y108.930 E0.01654
G1 X126.080 Y110.044 E0.04252
G1 X125.468 Y110.044 E0.01654
G1 X127.194 Y108.318 E0.06591
G1 X127.194 Y107.706 E0.01654
G1 X124.856 Y110.044 E0.08931
G1 X124.243 Y110.044 E0.01654
