; generated by PrusaSlicer 2.1.1 on 2020-12-06 at 11:30:59 UTC

; 

; external perimeters extrusion width = 0.45mm
; perimeters extrusion width = 0.45mm
; infill extrusion width = 0.45mm
; solid infill extrusion width = 0.45mm
; top infill extrusion width = 0.40mm
; support material extrusion width = 0.35mm
; first layer extrusion width = 0.42mm

M73 P0 R17
M73 Q0 S17
M201 X1000 Y1000 Z200 E5000 ; sets maximum accelerations, mm/sec^2
M203 X200 Y200 Z12 E120 ; sets maximum feedrates, mm/sec
M204 P1250 R1250 T1250 ; sets acceleration (P, T) and retract acceleration (R), mm/sec^2
M205 X8.00 Y8.00 Z0.40 E4.50 ; sets the jerk limits, mm/sec
M205 S0 T0 ; sets the minimum extruding and travel feed rate, mm/sec
M107
M862.3 P "MK3S" ; printer model check
M862.1 P0.4 ; nozzle diameter check
M115 U3.9.1 ; tell printer latest fw version
G90 ; use absolute coordinates
M83 ; extruder relative mode
M104 S230 ; set extruder temp
M140 S85 ; set bed temp
M190 S85 ; wait for bed temp
M109 S230 ; wait for extruder temp
G28 W ; home all without mesh bed level
G80 ; mesh bed leveling
G1 Y-3.0 F1000.0 ; go outside print area
G92 E0.0
G1 X60.0 E9.0 F1000.0 ; intro line
M73 Q0 S16
M73 P0 R16
G1 X100.0 E12.5 F1000.0 ; intro line
G92 E0.0
M221 S95
G21 ; set units to millimeters
G90 ; use absolute coordinates
M83 ; use relative distances for extrusion
M900 K0.08 ; Filament gcode LA 1.5
M900 K45 ; Filament gcode LA 1.0
;BEFORE_LAYER_CHANGE
G92 E0.0
;0.2


G1 E-1.40000 F2100.00000
G1 Z0.200 F10800.000
;AFTER_LAYER_CHANGE
;0.2
G1 Z0.400
G1 X140.032 Y98.703
G1 Z0.200
G1 E1.40000 F2100.00000
M204 S1000
G1 F1200
G1 X140.658 Y99.487 E0.03144
G1 X140.864 Y100.029 E0.01820
G1 X140.944 Y100.604 E0.01820
G1 X140.940 Y111.558 E0.34344
G1 X140.843 Y112.126 E0.01808
G1 X140.621 Y112.658 E0.01808
G1 X140.286 Y113.127 E0.01808
G1 X139.855 Y113.510 E0.01808
G1 X139.175 Y113.850 E0.02386
G1 X138.420 Y113.976 E0.02398
G1 X109.669 Y113.976 E0.90146
G1 X109.075 Y113.894 E0.01882
G1 X108.516 Y113.676 E0.01882
G1 X108.023 Y113.334 E0.01882
G1 X107.622 Y112.887 E0.01882
G1 X107.289 Y112.229 E0.02312
G1 X107.157 Y111.508 E0.02300
G1 X107.158 Y100.555 E0.34343
G1 X107.250 Y99.974 E0.01845
G1 X107.471 Y99.432 E0.01832
G1 X107.808 Y98.955 E0.01832
G1 X108.245 Y98.567 E0.01832
G1 X108.707 Y98.309 E0.01660
G1 X109.212 Y98.151 E0.01660
G1 X118.758 Y96.446 E0.30405
G1 X131.004 Y96.434 E0.38395
G1 X131.550 Y96.494 E0.01721
G1 X139.154 Y98.219 E0.24448
G1 X139.979 Y98.674 E0.02955
G1 X139.774 Y98.979 F10800.000
G1 F1200
G1 X140.316 Y99.647 E0.02698
G1 X140.498 Y100.117 E0.01578
G1 X140.567 Y100.619 E0.01589
G1 X140.565 Y111.524 E0.34193
G1 X140.482 Y112.017 E0.01567
G1 X140.288 Y112.482 E0.01578
G1 X139.995 Y112.887 E0.01567
G1 X139.616 Y113.217 E0.01578
G1 X139.040 Y113.498 E0.02010
G1 X138.407 Y113.600 E0.02010
G1 X109.681 Y113.599 E0.90068
G1 X109.168 Y113.529 E0.01623
G1 X108.683 Y113.338 E0.01635
G1 X108.256 Y113.037 E0.01635
G1 X107.915 Y112.648 E0.01623
G1 X107.641 Y112.093 E0.01942
G1 X107.533 Y111.479 E0.01953
G1 X107.534 Y100.574 E0.34193
G1 X107.614 Y100.073 E0.01589
G1 X107.807 Y99.605 E0.01589
G1 X108.102 Y99.193 E0.01589
G1 X108.484 Y98.860 E0.01589
G1 X109.297 Y98.518 E0.02766
G1 X118.802 Y96.820 E0.30272
G1 X131.004 Y96.811 E0.38258
G1 X131.468 Y96.862 E0.01464
G1 X139.016 Y98.572 E0.24267
G1 X139.721 Y98.951 E0.02510
G1 F8640
G1 X140.316 Y99.647 E-0.21155
G1 X140.498 Y100.117 E-0.11620
G1 X140.567 Y100.619 E-0.11704
G1 X140.566 Y104.453 E-0.88520
G1 E-0.07000 F2100.00000
G1 Z0.400 F10800.000
G1 X138.379 Y111.411
G1 Z0.200
G1 E1.40000 F2100.00000
G1 F1200
G1 X138.379 Y100.665 E0.33693
G1 X137.625 Y100.665 E0.02365
G1 X137.625 Y111.242 E0.33161
G1 X136.871 Y111.242 E0.02365
G1 X136.871 Y100.665 E0.33161
G1 X136.116 Y100.665 E0.02365
G1 X136.116 Y111.242 E0.33161
G1 X135.362 Y111.242 E0.02365
G1 X135.362 Y100.665 E0.33161
G1 X134.608 Y100.665 E0.02365
G1 X134.608 Y111.242 E0.33161
G1 X133.854 Y111.242 E0.02365
G1 X133.854 Y100.665 E0.33161
G1 X133.100 Y100.665 E0.02365
G1 X133.100 Y111.242 E0.33161
G1 X132.346 Y111.242 E0.02365
G1 X132.346 Y100.665 E0.33161
G1 X131.591 Y100.665 E0.02365
G1 X131.591 Y111.411 E0.33693
G1 F8640
G1 X131.591 Y105.651 E-1.33000
G1 E-0.07000 F2100.00000
G1 Z0.400 F10800.000
G1 X118.017 Y111.411
G1 Z0.200
G1 E1.40000 F2100.00000
G1 F1200
G1 X118.017 Y100.665 E0.33693
G1 X117.262 Y100.665 E0.02365
G1 X117.262 Y111.242 E0.33161
G1 X116.508 Y111.242 E0.02365
G1 X116.508 Y100.665 E0.33161
G1 X115.754 Y100.665 E0.02365
G1 X115.754 Y111.242 E0.33161
G1 X115.000 Y111.242 E0.02365
G1 X115.000 Y100.665 E0.33161
G1 X114.246 Y100.665 E0.02365
G1 X114.246 Y111.242 E0.33161
G1 X113.492 Y111.242 E0.02365
G1 X113.492 Y100.665 E0.33161
G1 X112.738 Y100.665 E0.02365
G1 X112.738 Y111.242 E0.33161
G1 X111.983 Y111.242 E0.02365
G1 X111.983 Y100.665 E0.33161
G1 X111.229 Y100.665 E0.02365
G1 X111.229 Y111.242 E0.33161
G1 X110.475 Y111.242 E0.02365
G1 X110.475 Y100.665 E0.33161
G1 X109.721 Y100.665 E0.02365
G1 X109.721 Y111.411 E0.33693
G1 F8640
G1 X109.721 Y105.651 E-1.33000
G1 E-0.07000 F2100.00000
G1 Z0.400 F10800.000
G1 X119.587 Y110.413
G1 Z0.200
G1 E1.40000 F2100.00000
G1 F1200
G1 X119.587 Y99.587 E0.33944
G1 X130.413 Y99.587 E0.33944
G1 X130.413 Y110.413 E0.33944
G1 X119.647 Y110.413 E0.33756
G1 X119.210 Y110.790 F10800.000
G1 F1200
G1 X119.210 Y99.210 E0.36308
G1 X130.790 Y99.210 E0.36308
G1 X130.790 Y110.790 E0.36308
G1 X119.270 Y110.790 E0.36120
G1 X119.314 Y110.404 F10800.000
G1 F8640
G1 X119.240 Y105.030 E-1.33000
G1 E-0.07000 F2100.00000
G1 Z0.400 F10800.000
G1 X119.700 Y109.519
G1 Z0.200
G1 E1.40000 F2100.00000
G1 F1200
G1 X120.311 Y110.130 E0.02771
G1 X120.856 Y110.130 E0.01750
G1 X119.870 Y109.144 E0.04475
G1 X119.870 Y108.598 E0.01750
G1 X121.402 Y110.130 E0.06950
G1 X121.948 Y110.130 E0.01750
G1 X119.870 Y108.052 E0.09424
G1 X119.870 Y107.507 E0.01750
G1 X122.493 Y110.130 E0.11898
G1 X123.039 Y110.130 E0.01750
G1 X119.870 Y106.961 E0.14373
G1 X119.870 Y106.416 E0.01750
G1 X123.584 Y110.130 E0.16847
G1 X124.130 Y110.130 E0.01750
G1 X119.870 Y105.870 E0.19321
G1 X119.870 Y105.325 E0.01750
G1 X124.675 Y110.130 E0.21796
G1 X125.221 Y110.130 E0.01750
G1 X119.870 Y104.779 E0.24270
G1 X119.870 Y104.234 E0.01750
G1 X125.766 Y110.130 E0.26744
G1 X126.312 Y110.130 E0.01750
G1 X119.870 Y103.688 E0.29219
G1 X119.870 Y103.143 E0.01750
G1 X126.857 Y110.130 E0.31693
G1 X127.403 Y110.130 E0.01750
G1 X119.870 Y102.597 E0.34167
G1 X119.870 Y102.052 E0.01750
G1 X127.948 Y110.130 E0.36642
G1 X128.494 Y110.130 E0.01750
G1 X119.870 Y101.506 E0.39116
G1 X119.870 Y100.961 E0.01750
G1 X129.039 Y110.130 E0.41590
G1 X129.585 Y110.130 E0.01750
G1 X119.870 Y100.415 E0.44065
G1 X119.870 Y99.870 E0.01750
G1 X130.130 Y110.130 E0.46539
G1 X130.130 Y109.585 E0.01749
G1 X120.415 Y99.870 E0.44065
G1 X120.961 Y99.870 E0.01750
G1 X130.130 Y109.039 E0.41591
G1 X130.130 Y108.494 E0.01750
G1 X121.506 Y99.870 E0.39117
G1 X122.052 Y99.870 E0.01750
G1 X130.130 Y107.948 E0.36642
G1 X130.130 Y107.403 E0.01750
G1 X122.597 Y99.870 E0.34168
G1 X123.143 Y99.870 E0.01750
G1 X130.130 Y106.857 E0.31694
G1 X130.130 Y106.312 E0.01750
G1 X123.688 Y99.870 E0.29219
G1 X124.234 Y99.870 E0.01750
G1 X130.130 Y105.766 E0.26745
G1 X130.130 Y105.221 E0.01750
G1 X124.779 Y99.870 E0.24271
G1 X125.325 Y99.870 E0.01750
G1 X130.130 Y104.675 E0.21796
G1 X130.130 Y104.130 E0.01750
G1 X125.870 Y99.870 E0.19322
G1 X126.416 Y99.870 E0.01750
G1 X130.130 Y103.584 E0.16848
G1 X130.130 Y103.039 E0.01750
G1 X126.961 Y99.870 E0.14373
G1 X127.507 Y99.870 E0.01750
G1 X130.130 Y102.493 E0.11899
G1 X130.130 Y101.948 E0.01750
G1 X128.052 Y99.870 E0.09425
G1 X128.598 Y99.870 E0.01750
G1 X130.130 Y101.402 E0.06950
G1 X130.130 Y100.857 E0.01750
G1 X129.143 Y99.870 E0.04476
G1 X129.689 Y99.870 E0.01750
G1 X130.300 Y100.481 E0.02771
;BEFORE_LAYER_CHANGE
G92 E0.0
;0.35


G1 F8640
G1 X129.689 Y99.870 E-0.19950
G1 X129.143 Y99.870 E-0.12596
G1 X130.130 Y100.857 E-0.32222
G1 X130.130 Y101.402 E-0.12596
G1 X128.598 Y99.870 E-0.50035
G1 X128.355 Y99.870 E-0.05601
G1 E-0.07000 F2100.00000
G1 Z0.400 F10800.000
;AFTER_LAYER_CHANGE
;0.35
M104 S240 ; set temperature
M140 S90 ; set bed temperature
G1 X140.032 Y98.703
G1 Z0.350
G1 E1.40000 F2100.00000
G1 F1375
G1 X140.658 Y99.487 E0.02425
G1 X140.864 Y100.029 E0.01404
G1 X140.944 Y100.604 E0.01404
G1 X140.940 Y111.558 E0.26491
G1 X140.843 Y112.126 E0.01394
G1 X140.621 Y112.658 E0.01394
G1 X140.286 Y113.127 E0.01394
G1 X139.855 Y113.510 E0.01394
G1 X139.175 Y113.850 E0.01840
G1 X138.420 Y113.976 E0.01850
G1 X109.669 Y113.976 E0.69533
G1 X109.075 Y113.894 E0.01451
G1 X108.516 Y113.676 E0.01451
G1 X108.023 Y113.334 E0.01451
G1 X107.622 Y112.887 E0.01451
G1 X107.289 Y112.229 E0.01783
G1 X107.157 Y111.508 E0.01774
G1 X107.158 Y100.555 E0.26490
G1 X107.250 Y99.974 E0.01423
G1 X107.471 Y99.432 E0.01413
G1 X107.808 Y98.955 E0.01413
G1 X108.245 Y98.567 E0.01413
G1 X108.707 Y98.309 E0.01280
G1 X109.212 Y98.151 E0.01280
G1 X118.758 Y96.446 E0.23453
G1 X131.004 Y96.434 E0.29616
G1 X131.550 Y96.494 E0.01328
G1 X139.154 Y98.219 E0.18858
G1 X139.979 Y98.674 E0.02280
G1 F8640
G1 X140.658 Y99.487 E-0.24436
G1 X140.864 Y100.029 E-0.13403
G1 X140.944 Y100.604 E-0.13403
G1 X140.943 Y104.145 E-0.81758
G1 E-0.07000 F2100.00000
G1 Z0.550 F10800.000
G1 X130.357 Y99.643
G1 Z0.350
G1 E1.40000 F2100.00000
M204 S800
G1 F1375
G1 X130.357 Y110.357 E0.27917
G1 X119.643 Y110.357 E0.27917
G1 X119.643 Y99.643 E0.27917
G1 X130.297 Y99.643 E0.27761
M204 S1000
G1 X130.775 Y99.225 F10800.000
M204 S800
G1 F1375
G1 X130.775 Y110.775 E0.30094
G1 X119.225 Y110.775 E0.30094
G1 X119.225 Y99.225 E0.30094
G1 X130.715 Y99.225 E0.29938
M204 S1000
G1 X130.671 Y99.611 F10800.000
G1 F8640
G1 X130.745 Y104.985 E-1.33000
G1 E-0.07000 F2100.00000
G1 Z0.550 F10800.000
G1 X120.627 Y99.768
G1 Z0.350
G1 E1.40000 F2100.00000
G1 F1375
G1 X119.956 Y100.439 E0.02511
G1 X119.956 Y101.039 E0.01589
G1 X121.039 Y99.956 E0.04054
G1 X121.639 Y99.956 E0.01589
G1 X119.956 Y101.639 E0.06302
G1 X119.956 Y102.240 E0.01589
G1 X122.240 Y99.956 E0.08549
G1 X122.840 Y99.956 E0.01589
G1 X119.956 Y102.840 E0.10796
G1 X119.956 Y103.440 E0.01589
G1 X123.440 Y99.956 E0.13044
G1 X124.041 Y99.956 E0.01589
G1 X119.956 Y104.041 E0.15291
G1 X119.956 Y104.641 E0.01589
G1 X124.641 Y99.956 E0.17539
G1 X125.241 Y99.956 E0.01589
G1 X119.956 Y105.241 E0.19786
G1 X119.956 Y105.842 E0.01589
G1 X125.842 Y99.956 E0.22033
G1 X126.442 Y99.956 E0.01589
G1 X119.956 Y106.442 E0.24281
M73 Q6 S15
G1 X119.956 Y107.042 E0.01589
G1 X127.042 Y99.956 E0.26528
M73 P6 R15
G1 X127.643 Y99.956 E0.01589
G1 X119.956 Y107.643 E0.28776
G1 X119.956 Y108.243 E0.01589
G1 X128.243 Y99.956 E0.31023
G1 X128.843 Y99.956 E0.01589
G1 X119.956 Y108.843 E0.33270
G1 X119.956 Y109.443 E0.01589
G1 X129.443 Y99.956 E0.35518
G1 X130.044 Y99.956 E0.01589
G1 X119.956 Y110.044 E0.37765
G1 X120.556 Y110.044 E0.01589
G1 X130.044 Y100.556 E0.35518
G1 X130.044 Y101.157 E0.01589
G1 X121.157 Y110.044 E0.33271
G1 X121.757 Y110.044 E0.01589
G1 X130.044 Y101.757 E0.31024
G1 X130.044 Y102.357 E0.01589
G1 X122.357 Y110.044 E0.28776
G1 X122.958 Y110.044 E0.01589
G1 X130.044 Y102.958 E0.26529
G1 X130.044 Y103.558 E0.01589
G1 X123.558 Y110.044 E0.24281
G1 X124.158 Y110.044 E0.01589
G1 X130.044 Y104.158 E0.22034
G1 X130.044 Y104.759 E0.01589
G1 X124.759 Y110.044 E0.19786
G1 X125.359 Y110.044 E0.01589
G1 X130.044 Y105.359 E0.17539
G1 X130.044 Y105.959 E0.01589
G1 X125.959 Y110.044 E0.15292
G1 X126.560 Y110.044 E0.01589
G1 X130.044 Y106.560 E0.13044
G1 X130.044 Y107.160 E0.01589
G1 X127.160 Y110.044 E0.10797
G1 X127.760 Y110.044 E0.01589
G1 X130.044 Y107.760 E0.08549
G1 X130.044 Y108.360 E0.01589
G1 X128.360 Y110.044 E0.06302
G1 X128.961 Y110.044 E0.01589
G1 X130.044 Y108.961 E0.04055
G1 X130.044 Y109.561 E0.01589
G1 X129.373 Y110.232 E0.02511
;BEFORE_LAYER_CHANGE
G92 E0.0
;0.445874


G1 F8640
G1 X130.044 Y109.561 E-0.21903
G1 X130.044 Y108.961 E-0.13861
G1 X128.961 Y110.044 E-0.35366
G1 X128.360 Y110.044 E-0.13861
G1 X129.831 Y108.574 E-0.48008
G1 E-0.07000 F2100.00000
G1 Z0.550 F10800.000
;AFTER_LAYER_CHANGE
;0.445874
G1 X131.241 Y108.271
G1 Z0.446
G1 E1.40000 F2100.00000
G1 F900
G1 X135.860 Y108.271 E0.14036
G1 X135.860 Y105.953 E0.07042
G1 X131.384 Y105.953 E0.13601
G1 X131.384 Y103.636 E0.07042
G1 X136.003 Y103.636 E0.14036
G1 F8640
G1 X131.384 Y103.636 E-1.06663
G1 X131.384 Y104.776 E-0.26337
G1 E-0.07000 F2100.00000
G1 Z0.646 F10800.000
G1 X117.461 Y103.636
G1 Z0.446
G1 E1.40000 F2100.00000
G1 F900
G1 X112.682 Y103.636 E0.14520
G1 X112.682 Y105.953 E0.07042
G1 X117.318 Y105.953 E0.14085
G1 X117.318 Y108.271 E0.07042
G1 X112.539 Y108.271 E0.14520
;BEFORE_LAYER_CHANGE
G92 E0.0
;0.5


G1 F8640
G1 X117.318 Y108.271 E-1.10341
G1 X117.318 Y107.290 E-0.22659
G1 E-0.07000 F2100.00000
G1 Z0.646 F10800.000
;AFTER_LAYER_CHANGE
;0.5
G1 X140.032 Y98.703
G1 Z0.500
G1 E1.40000 F2100.00000
G1 F1377
G1 X140.658 Y99.487 E0.02425
G1 X140.864 Y100.029 E0.01404
G1 X140.944 Y100.604 E0.01404
G1 X140.940 Y111.558 E0.26491
G1 X140.843 Y112.126 E0.01394
G1 X140.621 Y112.658 E0.01394
G1 X140.286 Y113.127 E0.01394
G1 X139.855 Y113.510 E0.01394
G1 X139.175 Y113.850 E0.01840
G1 X138.420 Y113.976 E0.01850
G1 X109.669 Y113.976 E0.69533
G1 X109.075 Y113.894 E0.01451
G1 X108.516 Y113.676 E0.01451
G1 X108.023 Y113.334 E0.01451
G1 X107.622 Y112.887 E0.01451
G1 X107.289 Y112.229 E0.01783
G1 X107.157 Y111.508 E0.01774
G1 X107.158 Y100.555 E0.26490
G1 X107.250 Y99.974 E0.01423
G1 X107.471 Y99.432 E0.01413
G1 X107.808 Y98.955 E0.01413
G1 X108.245 Y98.567 E0.01413
G1 X108.707 Y98.309 E0.01280
G1 X109.212 Y98.151 E0.01280
G1 X118.758 Y96.446 E0.23453
G1 X131.004 Y96.434 E0.29616
G1 X131.550 Y96.494 E0.01328
G1 X139.154 Y98.219 E0.18858
G1 X139.979 Y98.674 E0.02280
G1 F8640
G1 X140.658 Y99.487 E-0.24436
G1 X140.864 Y100.029 E-0.13403
G1 X140.944 Y100.604 E-0.13403
G1 X140.943 Y104.145 E-0.81758
G1 E-0.07000 F2100.00000
G1 Z0.700 F10800.000
G1 X130.357 Y99.643
G1 Z0.500
G1 E1.40000 F2100.00000
M204 S800
G1 F1377
G1 X130.357 Y110.357 E0.27917
G1 X119.643 Y110.357 E0.27917
G1 X119.643 Y99.643 E0.27917
G1 X130.297 Y99.643 E0.27761
M204 S1000
G1 X130.775 Y99.225 F10800.000
M204 S800
G1 F1377
G1 X130.775 Y110.775 E0.30094
G1 X119.225 Y110.775 E0.30094
G1 X119.225 Y99.225 E0.30094
G1 X130.715 Y99.225 E0.29938
M204 S1000
G1 X130.671 Y99.611 F10800.000
G1 F8640
G1 X130.745 Y104.985 E-1.33000
G1 E-0.07000 F2100.00000
G1 Z0.700 F10800.000
G1 X130.232 Y100.627
G1 Z0.500
G1 E1.40000 F2100.00000
G1 F1377
G1 X129.561 Y99.956 E0.02511
G1 X128.961 Y99.956 E0.01589
G1 X130.044 Y101.039 E0.04055
G1 X130.044 Y101.640 E0.01589
G1 X128.360 Y99.956 E0.06302
G1 X127.760 Y99.956 E0.01589
G1 X130.044 Y102.240 E0.08549
G1 X130.044 Y102.840 E0.01589
G1 X127.160 Y99.956 E0.10797
G1 X126.560 Y99.956 E0.01589
G1 X130.044 Y103.440 E0.13044
G1 X130.044 Y104.041 E0.01589
G1 X125.959 Y99.956 E0.15292
G1 X125.359 Y99.956 E0.01589
G1 X130.044 Y104.641 E0.17539
G1 X130.044 Y105.241 E0.01589
G1 X124.759 Y99.956 E0.19786
G1 X124.158 Y99.956 E0.01589
G1 X130.044 Y105.842 E0.22034
G1 X130.044 Y106.442 E0.01589
G1 X123.558 Y99.956 E0.24281
G1 X122.958 Y99.956 E0.01589
G1 X130.044 Y107.042 E0.26529
G1 X130.044 Y107.643 E0.01589
G1 X122.357 Y99.956 E0.28776
G1 X121.757 Y99.956 E0.01589
G1 X130.044 Y108.243 E0.31024
G1 X130.044 Y108.843 E0.01589
G1 X121.157 Y99.956 E0.33271
G1 X120.556 Y99.956 E0.01589
G1 X130.044 Y109.444 E0.35518
G1 X130.044 Y110.044 E0.01589
G1 X119.956 Y99.956 E0.37765
G1 X119.956 Y100.557 E0.01589
G1 X129.443 Y110.044 E0.35518
G1 X128.843 Y110.044 E0.01589
G1 X119.956 Y101.157 E0.33270
G1 X119.956 Y101.757 E0.01589
G1 X128.243 Y110.044 E0.31023
G1 X127.643 Y110.044 E0.01589
G1 X119.956 Y102.357 E0.28776
G1 X119.956 Y102.958 E0.01589
G1 X127.042 Y110.044 E0.26528
G1 X126.442 Y110.044 E0.01589
G1 X119.956 Y103.558 E0.24281
G1 X119.956 Y104.158 E0.01589
G1 X125.842 Y110.044 E0.22033
G1 X125.241 Y110.044 E0.01589
G1 X119.956 Y104.759 E0.19786
G1 X119.956 Y105.359 E0.01589
G1 X124.641 Y110.044 E0.17539
G1 X124.041 Y110.044 E0.01589
G1 X119.956 Y105.959 E0.15291
