; generated by PrusaSlicer 2.1.1 on 2021-01-02 at 09:55:02 UTC

; 

; external perimeters extrusion width = 0.45mm
; perimeters extrusion width = 0.45mm
; infill extrusion width = 0.45mm
; solid infill extrusion width = 0.45mm
; top infill extrusion width = 0.40mm
; first layer extrusion width = 0.42mm

M73 P0 R31
M73 Q0 S31
M201 X1000 Y1000 Z200 E5000 ; sets maximum accelerations, mm/sec^2
M203 X200 Y200 Z12 E120 ; sets maximum feedrates, mm/sec
M204 P1250 R1250 T1250 ; sets acceleration (P, T) and retract acceleration (R), mm/sec^2
M205 X8.00 Y8.00 Z0.40 E4.50 ; sets the jerk limits, mm/sec
M205 S0 T0 ; sets the minimum extruding and travel feed rate, mm/sec
M107
M862.3 P "MK3S" ; printer model check
M862.1 P0.4 ; nozzle diameter check
M115 U3.9.1 ; tell printer latest fw version
G90 ; use absolute coordinates
M83 ; extruder relative mode
M104 S215 ; set extruder temp
M140 S60 ; set bed temp
M190 S60 ; wait for bed temp
M109 S215 ; wait for extruder temp
G28 W ; home all without mesh bed level
G80 ; mesh bed leveling
G1 Y-3.0 F1000.0 ; go outside print area
G92 E0.0
G1 X60.0 E9.0 F1000.0 ; intro line
M73 Q0 S31
M73 P0 R31
G1 X100.0 E12.5 F1000.0 ; intro line
G92 E0.0
M221 S95
G21 ; set units to millimeters
G90 ; use absolute coordinates
M83 ; use relative distances for extrusion
M900 K0.05 ; Filament gcode LA 1.5
M900 K30 ; Filament gcode LA 1.0
;BEFORE_LAYER_CHANGE
G92 E0.0
;0.2


G1 Z0.200 F10800.000
;AFTER_LAYER_CHANGE
;0.2
G1 E-0.80000 F2100.00000
G1 Z0.800 F10800.000
G1 X92.832 Y77.912
G1 Z0.200
G1 E0.80000 F2100.00000
M204 S1000
G1 F1200
G1 X94.747 Y75.787 E0.08970
G1 X96.804 Y73.799 E0.08968
G1 X99.108 Y71.860 E0.09444
G1 X101.547 Y70.093 E0.09442
G1 X103.971 Y68.580 E0.08960
G1 X106.499 Y67.234 E0.08980
G1 X109.313 Y65.981 E0.09656
G1 X112.003 Y65.004 E0.08974
G1 X114.750 Y64.214 E0.08963
G1 X117.697 Y63.584 E0.09449
G1 X120.677 Y63.169 E0.09433
G1 X123.531 Y62.971 E0.08970
G1 X126.395 Y62.969 E0.08980
G1 X129.396 Y63.175 E0.09433
G1 X132.378 Y63.598 E0.09442
G1 X135.174 Y64.194 E0.08965
G1 X137.926 Y64.982 E0.08974
G1 X140.822 Y66.036 E0.09662
G1 X143.436 Y67.201 E0.08975
G1 X145.961 Y68.542 E0.08963
G1 X148.517 Y70.135 E0.09444
G1 X150.889 Y71.858 E0.09192
G1 X153.083 Y73.697 E0.08974
G1 X155.252 Y75.786 E0.09444
G1 X157.264 Y78.027 E0.09442
G1 X159.024 Y80.281 E0.08965
G1 X160.663 Y82.711 E0.09192
G1 X162.167 Y85.324 E0.09453
G1 X163.419 Y87.895 E0.08965
G1 X164.493 Y90.548 E0.08975
G1 X165.445 Y93.479 E0.09661
G1 X166.136 Y96.257 E0.08975
G1 X166.634 Y99.072 E0.08963
G1 X166.953 Y102.067 E0.09444
G1 X167.054 Y105.073 E0.09433
G1 X166.953 Y107.934 E0.08974
G1 X166.655 Y110.775 E0.08958
G1 X166.136 Y113.742 E0.09444
G1 X165.404 Y116.665 E0.09448
G1 X164.519 Y119.384 E0.08965
G1 X163.420 Y122.104 E0.09199
G1 X162.095 Y124.811 E0.09447
G1 X160.665 Y127.285 E0.08960
G1 X159.025 Y129.717 E0.09197
G1 X157.168 Y132.088 E0.09444
G1 X155.252 Y134.214 E0.08975
G1 X153.195 Y136.202 E0.08969
G1 X150.892 Y138.140 E0.09437
G1 X148.453 Y139.907 E0.09442
G1 X146.027 Y141.421 E0.08965
G1 X143.501 Y142.766 E0.08975
G1 X140.687 Y144.019 E0.09656
G1 X137.997 Y144.996 E0.08975
G1 X135.246 Y145.787 E0.08975
G1 X132.303 Y146.416 E0.09438
G1 X129.320 Y146.832 E0.09442
G1 X126.467 Y147.030 E0.08965
G1 X123.536 Y147.030 E0.09192
G1 X120.531 Y146.816 E0.09444
G1 X117.697 Y146.416 E0.08975
G1 X114.897 Y145.822 E0.08975
G1 X112.004 Y144.997 E0.09432
G1 X109.175 Y143.963 E0.09442
G1 X106.564 Y142.799 E0.08965
G1 X104.039 Y141.458 E0.08963
G1 X101.483 Y139.865 E0.09444
G1 X99.111 Y138.142 E0.09193
G1 X96.917 Y136.303 E0.08974
G1 X94.748 Y134.214 E0.09444
G1 X92.736 Y131.973 E0.09442
G1 X90.976 Y129.719 E0.08965
G1 X89.337 Y127.289 E0.09192
G1 X87.834 Y124.678 E0.09444
G1 X86.581 Y122.105 E0.08975
G1 X85.508 Y119.455 E0.08963
G1 X84.574 Y116.592 E0.09444
G1 X83.849 Y113.669 E0.09442
G1 X83.354 Y110.853 E0.08965
G1 X83.053 Y108.006 E0.08974
G1 X82.946 Y104.927 E0.09662
G1 X83.047 Y102.066 E0.08974
G1 X83.345 Y99.225 E0.08958
G1 X83.864 Y96.256 E0.09449
G1 X84.596 Y93.335 E0.09442
G1 X85.481 Y90.616 E0.08965
G1 X86.580 Y87.896 E0.09198
G1 X87.904 Y85.191 E0.09442
G1 X89.334 Y82.715 E0.08965
G1 X90.974 Y80.285 E0.09192
G1 X92.795 Y77.959 E0.09261
G1 F8640
G1 X94.747 Y75.787 E-0.67438
G1 X95.014 Y75.529 E-0.08562
G1 E-0.04000 F2100.00000
G1 Z0.800 F10800.000
G1 X94.621 Y79.509
G1 Z0.200
G1 E0.80000 F2100.00000
G1 F1200
G1 X96.473 Y77.452 E0.08679
G1 X98.465 Y75.529 E0.08679
G1 X100.585 Y73.750 E0.08679
G1 X102.824 Y72.123 E0.08679
G1 X105.172 Y70.656 E0.08679
G1 X107.616 Y69.357 E0.08679
G1 X110.144 Y68.231 E0.08679
G1 X112.744 Y67.285 E0.08674
G1 X115.406 Y66.521 E0.08684
G1 X118.114 Y65.946 E0.08679
G1 X120.855 Y65.561 E0.08679
G1 X123.616 Y65.368 E0.08679
G1 X126.386 Y65.368 E0.08684
G1 X129.145 Y65.561 E0.08674
G1 X131.886 Y65.946 E0.08679
G1 X134.594 Y66.521 E0.08679
G1 X137.256 Y67.285 E0.08684
G1 X139.856 Y68.231 E0.08674
G1 X142.384 Y69.357 E0.08679
G1 X144.828 Y70.656 E0.08679
G1 X147.176 Y72.123 E0.08679
G1 X149.415 Y73.750 E0.08679
G1 X151.535 Y75.529 E0.08679
G1 X153.527 Y77.452 E0.08679
G1 X155.379 Y79.509 E0.08679
G1 X157.083 Y81.690 E0.08679
G1 X158.631 Y83.985 E0.08679
G1 X160.015 Y86.382 E0.08679
G1 X161.229 Y88.872 E0.08684
G1 X162.265 Y91.437 E0.08674
G1 X163.120 Y94.069 E0.08679
G1 X163.790 Y96.757 E0.08684
G1 X164.271 Y99.481 E0.08674
G1 X164.560 Y102.234 E0.08679
G1 X164.657 Y105.000 E0.08679
G1 X164.560 Y107.766 E0.08679
G1 X164.271 Y110.519 E0.08679
G1 X163.790 Y113.243 E0.08674
G1 X163.120 Y115.931 E0.08684
G1 X162.265 Y118.563 E0.08679
G1 X161.229 Y121.128 E0.08674
G1 X160.015 Y123.618 E0.08684
G1 X158.631 Y126.015 E0.08679
G1 X157.083 Y128.310 E0.08679
G1 X155.379 Y130.491 E0.08679
G1 X153.527 Y132.548 E0.08679
G1 X151.535 Y134.471 E0.08679
G1 X149.415 Y136.250 E0.08679
G1 X147.176 Y137.877 E0.08679
G1 X144.828 Y139.344 E0.08679
G1 X142.384 Y140.643 E0.08679
G1 X139.856 Y141.769 E0.08679
G1 X137.255 Y142.716 E0.08679
G1 X134.594 Y143.479 E0.08679
G1 X131.886 Y144.054 E0.08679
G1 X129.145 Y144.439 E0.08679
G1 X126.384 Y144.632 E0.08679
G1 X123.616 Y144.632 E0.08679
G1 X120.855 Y144.439 E0.08679
G1 X118.114 Y144.054 E0.08679
G1 X115.406 Y143.479 E0.08679
G1 X112.744 Y142.715 E0.08684
G1 X110.144 Y141.769 E0.08674
G1 X107.616 Y140.643 E0.08679
G1 X105.172 Y139.344 E0.08679
G1 X102.824 Y137.877 E0.08679
G1 X100.585 Y136.250 E0.08679
G1 X98.463 Y134.469 E0.08684
G1 X96.473 Y132.548 E0.08674
G1 X94.621 Y130.491 E0.08679
G1 X92.916 Y128.308 E0.08684
G1 X91.369 Y126.015 E0.08673
G1 X89.985 Y123.618 E0.08679
G1 X88.771 Y121.128 E0.08684
G1 X87.735 Y118.563 E0.08674
G1 X86.880 Y115.931 E0.08679
G1 X86.210 Y113.245 E0.08679
G1 X85.729 Y110.519 E0.08679
G1 X85.440 Y107.766 E0.08679
G1 X85.343 Y105.000 E0.08679
G1 X85.440 Y102.234 E0.08679
G1 X85.729 Y99.481 E0.08679
G1 X86.210 Y96.755 E0.08679
G1 X86.880 Y94.069 E0.08679
G1 X87.735 Y91.437 E0.08679
G1 X88.772 Y88.870 E0.08679
G1 X89.985 Y86.384 E0.08674
G1 X91.369 Y83.985 E0.08684
G1 X92.917 Y81.690 E0.08679
G1 X94.584 Y79.557 E0.08491
M106 S255
;BEFORE_LAYER_CHANGE
G92 E0.0
;0.35


G1 Z0.350 F10800.000
;AFTER_LAYER_CHANGE
;0.35
M104 S210 ; set temperature
G1 E-0.80000 F2100.00000
G1 Z0.950 F10800.000
G1 X92.700 Y78.081
G1 Z0.350
G1 E0.80000 F2100.00000
G1 F1599
G1 X92.832 Y77.912 E0.00518
G1 X94.747 Y75.787 E0.06919
G1 X96.804 Y73.799 E0.06918
G1 X99.108 Y71.860 E0.07285
G1 X101.547 Y70.093 E0.07283
G1 X103.971 Y68.580 E0.06911
G1 X106.499 Y67.234 E0.06926
G1 X109.313 Y65.981 E0.07448
G1 X112.003 Y65.004 E0.06922
G1 X114.750 Y64.214 E0.06914
G1 X117.697 Y63.584 E0.07289
G1 X120.677 Y63.169 E0.07276
G1 X123.531 Y62.971 E0.06919
G1 X126.395 Y62.969 E0.06926
G1 X129.396 Y63.175 E0.07276
G1 X132.378 Y63.598 E0.07283
G1 X135.174 Y64.194 E0.06915
G1 X137.926 Y64.982 E0.06922
G1 X140.822 Y66.036 E0.07452
G1 X143.436 Y67.201 E0.06922
G1 X145.961 Y68.542 E0.06914
G1 X148.517 Y70.135 E0.07285
G1 X150.889 Y71.858 E0.07091
G1 X153.083 Y73.697 E0.06922
G1 X155.252 Y75.786 E0.07285
G1 X157.264 Y78.027 E0.07283
G1 X159.024 Y80.281 E0.06915
G1 X160.663 Y82.711 E0.07090
G1 X162.167 Y85.324 E0.07292
G1 X163.419 Y87.895 E0.06915
G1 X164.493 Y90.548 E0.06923
G1 X165.445 Y93.479 E0.07452
G1 X166.136 Y96.257 E0.06923
G1 X166.634 Y99.072 E0.06914
G1 X166.953 Y102.067 E0.07284
G1 X167.054 Y105.073 E0.07276
G1 X166.953 Y107.934 E0.06922
G1 X166.655 Y110.775 E0.06910
G1 X166.136 Y113.742 E0.07284
G1 X165.404 Y116.665 E0.07287
G1 X164.519 Y119.384 E0.06915
G1 X163.420 Y122.104 E0.07095
G1 X162.095 Y124.811 E0.07287
G1 X160.665 Y127.285 E0.06911
G1 X159.025 Y129.717 E0.07094
G1 X157.168 Y132.088 E0.07285
G1 X155.252 Y134.214 E0.06923
G1 X153.195 Y136.202 E0.06918
G1 X150.892 Y138.140 E0.07279
G1 X148.453 Y139.907 E0.07283
G1 X146.027 Y141.421 E0.06915
G1 X143.501 Y142.766 E0.06923
G1 X140.687 Y144.019 E0.07448
G1 X137.997 Y144.996 E0.06922
G1 X135.246 Y145.787 E0.06923
G1 X132.303 Y146.416 E0.07280
G1 X129.320 Y146.832 E0.07283
G1 X126.467 Y147.030 E0.06915
G1 X123.536 Y147.030 E0.07090
G1 X120.531 Y146.816 E0.07285
G1 X117.697 Y146.416 E0.06923
G1 X114.897 Y145.822 E0.06923
G1 X112.004 Y144.997 E0.07276
G1 X109.175 Y143.963 E0.07283
G1 X106.564 Y142.799 E0.06915
G1 X104.039 Y141.458 E0.06914
G1 X101.483 Y139.865 E0.07285
G1 X99.111 Y138.142 E0.07091
G1 X96.917 Y136.303 E0.06922
G1 X94.748 Y134.214 E0.07285
G1 X92.736 Y131.973 E0.07283
G1 X90.976 Y129.719 E0.06915
G1 X89.337 Y127.289 E0.07090
G1 X87.834 Y124.678 E0.07285
G1 X86.581 Y122.105 E0.06923
G1 X85.508 Y119.455 E0.06914
G1 X84.574 Y116.592 E0.07285
G1 X83.849 Y113.669 E0.07283
G1 X83.354 Y110.853 E0.06915
G1 X83.053 Y108.006 E0.06922
G1 X82.946 Y104.927 E0.07453
G1 X83.047 Y102.066 E0.06922
G1 X83.345 Y99.225 E0.06910
G1 X83.864 Y96.256 E0.07288
G1 X84.596 Y93.335 E0.07283
G1 X85.481 Y90.616 E0.06915
G1 X86.580 Y87.896 E0.07095
G1 X87.904 Y85.191 E0.07283
G1 X89.334 Y82.715 E0.06915
G1 X90.974 Y80.285 E0.07090
G1 X92.663 Y78.128 E0.06626
G1 F8640
G1 X92.832 Y77.912 E-0.06330
G1 X94.747 Y75.787 E-0.66055
G1 X94.860 Y75.678 E-0.03614
G1 E-0.04000 F2100.00000
G1 Z0.950 F10800.000
G1 X94.745 Y79.754
G1 Z0.350
G1 E0.80000 F2100.00000
M204 S800
G1 F1500
G1 X96.652 Y77.625 E0.07449
G1 X98.631 Y75.714 E0.07167
G1 X100.738 Y73.946 E0.07167
G1 X102.963 Y72.329 E0.07167
G1 X105.296 Y70.872 E0.07167
G1 X107.725 Y69.580 E0.07167
G1 X110.233 Y68.463 E0.07155
G1 X112.822 Y67.521 E0.07179
G1 X115.466 Y66.762 E0.07167
G1 X118.157 Y66.191 E0.07167
G1 X120.876 Y65.808 E0.07155
G1 X123.625 Y65.616 E0.07179
G1 X126.380 Y65.616 E0.07179
G1 X129.119 Y65.808 E0.07155
G1 X131.843 Y66.191 E0.07167
G1 X134.534 Y66.762 E0.07167
G1 X137.178 Y67.521 E0.07167
G1 X139.763 Y68.461 E0.07167
G1 X142.275 Y69.580 E0.07167
G1 X144.704 Y70.872 E0.07167
G1 X147.037 Y72.329 E0.07167
G1 X149.262 Y73.946 E0.07167
G1 X151.373 Y75.717 E0.07179
G1 X153.348 Y77.625 E0.07155
G1 X155.188 Y79.669 E0.07167
G1 X156.882 Y81.836 E0.07167
G1 X158.420 Y84.117 E0.07167
G1 X159.795 Y86.499 E0.07167
G1 X161.001 Y88.971 E0.07167
G1 X162.032 Y91.522 E0.07167
G1 X162.882 Y94.138 E0.07167
G1 X163.547 Y96.807 E0.07167
G1 X164.025 Y99.515 E0.07167
G1 X164.312 Y102.251 E0.07167
G1 X164.408 Y105.000 E0.07167
G1 X164.312 Y107.749 E0.07167
G1 X164.025 Y110.485 E0.07167
G1 X163.547 Y113.193 E0.07167
G1 X162.882 Y115.862 E0.07167
G1 X162.032 Y118.478 E0.07167
G1 X161.001 Y121.029 E0.07167
G1 X159.797 Y123.497 E0.07155
G1 X158.420 Y125.883 E0.07179
G1 X156.882 Y128.164 E0.07167
G1 X155.188 Y130.331 E0.07167
G1 X153.348 Y132.375 E0.07167
G1 X151.369 Y134.286 E0.07167
G1 X149.262 Y136.054 E0.07167
G1 X147.037 Y137.671 E0.07167
G1 X144.704 Y139.128 E0.07167
G1 X142.275 Y140.420 E0.07167
G1 X139.763 Y141.539 E0.07167
G1 X137.178 Y142.479 E0.07167
G1 X134.534 Y143.238 E0.07167
G1 X131.843 Y143.809 E0.07167
G1 X129.119 Y144.192 E0.07167
G1 X126.375 Y144.384 E0.07167
G1 X123.625 Y144.384 E0.07167
G1 X120.881 Y144.192 E0.07167
G1 X118.157 Y143.809 E0.07167
G1 X115.466 Y143.238 E0.07167
G1 X112.822 Y142.479 E0.07167
G1 X110.237 Y141.539 E0.07167
G1 X107.725 Y140.420 E0.07167
G1 X105.296 Y139.128 E0.07167
G1 X102.963 Y137.671 E0.07167
G1 X100.734 Y136.051 E0.07179
G1 X98.631 Y134.286 E0.07155
G1 X96.652 Y132.375 E0.07167
G1 X94.812 Y130.331 E0.07167
G1 X93.118 Y128.164 E0.07167
G1 X91.580 Y125.883 E0.07167
G1 X90.203 Y123.497 E0.07179
G1 X88.999 Y121.029 E0.07155
G1 X87.968 Y118.478 E0.07167
G1 X87.117 Y115.858 E0.07179
G1 X86.453 Y113.193 E0.07155
G1 X85.975 Y110.485 E0.07167
G1 X85.688 Y107.744 E0.07179
G1 X85.592 Y105.000 E0.07155
G1 X85.688 Y102.256 E0.07155
G1 X85.975 Y99.515 E0.07179
G1 X86.453 Y96.807 E0.07167
G1 X87.118 Y94.138 E0.07167
G1 X87.968 Y91.522 E0.07167
G1 X88.999 Y88.971 E0.07167
G1 X90.205 Y86.499 E0.07167
G1 X91.580 Y84.117 E0.07167
G1 X93.118 Y81.836 E0.07167
G1 X94.708 Y79.802 E0.06728
M204 S1000
;BEFORE_LAYER_CHANGE
G92 E0.0
;0.5


G1 Z0.500 F10800.000
;AFTER_LAYER_CHANGE
;0.5
G1 E-0.80000 F2100.00000
G1 Z1.100 F10800.000
G1 X92.628 Y78.173
G1 Z0.500
G1 E0.80000 F2100.00000
G1 F1591
G1 X92.832 Y77.912 E0.00801
G1 X94.747 Y75.787 E0.06919
G1 X96.804 Y73.799 E0.06918
G1 X99.108 Y71.860 E0.07285
G1 X101.547 Y70.093 E0.07283
G1 X103.971 Y68.580 E0.06911
G1 X106.499 Y67.234 E0.06926
G1 X109.313 Y65.981 E0.07448
G1 X112.003 Y65.004 E0.06922
G1 X114.750 Y64.214 E0.06914
G1 X117.697 Y63.584 E0.07289
G1 X120.677 Y63.169 E0.07276
G1 X123.531 Y62.971 E0.06919
G1 X126.395 Y62.969 E0.06926
G1 X129.396 Y63.175 E0.07276
G1 X132.378 Y63.598 E0.07283
G1 X135.174 Y64.194 E0.06915
G1 X137.926 Y64.982 E0.06922
G1 X140.822 Y66.036 E0.07452
G1 X143.436 Y67.201 E0.06922
G1 X145.961 Y68.542 E0.06914
G1 X148.517 Y70.135 E0.07285
G1 X150.889 Y71.858 E0.07091
G1 X153.083 Y73.697 E0.06922
G1 X155.252 Y75.786 E0.07285
G1 X157.264 Y78.027 E0.07283
G1 X159.024 Y80.281 E0.06915
G1 X160.663 Y82.711 E0.07090
G1 X162.167 Y85.324 E0.07292
G1 X163.419 Y87.895 E0.06915
G1 X164.493 Y90.548 E0.06923
G1 X165.445 Y93.479 E0.07452
G1 X166.136 Y96.257 E0.06923
G1 X166.634 Y99.072 E0.06914
G1 X166.953 Y102.067 E0.07284
G1 X167.054 Y105.073 E0.07276
G1 X166.953 Y107.934 E0.06922
G1 X166.655 Y110.775 E0.06910
G1 X166.136 Y113.742 E0.07284
G1 X165.404 Y116.665 E0.07287
G1 X164.519 Y119.384 E0.06915
G1 X163.420 Y122.104 E0.07095
G1 X162.095 Y124.811 E0.07287
G1 X160.665 Y127.285 E0.06911
G1 X159.025 Y129.717 E0.07094
G1 X157.168 Y132.088 E0.07285
G1 X155.252 Y134.214 E0.06923
G1 X153.195 Y136.202 E0.06918
G1 X150.892 Y138.140 E0.07279
G1 X148.453 Y139.907 E0.07283
G1 X146.027 Y141.421 E0.06915
G1 X143.501 Y142.766 E0.06923
G1 X140.687 Y144.019 E0.07448
G1 X137.997 Y144.996 E0.06922
G1 X135.246 Y145.787 E0.06923
G1 X132.303 Y146.416 E0.07280
G1 X129.320 Y146.832 E0.07283
G1 X126.467 Y147.030 E0.06915
G1 X123.536 Y147.030 E0.07090
G1 X120.531 Y146.816 E0.07285
G1 X117.697 Y146.416 E0.06923
G1 X114.897 Y145.822 E0.06923
G1 X112.004 Y144.997 E0.07276
G1 X109.175 Y143.963 E0.07283
G1 X106.564 Y142.799 E0.06915
G1 X104.039 Y141.458 E0.06914
G1 X101.483 Y139.865 E0.07285
G1 X99.111 Y138.142 E0.07091
G1 X96.917 Y136.303 E0.06922
G1 X94.748 Y134.214 E0.07285
G1 X92.736 Y131.973 E0.07283
G1 X90.976 Y129.719 E0.06915
G1 X89.337 Y127.289 E0.07090
G1 X87.834 Y124.678 E0.07285
G1 X86.581 Y122.105 E0.06923
G1 X85.508 Y119.455 E0.06914
G1 X84.574 Y116.592 E0.07285
G1 X83.849 Y113.669 E0.07283
G1 X83.354 Y110.853 E0.06915
G1 X83.053 Y108.006 E0.06922
G1 X82.946 Y104.927 E0.07453
G1 X83.047 Y102.066 E0.06922
G1 X83.345 Y99.225 E0.06910
G1 X83.864 Y96.256 E0.07288
M73 Q3 S30
G1 X84.596 Y93.335 E0.07283
G1 X85.481 Y90.616 E0.06915
G1 X86.580 Y87.896 E0.07095
M73 P3 R30
G1 X87.904 Y85.191 E0.07283
G1 X89.334 Y82.715 E0.06915
G1 X90.974 Y80.285 E0.07090
G1 X92.591 Y78.220 E0.06343
G1 F8640
G1 X92.832 Y77.912 E-0.09029
G1 X94.747 Y75.787 E-0.66055
G1 X94.776 Y75.759 E-0.00915
G1 E-0.04000 F2100.00000
G1 Z1.100 F10800.000
G1 X94.830 Y79.970
G1 Z0.500
G1 E0.80000 F2100.00000
M204 S800
G1 F1500
G1 X94.965 Y79.797 E0.00569
G1 X96.796 Y77.764 E0.07131
G1 X98.765 Y75.863 E0.07131
G1 X100.861 Y74.104 E0.07130
G1 X103.075 Y72.495 E0.07131
