; generated by PrusaSlicer 2.2.0+win64 on 2020-07-22 at 10:21:18 UTC

; 

; external perimeters extrusion width = 0.45mm
; perimeters extrusion width = 0.45mm
; infill extrusion width = 0.45mm
; solid infill extrusion width = 0.45mm
; top infill extrusion width = 0.40mm
; first layer extrusion width = 0.42mm

M73 P0 R95
M73 Q0 S95
M201 X1000 Y1000 Z200 E5000 ; sets maximum accelerations, mm/sec^2
M203 X200 Y200 Z12 E120 ; sets maximum feedrates, mm/sec
M204 P1250 R1250 T1250 ; sets acceleration (P, T) and retract acceleration (R), mm/sec^2
M205 X8.00 Y8.00 Z0.40 E4.50 ; sets the jerk limits, mm/sec
M205 S0 T0 ; sets the minimum extruding and travel feed rate, mm/sec
M107
M862.3 P "MK3S" ; printer model check
M862.1 P0.4 ; nozzle diameter check
M115 U3.9.0 ; tell printer latest fw version
G90 ; use absolute coordinates
M83 ; extruder relative mode
M104 S215 ; set extruder temp
M140 S60 ; set bed temp
M190 S60 ; wait for bed temp
M109 S215 ; wait for extruder temp
G28 W ; home all without mesh bed level
G80 ; mesh bed leveling
G1 Y-3.0 F1000.0 ; go outside print area
G92 E0.0
G1 X60.0 E9.0 F1000.0 ; intro line
M73 Q0 S95
M73 P0 R95
G1 X100.0 E12.5 F1000.0 ; intro line
G92 E0.0
M221 S95
G21 ; set units to millimeters
G90 ; use absolute coordinates
M83 ; use relative distances for extrusion
M900 K0.06 ; Filament gcode LA 1.5
M900 K30 ; Filament gcode LA 1.0
;BEFORE_LAYER_CHANGE
G92 E0.0
;0.2


G1 E-0.80000 F2100.00000
G1 Z0.600 F10800.000
;AFTER_LAYER_CHANGE
;0.2
G1 X113.763 Y87.059
G1 Z0.200
G1 E0.80000 F2100.00000
M204 S1000
G1 F1200.000
G1 X114.282 Y86.628 E0.02116
G1 X114.886 Y86.338 E0.02103
G1 X115.547 Y86.201 E0.02116
G1 X130.773 Y86.192 E0.47740
G1 X131.770 Y86.381 E0.03183
G1 X132.632 Y86.918 E0.03183
G1 X133.242 Y87.734 E0.03195
G1 X133.513 Y88.712 E0.03183
G1 X133.523 Y112.983 E0.76100
G1 X133.429 Y113.660 E0.02141
G1 X133.172 Y114.292 E0.02141
G1 X132.764 Y114.845 E0.02154
G1 X132.228 Y115.282 E0.02167
G1 X131.601 Y115.572 E0.02167
G1 X130.925 Y115.696 E0.02154
G1 X115.711 Y115.700 E0.47702
G1 X115.044 Y115.603 E0.02116
G1 X114.423 Y115.349 E0.02103
G1 X113.858 Y114.930 E0.02205
G1 X113.420 Y114.385 E0.02192
G1 X113.132 Y113.743 E0.02205
G1 X113.017 Y113.050 E0.02205
G1 X113.015 Y88.909 E0.75690
G1 X113.109 Y88.233 E0.02141
G1 X113.366 Y87.600 E0.02141
G1 X113.727 Y87.108 E0.01915
G1 F8640.000
G1 X114.282 Y86.628 E-0.16929
G1 X114.886 Y86.338 E-0.15487
G1 X115.547 Y86.201 E-0.15581
G1 X116.760 Y86.200 E-0.28002
G1 E-0.04000 F2100.00000
G1 Z0.800 F10800.000
G1 X131.639 Y86.734
G1 Z0.200
G1 E0.80000 F2100.00000
G1 F1200.000
G1 X132.389 Y87.207 E0.02778
G1 X132.912 Y87.918 E0.02767
G1 X133.139 Y88.770 E0.02767
G1 X133.146 Y112.973 E0.75886
G1 X133.063 Y113.568 E0.01882
G1 X132.835 Y114.122 E0.01882
G1 X132.477 Y114.600 E0.01870
G1 X132.015 Y114.971 E0.01858
G1 X131.472 Y115.217 E0.01870
G1 X130.884 Y115.321 E0.01870
G1 X115.723 Y115.323 E0.47536
G1 X115.140 Y115.239 E0.01846
G1 X114.593 Y115.012 E0.01858
G1 X114.110 Y114.649 E0.01894
G1 X113.734 Y114.176 E0.01894
G1 X113.490 Y113.624 E0.01894
G1 X113.393 Y113.024 E0.01906
G1 X113.392 Y88.916 E0.75588
G1 X113.475 Y88.322 E0.01882
G1 X113.703 Y87.770 E0.01870
G1 X114.050 Y87.304 E0.01823
G1 X114.500 Y86.936 E0.01823
G1 X115.026 Y86.688 E0.01823
G1 X115.600 Y86.575 E0.01835
G1 X130.773 Y86.569 E0.47572
G1 X131.580 Y86.723 E0.02578
G1 F8640.000
G1 X132.389 Y87.207 E-0.21756
G1 X132.912 Y87.918 E-0.20374
G1 X133.139 Y88.770 E-0.20374
G1 X133.140 Y89.355 E-0.13497
G1 E-0.04000 F2100.00000
G1 Z0.800 F10800.000
G1 X129.982 Y89.733
G1 Z0.200
G1 E0.80000 F2100.00000
G1 F1200.000
G1 X129.982 Y112.159 E0.70315
G1 X116.556 Y112.159 E0.42096
G1 X116.556 Y89.733 E0.70315
G1 X129.922 Y89.733 E0.41908
G1 X130.359 Y89.356 F10800.000
G1 F1200.000
G1 X130.359 Y112.536 E0.72679
G1 X116.179 Y112.536 E0.44460
G1 X116.179 Y89.356 E0.72679
G1 X130.299 Y89.356 E0.44272
G1 X130.286 Y89.750 F10800.000
G1 F8640.000
G1 X130.307 Y92.648 E-0.76000
G1 E-0.04000 F2100.00000
G1 Z0.800 F10800.000
G1 X117.438 Y112.046
G1 Z0.200
G1 E0.80000 F2100.00000
G1 F1200.000
G1 X116.839 Y111.447 E0.02676
G1 X116.839 Y110.910 E0.01699
G1 X117.805 Y111.876 E0.04320
G1 X118.343 Y111.876 E0.01699
G1 X116.839 Y110.372 E0.06722
G1 X116.839 Y109.835 E0.01699
G1 X118.880 Y111.876 E0.09124
G1 X119.418 Y111.876 E0.01699
G1 X116.839 Y109.297 E0.11527
G1 X116.839 Y108.760 E0.01699
G1 X119.955 Y111.876 E0.13929
G1 X120.493 Y111.876 E0.01699
G1 X116.839 Y108.222 E0.16331
G1 X116.839 Y107.685 E0.01699
G1 X121.030 Y111.876 E0.18733
G1 X121.568 Y111.876 E0.01699
G1 X116.839 Y107.147 E0.21136
G1 X116.839 Y106.610 E0.01699
G1 X122.105 Y111.876 E0.23538
G1 X122.643 Y111.876 E0.01699
G1 X116.839 Y106.072 E0.25940
G1 X116.839 Y105.535 E0.01699
G1 X123.180 Y111.876 E0.28342
G1 X123.718 Y111.876 E0.01699
G1 X116.839 Y104.997 E0.30744
G1 X116.839 Y104.460 E0.01699
G1 X124.255 Y111.876 E0.33147
G1 X124.793 Y111.876 E0.01699
G1 X116.839 Y103.922 E0.35549
G1 X116.839 Y103.385 E0.01699
G1 X125.330 Y111.876 E0.37951
G1 X125.868 Y111.876 E0.01699
G1 X116.839 Y102.847 E0.40353
G1 X116.839 Y102.310 E0.01699
G1 X126.405 Y111.876 E0.42755
G1 X126.943 Y111.876 E0.01699
G1 X116.839 Y101.772 E0.45158
G1 X116.839 Y101.235 E0.01699
G1 X127.480 Y111.876 E0.47560
G1 X128.018 Y111.876 E0.01699
G1 X116.839 Y100.697 E0.49962
G1 X116.839 Y100.160 E0.01699
G1 X128.555 Y111.876 E0.52364
G1 X129.093 Y111.876 E0.01699
G1 X116.839 Y99.623 E0.54767
G1 X116.839 Y99.085 E0.01699
G1 X129.630 Y111.876 E0.57169
G1 X129.699 Y111.876 E0.00217
G1 X129.699 Y111.408 E0.01481
G1 X116.839 Y98.548 E0.57476
G1 X116.839 Y98.010 E0.01699
G1 X129.699 Y110.870 E0.57476
G1 X129.699 Y110.333 E0.01699
G1 X116.839 Y97.473 E0.57476
G1 X116.839 Y96.935 E0.01699
G1 X129.699 Y109.795 E0.57476
G1 X129.699 Y109.258 E0.01699
G1 X116.839 Y96.398 E0.57476
G1 X116.839 Y95.860 E0.01699
G1 X129.699 Y108.720 E0.57476
G1 X129.699 Y108.183 E0.01699
G1 X116.839 Y95.323 E0.57476
G1 X116.839 Y94.785 E0.01699
G1 X129.699 Y107.645 E0.57476
G1 X129.699 Y107.108 E0.01699
G1 X116.839 Y94.248 E0.57476
G1 X116.839 Y93.710 E0.01699
G1 X129.699 Y106.570 E0.57476
G1 X129.699 Y106.033 E0.01699
G1 X116.839 Y93.173 E0.57476
G1 X116.839 Y92.635 E0.01699
G1 X129.699 Y105.495 E0.57476
G1 X129.699 Y104.958 E0.01699
G1 X116.839 Y92.098 E0.57476
G1 X116.839 Y91.560 E0.01699
G1 X129.699 Y104.420 E0.57476
G1 X129.699 Y103.883 E0.01699
G1 X116.839 Y91.023 E0.57476
G1 X116.839 Y90.485 E0.01699
G1 X129.699 Y103.345 E0.57476
G1 X129.699 Y102.808 E0.01699
G1 X116.907 Y90.016 E0.57169
G1 X117.445 Y90.016 E0.01699
G1 X129.699 Y102.270 E0.54767
G1 X129.699 Y101.733 E0.01699
G1 X117.982 Y90.016 E0.52365
G1 X118.520 Y90.016 E0.01699
G1 X129.699 Y101.195 E0.49963
G1 X129.699 Y100.658 E0.01699
G1 X119.057 Y90.016 E0.47560
G1 X119.595 Y90.016 E0.01699
G1 X129.699 Y100.120 E0.45158
G1 X129.699 Y99.583 E0.01699
G1 X120.132 Y90.016 E0.42756
G1 X120.670 Y90.016 E0.01699
G1 X129.699 Y99.045 E0.40354
G1 X129.699 Y98.508 E0.01699
G1 X121.207 Y90.016 E0.37952
G1 X121.745 Y90.016 E0.01699
G1 X129.699 Y97.970 E0.35549
G1 X129.699 Y97.433 E0.01699
G1 X122.282 Y90.016 E0.33147
G1 X122.820 Y90.016 E0.01699
G1 X129.699 Y96.895 E0.30745
G1 X129.699 Y96.358 E0.01699
G1 X123.357 Y90.016 E0.28343
G1 X123.895 Y90.016 E0.01699
G1 X129.699 Y95.820 E0.25941
G1 X129.699 Y95.283 E0.01699
G1 X124.432 Y90.016 E0.23538
G1 X124.970 Y90.016 E0.01699
G1 X129.699 Y94.745 E0.21136
G1 X129.699 Y94.208 E0.01699
M73 Q1 S94
G1 X125.507 Y90.016 E0.18734
G1 X126.045 Y90.016 E0.01699
G1 X129.699 Y93.670 E0.16332
M73 P1 R94
G1 X129.699 Y93.133 E0.01699
G1 X126.582 Y90.016 E0.13929
G1 X127.120 Y90.016 E0.01699
G1 X129.699 Y92.595 E0.11527
G1 X129.699 Y92.058 E0.01699
G1 X127.657 Y90.016 E0.09125
G1 X128.195 Y90.016 E0.01699
G1 X129.699 Y91.520 E0.06723
G1 X129.699 Y90.983 E0.01699
G1 X128.732 Y90.016 E0.04321
G1 X129.270 Y90.016 E0.01699
G1 X129.869 Y90.615 E0.02677
M106 S255
;BEFORE_LAYER_CHANGE
G92 E0.0
;0.35


G1 F8640.000
G1 X129.270 Y90.016 E-0.19558
G1 X128.732 Y90.016 E-0.12411
G1 X129.699 Y90.983 E-0.31568
G1 X129.699 Y91.520 E-0.12411
G1 X129.697 Y91.519 E-0.00053
G1 E-0.04000 F2100.00000
G1 Z0.800 F10800.000
;AFTER_LAYER_CHANGE
;0.35
G1 X133.242 Y87.734
G1 Z0.350
G1 E0.80000 F2100.00000
G1 F3000.000
G1 X133.513 Y88.712 E0.02455
G1 X133.523 Y112.983 E0.58699
G1 X133.429 Y113.660 E0.01652
G1 X133.172 Y114.292 E0.01652
G1 X132.764 Y114.845 E0.01662
G1 X132.228 Y115.282 E0.01671
G1 X131.601 Y115.572 E0.01671
G1 X130.925 Y115.696 E0.01662
G1 X115.711 Y115.700 E0.36794
G1 X115.044 Y115.603 E0.01632
G1 X114.423 Y115.349 E0.01622
G1 X113.858 Y114.930 E0.01701
G1 X113.420 Y114.385 E0.01691
G1 X113.132 Y113.743 E0.01701
G1 X113.017 Y113.050 E0.01701
G1 X113.015 Y88.909 E0.58383
G1 X113.109 Y88.233 E0.01652
G1 X113.366 Y87.600 E0.01652
G1 X113.763 Y87.059 E0.01622
G1 X114.282 Y86.628 E0.01632
G1 X114.886 Y86.338 E0.01622
G1 X115.547 Y86.201 E0.01632
G1 X130.773 Y86.192 E0.36824
G1 X131.770 Y86.381 E0.02455
G1 X132.632 Y86.918 E0.02455
G1 X133.206 Y87.686 E0.02320
G1 X132.904 Y87.908 F10800.000
G1 F3000.000
G1 X133.139 Y88.770 E0.02162
G1 X133.146 Y112.973 E0.58534
G1 X133.063 Y113.568 E0.01452
G1 X132.835 Y114.122 E0.01452
G1 X132.477 Y114.600 E0.01442
G1 X132.015 Y114.971 E0.01433
G1 X131.472 Y115.217 E0.01442
G1 X130.884 Y115.321 E0.01442
G1 X115.723 Y115.323 E0.36667
G1 X115.140 Y115.239 E0.01424
G1 X114.593 Y115.012 E0.01433
G1 X114.110 Y114.649 E0.01461
G1 X113.734 Y114.176 E0.01461
G1 X113.490 Y113.624 E0.01461
G1 X113.393 Y113.024 E0.01470
G1 X113.392 Y88.916 E0.58304
G1 X113.475 Y88.322 E0.01452
G1 X113.703 Y87.770 E0.01442
G1 X114.050 Y87.304 E0.01406
G1 X114.500 Y86.936 E0.01406
G1 X115.026 Y86.688 E0.01406
G1 X115.600 Y86.575 E0.01415
G1 X130.773 Y86.569 E0.36694
G1 X131.639 Y86.734 E0.02134
G1 X132.389 Y87.207 E0.02143
G1 X132.869 Y87.859 E0.01959
G1 F8640.000
G1 X133.139 Y88.770 E-0.21939
G1 X133.140 Y91.112 E-0.54061
G1 E-0.04000 F2100.00000
G1 Z0.950 F10800.000
G1 X130.126 Y89.589
G1 Z0.350
G1 E0.80000 F2100.00000
M204 S800
G1 F2700.000
G1 X130.126 Y112.304 E0.59184
G1 X116.412 Y112.304 E0.35734
G1 X116.412 Y89.589 E0.59184
G1 X130.066 Y89.589 E0.35578
M204 S1000
G1 X130.544 Y89.171 F10800.000
M204 S800
G1 F1500.000
G1 X130.544 Y112.721 E0.61361
G1 X115.994 Y112.721 E0.37911
G1 X115.994 Y89.171 E0.61361
G1 X130.484 Y89.171 E0.37755
M204 S1000
G1 X130.470 Y89.565 F10800.000
G1 F8640.000
G1 X130.492 Y92.463 E-0.76000
G1 E-0.04000 F2100.00000
G1 Z0.950 F10800.000
G1 X129.142 Y112.178
G1 Z0.350
G1 E0.80000 F2100.00000
G1 F3835
G1 X129.813 Y111.508 E0.02510
G1 X129.813 Y110.907 E0.01588
G1 X128.730 Y111.990 E0.04053
G1 X128.130 Y111.990 E0.01588
G1 X129.813 Y110.307 E0.06299
G1 X129.813 Y109.707 E0.01588
G1 X127.530 Y111.990 E0.08545
G1 X126.929 Y111.990 E0.01588
G1 X129.813 Y109.107 E0.10792
G1 X129.813 Y108.507 E0.01588
G1 X126.329 Y111.990 E0.13038
G1 X125.729 Y111.990 E0.01588
G1 X129.813 Y107.907 E0.15285
G1 X129.813 Y107.306 E0.01588
G1 X125.129 Y111.990 E0.17531
G1 X124.529 Y111.990 E0.01588
G1 X129.813 Y106.706 E0.19777
G1 X129.813 Y106.106 E0.01588
G1 X123.929 Y111.990 E0.22024
G1 X123.328 Y111.990 E0.01588
G1 X129.813 Y105.506 E0.24270
G1 X129.813 Y104.906 E0.01588
G1 X122.728 Y111.990 E0.26517
G1 X122.128 Y111.990 E0.01588
G1 X129.813 Y104.305 E0.28763
G1 X129.813 Y103.705 E0.01588
G1 X121.528 Y111.990 E0.31010
G1 X120.928 Y111.990 E0.01588
G1 X129.813 Y103.105 E0.33256
G1 X129.813 Y102.505 E0.01588
G1 X120.327 Y111.990 E0.35502
G1 X119.727 Y111.990 E0.01588
G1 X129.813 Y101.905 E0.37749
G1 X129.813 Y101.305 E0.01588
G1 X119.127 Y111.990 E0.39995
G1 X118.527 Y111.990 E0.01588
G1 X129.813 Y100.704 E0.42242
G1 X129.813 Y100.104 E0.01588
G1 X117.927 Y111.990 E0.44488
G1 X117.326 Y111.990 E0.01588
G1 X129.813 Y99.504 E0.46735
G1 X129.813 Y98.904 E0.01588
G1 X116.726 Y111.990 E0.48981
G1 X116.725 Y111.391 E0.01585
G1 X129.813 Y98.304 E0.48986
G1 X129.813 Y97.703 E0.01588
G1 X116.725 Y110.791 E0.48986
G1 X116.725 Y110.191 E0.01588
G1 X129.813 Y97.103 E0.48986
G1 X129.813 Y96.503 E0.01588
G1 X116.725 Y109.591 E0.48986
G1 X116.725 Y108.991 E0.01588
G1 X129.813 Y95.903 E0.48986
G1 X129.813 Y95.303 E0.01588
G1 X116.725 Y108.390 E0.48986
G1 X116.725 Y107.790 E0.01588
G1 X129.813 Y94.703 E0.48986
G1 X129.813 Y94.102 E0.01588
G1 X116.725 Y107.190 E0.48986
G1 X116.725 Y106.590 E0.01588
G1 X129.813 Y93.502 E0.48986
G1 X129.813 Y92.902 E0.01588
G1 X116.725 Y105.990 E0.48986
G1 X116.725 Y105.389 E0.01588
G1 X129.813 Y92.302 E0.48986
G1 X129.813 Y91.702 E0.01588
G1 X116.725 Y104.789 E0.48986
G1 X116.725 Y104.189 E0.01588
G1 X129.813 Y91.101 E0.48986
G1 X129.813 Y90.501 E0.01588
G1 X116.725 Y103.589 E0.48986
G1 X116.725 Y102.989 E0.01588
G1 X129.811 Y89.903 E0.48981
G1 X129.211 Y89.903 E0.01588
G1 X116.725 Y102.389 E0.46734
G1 X116.725 Y101.788 E0.01588
G1 X128.611 Y89.903 E0.44488
G1 X128.011 Y89.903 E0.01588
G1 X116.725 Y101.188 E0.42241
G1 X116.725 Y100.588 E0.01588
G1 X127.411 Y89.903 E0.39995
G1 X126.810 Y89.903 E0.01588
G1 X116.725 Y99.988 E0.37748
G1 X116.725 Y99.388 E0.01588
G1 X126.210 Y89.903 E0.35502
G1 X125.610 Y89.903 E0.01588
G1 X116.725 Y98.787 E0.33256
G1 X116.725 Y98.187 E0.01588
G1 X125.010 Y89.903 E0.31009
G1 X124.410 Y89.903 E0.01588
G1 X116.725 Y97.587 E0.28763
G1 X116.725 Y96.987 E0.01588
G1 X123.809 Y89.903 E0.26516
G1 X123.209 Y89.903 E0.01588
G1 X116.725 Y96.387 E0.24270
G1 X116.725 Y95.787 E0.01588
G1 X122.609 Y89.903 E0.22023
G1 X122.009 Y89.903 E0.01588
G1 X116.725 Y95.186 E0.19777
G1 X116.725 Y94.586 E0.01588
G1 X121.409 Y89.903 E0.17531
G1 X120.809 Y89.903 E0.01588
G1 X116.725 Y93.986 E0.15284
G1 X116.725 Y93.386 E0.01588
G1 X120.208 Y89.903 E0.13038
G1 X119.608 Y89.903 E0.01588
G1 X116.725 Y92.786 E0.10791
G1 X116.725 Y92.185 E0.01588
G1 X119.008 Y89.903 E0.08545
G1 X118.408 Y89.903 E0.01588
G1 X116.725 Y91.585 E0.06298
G1 X116.725 Y90.985 E0.01588
G1 X117.808 Y89.903 E0.04052
G1 X117.207 Y89.903 E0.01588
G1 X116.537 Y90.573 E0.02509
;BEFORE_LAYER_CHANGE
G92 E0.0
;0.5


G1 F8640.000
G1 X117.207 Y89.903 E-0.21893
G1 X117.808 Y89.903 E-0.13858
G1 X116.725 Y90.985 E-0.35352
G1 X116.725 Y91.197 E-0.04897
G1 E-0.04000 F2100.00000
G1 Z0.950 F10800.000
;AFTER_LAYER_CHANGE
;0.5
G1 X133.242 Y87.734
G1 Z0.500
G1 E0.80000 F2100.00000
G1 F3000.000
G1 X133.513 Y88.712 E0.02455
G1 X133.523 Y112.983 E0.58699
G1 X133.429 Y113.660 E0.01652
G1 X133.172 Y114.292 E0.01652
G1 X132.764 Y114.845 E0.01662
G1 X132.228 Y115.282 E0.01671
G1 X131.601 Y115.572 E0.01671
G1 X130.925 Y115.696 E0.01662
G1 X115.711 Y115.700 E0.36794
G1 X115.044 Y115.603 E0.01632
G1 X114.423 Y115.349 E0.01622
G1 X113.858 Y114.930 E0.01701
G1 X113.420 Y114.385 E0.01691
G1 X113.132 Y113.743 E0.01701
G1 X113.017 Y113.050 E0.01701
G1 X113.015 Y88.909 E0.58383
G1 X113.109 Y88.233 E0.01652
G1 X113.366 Y87.600 E0.01652
G1 X113.763 Y87.059 E0.01622
G1 X114.282 Y86.628 E0.01632
G1 X114.886 Y86.338 E0.01622
G1 X115.547 Y86.201 E0.01632
G1 X130.773 Y86.192 E0.36824
G1 X131.770 Y86.381 E0.02455
G1 X132.632 Y86.918 E0.02455
G1 X133.206 Y87.686 E0.02320
G1 X132.904 Y87.908 F10800.000
G1 F3000.000
G1 X133.139 Y88.770 E0.02162
G1 X133.146 Y112.973 E0.58534
G1 X133.063 Y113.568 E0.01452
G1 X132.835 Y114.122 E0.01452
G1 X132.477 Y114.600 E0.01442
G1 X132.015 Y114.971 E0.01433
G1 X131.472 Y115.217 E0.01442
G1 X130.884 Y115.321 E0.01442
G1 X115.723 Y115.323 E0.36667
G1 X115.140 Y115.239 E0.01424
G1 X114.593 Y115.012 E0.01433
G1 X114.110 Y114.649 E0.01461
G1 X113.734 Y114.176 E0.01461
G1 X113.490 Y113.624 E0.01461
G1 X113.393 Y113.024 E0.01470
G1 X113.392 Y88.916 E0.58304
G1 X113.475 Y88.322 E0.01452
G1 X113.703 Y87.770 E0.01442
G1 X114.050 Y87.304 E0.01406
G1 X114.500 Y86.936 E0.01406
G1 X115.026 Y86.688 E0.01406
G1 X115.600 Y86.575 E0.01415
G1 X130.773 Y86.569 E0.36694
G1 X131.639 Y86.734 E0.02134
G1 X132.389 Y87.207 E0.02143
G1 X132.869 Y87.859 E0.01959
G1 F8640.000
G1 X133.139 Y88.770 E-0.21939
G1 X133.140 Y91.112 E-0.54061
G1 E-0.04000 F2100.00000
G1 Z1.100 F10800.000
G1 X130.126 Y89.589
G1 Z0.500
G1 E0.80000 F2100.00000
M204 S800
G1 F2700.000
G1 X130.126 Y112.304 E0.59184
